UF-SAMM-Lab/NSF_project_archive_data/MSEC_2022/skeleton_fusion_data/data_files/dynamic_right1/data_files_op/location_test_2021_11_15_10_08_53_OpenPose.csv
Time,Test Joint,Touch Active,H1-Pelvis-x,H1-Pelvis-y,H1-Pelvis-z,H1-Spine-x,H1-Spine-y,H1-Spine-z,H1-Head-x,H1-Head-y,H1-Head-z,H1-R-Shoulder-x,H1-R-Shoulder-y,H1-R-Shoulder-z,H1-R-Elbow-x,H1-R-Elbow-y,H1-R-Elbow-z,H1-R-Wrist-x,H1-R-Wrist-y,H1-R-Wrist-z,H1-L-Shoulder-x,H1-L-Shoulder-y,H1-L-Shoulder-z,H1-L-Elbow-x,H1-L-Elbow-y,H1-L-Elbow-z,H1-L-Wrist-x,H1-L-Wrist-y,H1-L-Wrist-z,H2-Pelvis-x,H2-Pelvis-y,H2-Pelvis-z,H2-Spine-x,H2-Spine-y,H2-Spine-z,H2-Head-x,H2-Head-y,H2-Head-z,H2-R-Shoulder-x,H2-R-Shoulder-y,H2-R-Shoulder-z,H2-R-Elbow-x,H2-R-Elbow-y,H2-R-Elbow-z,H2-R-Wrist-x,H2-R-Wrist-y,H2-R-Wrist-z,H2-L-Shoulder-x,H2-L-Shoulder-y,H2-L-Shoulder-z,H2-L-Elbow-x,H2-L-Elbow-y,H2-L-Elbow-z,H2-L-Wrist-x,H2-L-Wrist-y,H2-L-Wrist-z,HC-Pelvis-x,HC-Pelvis-y,HC-Pelvis-z,HC-Spine-x,HC-Spine-y,HC-Spine-z,HC-Head-x,HC-Head-y,HC-Head-z,HC-R-Shoulder-x,HC-R-Shoulder-y,HC-R-Shoulder-z,HC-R-Elbow-x,HC-R-Elbow-y,HC-R-Elbow-z,HC-R-Wrist-x,HC-R-Wrist-y,HC-R-Wrist-z,HC-L-Shoulder-x,HC-L-Shoulder-y,HC-L-Shoulder-z,HC-L-Elbow-x,HC-L-Elbow-y,HC-L-Elbow-z,HC-L-Wrist-x,HC-L-Wrist-y,HC-L-Wrist-z,Robot-Base(x),Robot-Base(y),Robot-Base(z),Robot-J2(x),Robot-J2(y),Robot-J2(z),Robot-J3(x),Robot-J3(y),Robot-J3(z),Robot-J5(x),Robot-J5(y),Robot-J5(z),Robot-J6(x),Robot-J6(y),Robot-J6(z),Robot-EE(x),Robot-EE(y),Robot-EE(z),Robot-J1-angle,Robot-J2-angle,Robot-J3-angle,Robot-J4-angle,Robot-J5-angle,Robot-J6-angle
1636988964,5,0,0.177049488,1.053614974,0.307697028,0.053241465,0.945573866,0.742690623,0.087725021,0.802819252,0.736698866,-0.094213761,0.887407422,0.721900403,-0.07680887,0.843280971,0.489319056,0.114235297,0.795575082,0.406147301,0.200696692,1.003740311,0.763480842,0.335900664,1.008775711,0.534256458,0.389822185,0.934875965,0.298337966,0.139356047,1.153236628,0.370664477,0.05269517,0.978981733,0.876166523,0.172247097,0.927019536,0.952773511,-0.097014271,0.933722556,0.831021011,-0.003051507,0.904887617,0.601958811,0.23638016,0.896154344,0.593702912,0.202404618,1.024240971,0.921312094,0.360347241,1.106156468,0.777088642,0.301863909,0.830882609,0.577177763,0.177049488,1.053614974,0.307697028,0.032676376,0.927627742,0.814945102,0.074707672,0.753627062,0.807641804,-0.129567027,0.863627791,0.792069852,-0.10999842,0.814015746,0.530574679,0.198485151,0.736983895,0.396275252,0.19491978,0.991627634,0.837820351,0.38019374,1.087718248,0.6686396,0.454638958,0.985690594,0.3429254,0,0,0,0,0,0.337000012,0.091306813,0.189666241,0.337173492,0.207554936,0.431141585,0.337377042,0.283246338,0.58837086,0.337511718,0.343972951,0.714514673,0.337619781,1.122132773,1.569972128,6.47E-05,6.18E-06,-1.24E-05,-0.000105132
1636988964,5,0,0.177049488,1.053614974,0.307697028,0.053241465,0.945573866,0.742690623,0.087725021,0.802819252,0.736698866,-0.094213761,0.887407422,0.721900403,-0.07680887,0.843280971,0.489319056,0.114235297,0.795575082,0.406147301,0.200696692,1.003740311,0.763480842,0.335900664,1.008775711,0.534256458,0.389822185,0.934875965,0.298337966,0.134594217,1.153778791,0.366592854,0.053449903,0.980512023,0.877090633,0.166077003,0.911002159,0.942650914,-0.097673178,0.931103408,0.829528034,0.001102925,0.893428504,0.597785532,0.249949321,0.928323984,0.616767287,0.204572991,1.029920697,0.924653232,0.38818261,1.148805976,0.790574193,0.315511674,0.8599208,0.582796097,0.177049488,1.053614974,0.307697028,0.032676376,0.927627742,0.814945102,0.074707672,0.753627062,0.807641804,-0.129567027,0.863627791,0.792069852,-0.10999842,0.814015746,0.530574679,0.198485151,0.736983895,0.396275252,0.19491978,0.991627634,0.837820351,0.387193352,1.116122842,0.697414517,0.46163857,1.014095187,0.371700317,0,0,0,0,0,0.337000012,0.091306813,0.189666241,0.337173492,0.207554936,0.431141585,0.337377042,0.283246338,0.58837086,0.337511718,0.343972951,0.714514673,0.337619781,1.118368173,1.569972128,6.47E-05,6.18E-06,-1.24E-05,-0.000105132
1636988964,5,0,0.169087768,1.045536995,0.314208806,0.055019073,0.942838848,0.741401315,0.087492891,0.813484669,0.732129216,-0.090861335,0.882363737,0.719520211,-0.071038909,0.844660223,0.4795084,0.116394542,0.80956471,0.414149225,0.200899482,1.003313899,0.763282478,0.338692755,1.001895428,0.531863511,0.399215132,0.910987735,0.292673737,0.134594217,1.153778791,0.366592854,0.053449903,0.980512023,0.877090633,0.166077003,0.911002159,0.942650914,-0.097673178,0.931103408,0.829528034,0.001102925,0.893428504,0.597785532,0.249949321,0.928323984,0.616767287,0.204572991,1.029920697,0.924653232,0.38818261,1.148805976,0.790574193,0.315511674,0.8599208,0.582796097,0.169087768,1.045536995,0.314208806,0.027137117,0.920537114,0.822384,0.069621854,0.746717632,0.81354934,-0.134727478,0.855721772,0.799124181,-0.114330165,0.808548152,0.537241399,0.198149994,0.736312747,0.409685314,0.189001709,0.985352457,0.845643818,0.381275266,1.109847546,0.705238044,0.457705438,1.002232671,0.381789505,0,0,0,0,0,0.337000012,0.092020184,0.189321175,0.337173492,0.209176525,0.430357158,0.337377042,0.28545931,0.58730036,0.337511718,0.346660376,0.713214695,0.337619781,1.118368173,1.569972128,6.47E-05,6.18E-06,-1.24E-05,-0.000105132
1636988964,5,0,0.169087768,1.045536995,0.314208806,0.055019073,0.942838848,0.741401315,0.087492891,0.813484669,0.732129216,-0.090861335,0.882363737,0.719520211,-0.071038909,0.844660223,0.4795084,0.116394542,0.80956471,0.414149225,0.200899482,1.003313899,0.763282478,0.338692755,1.001895428,0.531863511,0.399215132,0.910987735,0.292673737,0.134594217,1.153778791,0.366592854,0.053449903,0.980512023,0.877090633,0.166077003,0.911002159,0.942650914,-0.097673178,0.931103408,0.829528034,0.001102925,0.893428504,0.597785532,0.249949321,0.928323984,0.616767287,0.204572991,1.029920697,0.924653232,0.38818261,1.148805976,0.790574193,0.315511674,0.8599208,0.582796097,0.169087768,1.045536995,0.314208806,0.032829065,0.922860742,0.824503958,0.076346293,0.749516964,0.812078655,-0.128127754,0.856135726,0.800361454,-0.106425591,0.814856827,0.53758949,0.214506254,0.754764736,0.425678641,0.193785891,0.989585817,0.848646462,0.386059463,1.114080906,0.708240628,0.466469198,0.993301451,0.390454412,0,0,0,0,0,0.337000012,0.092020184,0.189321175,0.337173492,0.209176525,0.430357158,0.337377042,0.28545931,0.58730036,0.337511718,0.346660376,0.713214695,0.337619781,1.114628602,1.569972128,6.47E-05,6.18E-06,-1.24E-05,-0.000105132
1636988964,5,0,0.169087768,1.045536995,0.314208806,0.055019073,0.942838848,0.741401315,0.087492891,0.813484669,0.732129216,-0.090861335,0.882363737,0.719520211,-0.071038909,0.844660223,0.4795084,0.116394542,0.80956471,0.414149225,0.200899482,1.003313899,0.763282478,0.338692755,1.001895428,0.531863511,0.399215132,0.910987735,0.292673737,0.14235273,1.163651466,0.378255069,0.04786789,0.960283458,0.865490437,0.169865608,0.920837283,0.948866427,-0.105946004,0.898219228,0.810782552,0.007535791,0.88957262,0.59713757,0.252724349,0.8972103,0.604615152,0.201681793,1.022347689,0.920198321,0.374812543,1.118641138,0.775565624,0.287546694,0.784401059,0.548800528,0.169087768,1.045536995,0.314208806,0.032829065,0.922860742,0.824503958,0.076346293,0.749516964,0.812078655,-0.128127754,0.856135726,0.800361454,-0.106425591,0.814856827,0.53758949,0.214506254,0.754764736,0.425678641,0.193785891,0.989585817,0.848646462,0.383862555,1.096989155,0.692066312,0.464272261,0.9762097,0.374280065,0,0,0,0,0,0.337000012,0.09272752,0.188975736,0.337173492,0.21078442,0.429571927,0.337377042,0.287653565,0.586228788,0.337511718,0.349325061,0.711913347,0.337619781,1.112163712,1.569972128,6.47E-05,6.18E-06,-1.24E-05,-0.000105132
1636988964,5,0,0.175197661,1.06151855,0.329290301,0.056548905,0.939930439,0.740043223,0.08868333,0.81146729,0.731125951,-0.089829721,0.880811691,0.71878773,-0.070527963,0.843894899,0.479241222,0.113181964,0.815150619,0.41593197,0.20292753,0.999049187,0.761298656,0.338781476,1.001676798,0.531787515,0.401093751,0.906210065,0.291540891,0.14235273,1.163651466,0.378255069,0.04786789,0.960283458,0.865490437,0.169865608,0.920837283,0.948866427,-0.105946004,0.898219228,0.810782552,0.007535791,0.88957262,0.59713757,0.252724349,0.8972103,0.604615152,0.201681793,1.022347689,0.920198321,0.374812543,1.118641138,0.775565624,0.287546694,0.784401059,0.548800528,0.169087768,1.045536995,0.314208806,0.032829065,0.922860742,0.824503958,0.076346293,0.749516964,0.812078655,-0.128127754,0.856135726,0.800361454,-0.106425591,0.814856827,0.53758949,0.214506254,0.754764736,0.425678641,0.193785891,0.989585817,0.848646462,0.383419573,1.095057964,0.690227211,0.463829309,0.97427851,0.372440994,0,0,0,0,0,0.337000012,0.09272752,0.188975736,0.337173492,0.21078442,0.429571927,0.337377042,0.287653565,0.586228788,0.337511718,0.349325061,0.711913347,0.337619781,1.110958726,1.569972128,6.47E-05,6.18E-06,-1.24E-05,-0.000105132
1636988964,5,0,0.175197661,1.06151855,0.329290301,0.056548905,0.939930439,0.740043223,0.08868333,0.81146729,0.731125951,-0.089829721,0.880811691,0.71878773,-0.070527963,0.843894899,0.479241222,0.113181964,0.815150619,0.41593197,0.20292753,0.999049187,0.761298656,0.338781476,1.001676798,0.531787515,0.401093751,0.906210065,0.291540891,0.14235273,1.163651466,0.378255069,0.04786789,0.960283458,0.865490437,0.169865608,0.920837283,0.948866427,-0.105946004,0.898219228,0.810782552,0.007535791,0.88957262,0.59713757,0.252724349,0.8972103,0.604615152,0.201681793,1.022347689,0.920198321,0.374812543,1.118641138,0.775565624,0.287546694,0.784401059,0.548800528,0.175197661,1.06151855,0.329290301,0.030106707,0.912115574,0.829934239,0.073477462,0.738706529,0.817913771,-0.131567404,0.846892297,0.806490719,-0.110403202,0.806403816,0.543552041,0.212477446,0.756304622,0.432329208,0.19178082,0.977338791,0.853377759,0.381414503,1.082810998,0.694958508,0.463333666,0.957198858,0.379439384,0,0,0,0,0,0.337000012,0.093652353,0.18851912,0.337173492,0.212886706,0.428533971,0.337377042,0.290522516,0.584812284,0.337511718,0.352809101,0.710193157,0.337619781,1.108483851,1.569977187,6.47E-05,6.18E-06,-1.24E-05,-0.000105132
1636988964,5,0,0.175197661,1.06151855,0.329290301,0.056548905,0.939930439,0.740043223,0.08868333,0.81146729,0.731125951,-0.089829721,0.880811691,0.71878773,-0.070527963,0.843894899,0.479241222,0.113181964,0.815150619,0.41593197,0.20292753,0.999049187,0.761298656,0.338781476,1.001676798,0.531787515,0.401093751,0.906210065,0.291540891,0.131544188,1.149049997,0.389681429,0.049488921,0.96751976,0.869912863,0.168169782,0.916434944,0.946084321,-0.100697182,0.917590261,0.813483715,0.003141109,0.875382185,0.590536714,0.260849923,0.916052222,0.613416731,0.199675024,1.01744926,0.92634207,0.359043717,1.103188396,0.775601506,0.309670925,0.847347796,0.592862725,0.175197661,1.06151855,0.329290301,0.030460894,0.913196146,0.830357909,0.07383763,0.739789784,0.81832093,-0.13118431,0.847911656,0.8068856,-0.109998234,0.807390869,0.543953598,0.212810978,0.75688231,0.432708591,0.192106098,0.978480697,0.853830218,0.379500359,1.081670642,0.691296577,0.461360216,0.956255615,0.375683635,0,0,0,0,0,0.337000012,0.093652353,0.18851912,0.337173492,0.212886706,0.428533971,0.337377042,0.290522516,0.584812284,0.337511718,0.352809101,0.710193157,0.337619781,1.107253903,1.569977187,6.47E-05,6.18E-06,-1.24E-05,-0.000105132
1636988964,5,0,0.175197661,1.06151855,0.329290301,0.056548905,0.939930439,0.740043223,0.08868333,0.81146729,0.731125951,-0.089829721,0.880811691,0.71878773,-0.070527963,0.843894899,0.479241222,0.113181964,0.815150619,0.41593197,0.20292753,0.999049187,0.761298656,0.338781476,1.001676798,0.531787515,0.401093751,0.906210065,0.291540891,0.131544188,1.149049997,0.389681429,0.049488921,0.96751976,0.869912863,0.168169782,0.916434944,0.946084321,-0.100697182,0.917590261,0.813483715,0.003141109,0.875382185,0.590536714,0.260849923,0.916052222,0.613416731,0.199675024,1.01744926,0.92634207,0.359043717,1.103188396,0.775601506,0.309670925,0.847347796,0.592862725,0.175197661,1.06151855,0.329290301,0.030460894,0.913196146,0.830357909,0.07383763,0.739789784,0.81832093,-0.13118431,0.847911656,0.8068856,-0.109998234,0.807390869,0.543953598,0.212810978,0.75688231,0.432708591,0.192106098,0.978480697,0.853830218,0.373899996,1.076284409,0.681878567,0.455759853,0.950869381,0.366265625,0,0,0,0,0,0.337000012,0.094341695,0.188175097,0.337172419,0.214453697,0.427751929,0.337374598,0.292660952,0.583745062,0.33750841,0.355406016,0.708897173,0.337615758,1.10606882,1.569977187,6.47E-05,6.18E-06,-1.24E-05,-0.000105132
1636988964,5,0,0.153979778,1.073389888,0.312761754,0.061187308,0.930600941,0.735696256,0.101857506,0.806451619,0.731190681,-0.088411354,0.878677726,0.717780709,-0.068100959,0.840259314,0.47797209,0.122704864,0.798592508,0.410647482,0.21078597,0.982524157,0.753611863,0.333994985,1.013471723,0.535889804,0.398958981,0.911639214,0.292828202,0.131544188,1.149049997,0.389681429,0.049488921,0.96751976,0.869912863,0.168169782,0.916434944,0.946084321,-0.100697182,0.917590261,0.813483715,0.003141109,0.875382185,0.590536714,0.260849923,0.916052222,0.613416731,0.199675024,1.01744926,0.92634207,0.359043717,1.103188396,0.775601506,0.309670925,0.847347796,0.592862725,0.153979778,1.073389888,0.312761754,0.043622706,0.903572559,0.815753162,0.099362448,0.73342216,0.809578061,-0.121502817,0.84626025,0.795978129,-0.099262007,0.804190338,0.533376753,0.219536826,0.734573305,0.420890599,0.208748221,0.960884869,0.835528195,0.39054212,1.058688521,0.663576603,0.474157035,0.927620292,0.350732952,0,0,0,0,0,0.337000012,0.094341695,0.188175097,0.337172419,0.214453697,0.427751929,0.337374598,0.292660952,0.583745062,0.33750841,0.355406016,0.708897173,0.337615758,1.103628826,1.569977187,6.47E-05,6.18E-06,-1.24E-05,-0.000105132
1636988964,5,0,0.153979778,1.073389888,0.312761754,0.061187308,0.930600941,0.735696256,0.101857506,0.806451619,0.731190681,-0.088411354,0.878677726,0.717780709,-0.068100959,0.840259314,0.47797209,0.122704864,0.798592508,0.410647482,0.21078597,0.982524157,0.753611863,0.333994985,1.013471723,0.535889804,0.398958981,0.911639214,0.292828202,0.131544188,1.149049997,0.389681429,0.049488921,0.96751976,0.869912863,0.168169782,0.916434944,0.946084321,-0.100697182,0.917590261,0.813483715,0.003141109,0.875382185,0.590536714,0.260849923,0.916052222,0.613416731,0.199675024,1.01744926,0.92634207,0.359043717,1.103188396,0.775601506,0.309670925,0.847347796,0.592862725,0.153979778,1.073389888,0.312761754,0.043622706,0.903572559,0.815753162,0.099362448,0.73342216,0.809578061,-0.121502817,0.84626025,0.795978129,-0.099262007,0.804190338,0.533376753,0.219536826,0.734573305,0.420890599,0.208748221,0.960884869,0.835528195,0.39054212,1.058688521,0.663576603,0.474157035,0.927620292,0.350732952,0,0,0,0,0,0.337000012,0.094341695,0.188175097,0.337172419,0.214453697,0.427751929,0.337374598,0.292660952,0.583745062,0.33750841,0.355406016,0.708897173,0.337615758,1.102408862,1.569977187,6.47E-05,6.18E-06,-1.24E-05,-0.000105132
1636988964,5,0,0.153979778,1.073389888,0.312761754,0.061187308,0.930600941,0.735696256,0.101857506,0.806451619,0.731190681,-0.088411354,0.878677726,0.717780709,-0.068100959,0.840259314,0.47797209,0.122704864,0.798592508,0.410647482,0.21078597,0.982524157,0.753611863,0.333994985,1.013471723,0.535889804,0.398958981,0.911639214,0.292828202,0.135667667,1.147076607,0.37658748,0.053072169,0.981438518,0.873278916,0.169216186,0.919151366,0.947800994,-0.093730412,0.945262432,0.829143703,0.017254967,0.896256208,0.601395488,0.252421111,0.915173948,0.611822367,0.199874744,1.017614484,0.917414069,0.377528965,1.124769807,0.778614938,0.306676239,0.857917011,0.58869487,0.153979778,1.073389888,0.312761754,0.043622706,0.903572559,0.815753162,0.099362448,0.73342216,0.809578061,-0.121502817,0.84626025,0.795978129,-0.099262007,0.804190338,0.533376753,0.219536826,0.734573305,0.420890599,0.208748221,0.960884869,0.835528195,0.399173915,1.074406147,0.683762193,0.482788831,0.943337858,0.370918542,0,0,0,0,0,0.337000012,0.095029771,0.187828541,0.337172419,0.216017812,0.426964194,0.337374598,0.294795454,0.582670033,0.33750841,0.357998163,0.707591653,0.337615758,1.0988186,1.569977187,6.47E-05,6.18E-06,-1.24E-05,-0.000105132
1636988964,5,0,0.153979778,1.073389888,0.312761754,0.061187308,0.930600941,0.735696256,0.101857506,0.806451619,0.731190681,-0.088411354,0.878677726,0.717780709,-0.068100959,0.840259314,0.47797209,0.122704864,0.798592508,0.410647482,0.21078597,0.982524157,0.753611863,0.333994985,1.013471723,0.535889804,0.398958981,0.911639214,0.292828202,0.135667667,1.147076607,0.37658748,0.053072169,0.981438518,0.873278916,0.169216186,0.919151366,0.947800994,-0.093730412,0.945262432,0.829143703,0.017254967,0.896256208,0.601395488,0.252421111,0.915173948,0.611822367,0.199874744,1.017614484,0.917414069,0.377528965,1.124769807,0.778614938,0.306676239,0.857917011,0.58869487,0.153979778,1.073389888,0.312761754,0.043622706,0.903572559,0.815753162,0.099362448,0.73342216,0.809578061,-0.121502817,0.84626025,0.795978129,-0.099262007,0.804190338,0.533376753,0.219536826,0.734573305,0.420890599,0.208748221,0.960884869,0.835528195,0.399960726,1.076218009,0.686136127,0.483575642,0.94514972,0.373292506,0,0,0,0,0,0.337000012,0.095029771,0.187828541,0.337172419,0.216017812,0.426964194,0.337374598,0.294795454,0.582670033,0.33750841,0.357998163,0.707591653,0.337615758,1.097613614,1.569977187,6.47E-05,6.18E-06,-1.24E-05,-0.000105132
1636988964,5,0,0.170459226,1.036711693,0.292575806,0.058673292,0.937295616,0.738786399,0.090290524,0.808743775,0.729771495,-0.083704993,0.871597111,0.714439094,-0.058074791,0.842275739,0.482255459,0.11358352,0.814452469,0.415709138,0.201051578,1.002994061,0.763133705,0.34407419,1.00294137,0.522459745,0.397891581,0.914353788,0.293471873,0.135667667,1.147076607,0.37658748,0.053072169,0.981438518,0.873278916,0.169216186,0.919151366,0.947800994,-0.093730412,0.945262432,0.829143703,0.017254967,0.896256208,0.601395488,0.252421111,0.915173948,0.611822367,0.199874744,1.017614484,0.917414069,0.377528965,1.124769807,0.778614938,0.306676239,0.857917011,0.58869487,0.170459226,1.036711693,0.292575806,0.041663148,0.922167718,0.806684971,0.084351987,0.748600125,0.794513285,-0.116165467,0.849339902,0.77969563,-0.087111264,0.816101432,0.516494036,0.231094643,0.764524937,0.393135995,0.199491754,0.994995594,0.833674371,0.390704274,1.110328674,0.684282303,0.465501964,0.987205923,0.366025209,0,0,0,0,0,0.337000012,0.095929362,0.187370703,0.337172419,0.218062714,0.425923437,0.337374598,0.297586113,0.581249714,0.33750841,0.361387104,0.705866814,0.337615758,1.095243315,1.569977187,6.47E-05,6.18E-06,-1.24E-05,-0.000105132
1636988964,5,0,0.170459226,1.036711693,0.292575806,0.058673292,0.937295616,0.738786399,0.090290524,0.808743775,0.729771495,-0.083704993,0.871597111,0.714439094,-0.058074791,0.842275739,0.482255459,0.11358352,0.814452469,0.415709138,0.201051578,1.002994061,0.763133705,0.34407419,1.00294137,0.522459745,0.397891581,0.914353788,0.293471873,0.135667667,1.147076607,0.37658748,0.053072169,0.981438518,0.873278916,0.169216186,0.919151366,0.947800994,-0.093730412,0.945262432,0.829143703,0.017254967,0.896256208,0.601395488,0.252421111,0.915173948,0.611822367,0.199874744,1.017614484,0.917414069,0.377528965,1.124769807,0.778614938,0.306676239,0.857917011,0.58869487,0.170459226,1.036711693,0.292575806,0.041663148,0.922167718,0.806684971,0.084351987,0.748600125,0.794513285,-0.116165467,0.849339902,0.77969563,-0.087111264,0.816101432,0.516494036,0.231094643,0.764524937,0.393135995,0.199491754,0.994995594,0.833674371,0.390704274,1.110328674,0.684282303,0.465501964,0.987205923,0.366025209,0,0,0,0,0,0.337000012,0.095929362,0.187370703,0.337172419,0.218062714,0.425923437,0.337374598,0.297586113,0.581249714,0.33750841,0.361387104,0.705866814,0.337615758,1.09405324,1.569977187,6.47E-05,6.18E-06,-1.24E-05,-0.000105132
1636988964,5,0,0.170459226,1.036711693,0.292575806,0.058673292,0.937295616,0.738786399,0.090290524,0.808743775,0.729771495,-0.083704993,0.871597111,0.714439094,-0.058074791,0.842275739,0.482255459,0.11358352,0.814452469,0.415709138,0.201051578,1.002994061,0.763133705,0.34407419,1.00294137,0.522459745,0.397891581,0.914353788,0.293471873,0.138776407,1.166321397,0.370471656,0.045836441,0.959783673,0.869411349,0.182286501,0.931506872,0.957106709,-0.092701986,0.919963002,0.824519813,0.02946648,0.909822285,0.600875378,0.253057688,0.897983253,0.604976237,0.184374869,0.999604404,0.914302886,0.377104551,1.123812199,0.778138518,0.301267684,0.797054052,0.555811405,0.170459226,1.036711693,0.292575806,0.041663148,0.922167718,0.806684971,0.084351987,0.748600125,0.794513285,-0.116165467,0.849339902,0.77969563,-0.087111264,0.816101432,0.516494036,0.231094643,0.764524937,0.393135995,0.199491754,0.994995594,0.833674371,0.393664479,1.1201334,0.696490467,0.468462169,0.997010648,0.378233373,0,0,0,0,0,0.337000012,0.096595861,0.187027961,0.337172419,0.219577774,0.425144345,0.337374598,0.299653679,0.580186546,0.33750841,0.363897979,0.704575658,0.337615758,1.091717822,1.569977187,6.47E-05,6.18E-06,-1.24E-05,-0.000105132
1636988964,5,0,0.1822671,1.000344992,0.324152201,0.058866709,0.935442209,0.737948895,0.103276372,0.804023445,0.729979634,-0.088540278,0.878871679,0.717872202,-0.053631965,0.835557282,0.479896784,0.130912691,0.79479593,0.399934292,0.20627369,0.992012739,0.758025646,0.341960162,1.008189082,0.524258852,0.399514019,0.910227597,0.292493492,0.138776407,1.166321397,0.370471656,0.045836441,0.959783673,0.869411349,0.182286501,0.931506872,0.957106709,-0.092701986,0.919963002,0.824519813,0.02946648,0.909822285,0.600875378,0.253057688,0.897983253,0.604976237,0.184374869,0.999604404,0.914302886,0.377104551,1.123812199,0.778138518,0.301267684,0.797054052,0.555811405,0.1822671,1.000344992,0.324152201,0.0315171,0.916253507,0.838175595,0.087293759,0.746321797,0.827764869,-0.130913228,0.852672517,0.815459192,-0.093664154,0.806840956,0.555197775,0.217603624,0.739966393,0.421884179,0.19394742,0.979834557,0.860892057,0.388120145,1.104972363,0.723708153,0.465714455,0.973357856,0.409545422,0,0,0,0,0,0.337000012,0.096595861,0.187027961,0.337172419,0.219577774,0.425144345,0.337374598,0.299653679,0.580186546,0.33750841,0.363897979,0.704575658,0.337615758,1.090607426,1.569977187,6.47E-05,6.18E-06,-1.24E-05,-0.000105132
1636988964,5,0,0.1822671,1.000344992,0.324152201,0.058866709,0.935442209,0.737948895,0.103276372,0.804023445,0.729979634,-0.088540278,0.878871679,0.717872202,-0.053631965,0.835557282,0.479896784,0.130912691,0.79479593,0.399934292,0.20627369,0.992012739,0.758025646,0.341960162,1.008189082,0.524258852,0.399514019,0.910227597,0.292493492,0.138776407,1.166321397,0.370471656,0.045836441,0.959783673,0.869411349,0.182286501,0.931506872,0.957106709,-0.092701986,0.919963002,0.824519813,0.02946648,0.909822285,0.600875378,0.253057688,0.897983253,0.604976237,0.184374869,0.999604404,0.914302886,0.377104551,1.123812199,0.778138518,0.301267684,0.797054052,0.555811405,0.1822671,1.000344992,0.324152201,0.029029919,0.919749498,0.838000178,0.08628989,0.750303566,0.827724934,-0.133883864,0.857227921,0.815811455,-0.095763542,0.809928,0.555939198,0.214629725,0.741369843,0.421447009,0.191943705,0.982271075,0.860188901,0.386116445,1.107408881,0.723004997,0.464011967,0.97482425,0.409325123,0,0,0,0,0,0.337000012,0.097239755,0.186693996,0.337172419,0.221041441,0.42438519,0.337374598,0.30165112,0.579150558,0.33750841,0.36632365,0.703317583,0.337615758,1.086374798,1.569977187,7.47E-05,6.18E-06,-1.24E-05,-0.000105132
1636988964,5,0,0.1822671,1.000344992,0.324152201,0.058866709,0.935442209,0.737948895,0.103276372,0.804023445,0.729979634,-0.088540278,0.878871679,0.717872202,-0.053631965,0.835557282,0.479896784,0.130912691,0.79479593,0.399934292,0.20627369,0.992012739,0.758025646,0.341960162,1.008189082,0.524258852,0.399514019,0.910227597,0.292493492,0.138443142,1.151391983,0.361700922,0.049017318,0.96453768,0.863402486,0.178169131,0.920930624,0.950414896,-0.103847288,0.906561553,0.815538049,0.037506338,0.887045085,0.592626572,0.257182956,0.907549143,0.609444737,0.201881915,1.022513866,0.911266923,0.361272335,1.108262897,0.778144121,0.329713166,0.906960368,0.636311531,0.1822671,1.000344992,0.324152201,0.029029919,0.919749498,0.838000178,0.08628989,0.750303566,0.827724934,-0.133883864,0.857227921,0.815811455,-0.095763542,0.809928,0.555939198,0.214629725,0.741369843,0.421447009,0.191943705,0.982271075,0.860188901,0.381580263,1.081594586,0.697847366,0.459475785,0.949009895,0.384167463,0,0,0,0,0,0.337000012,0.097239755,0.186693996,0.337172419,0.221041441,0.42438519,0.337374598,0.30165112,0.579150558,0.33750841,0.36632365,0.703317583,0.337615758,1.085423696,1.569977187,7.47E-05,6.18E-06,-1.24E-05,-0.000105132
1636988964,5,0,0.184695885,0.998044312,0.294432014,0.061664555,0.931005359,0.735860467,0.104399778,0.802101016,0.729020774,-0.083704993,0.871597111,0.714439094,-0.05033154,0.830566227,0.478144616,0.183561385,0.764723241,0.391634703,0.207034111,0.990413666,0.75728178,0.338028044,1.003533483,0.532433212,0.404552132,0.897414804,0.289455414,0.138443142,1.151391983,0.361700922,0.049017318,0.96453768,0.863402486,0.178169131,0.920930624,0.950414896,-0.103847288,0.906561553,0.815538049,0.037506338,0.887045085,0.592626572,0.257182956,0.907549143,0.609444737,0.201881915,1.022513866,0.911266923,0.361272335,1.108262897,0.778144121,0.329713166,0.906960368,0.636311531,0.184695885,0.998044312,0.294432014,0.03970499,0.919338048,0.810958803,0.096109062,0.749540448,0.801817834,-0.121798195,0.853754282,0.787343502,-0.084877029,0.808318913,0.526965916,0.227981985,0.722253919,0.409303665,0.201208174,0.984921813,0.834574163,0.391805738,1.087459683,0.675387144,0.476083338,0.952132761,0.364540875,0,0,0,0,0,0.337000012,0.098206215,0.186187431,0.337172419,0.223238364,0.423233688,0.337371945,0.304649204,0.577579081,0.337503999,0.36996451,0.701409221,0.337609947,1.083581336,1.569977187,7.47E-05,6.18E-06,-1.24E-05,-0.000105132
1636988964,5,0,0.184695885,0.998044312,0.294432014,0.061664555,0.931005359,0.735860467,0.104399778,0.802101016,0.729020774,-0.083704993,0.871597111,0.714439094,-0.05033154,0.830566227,0.478144616,0.183561385,0.764723241,0.391634703,0.207034111,0.990413666,0.75728178,0.338028044,1.003533483,0.532433212,0.404552132,0.897414804,0.289455414,0.138443142,1.151391983,0.361700922,0.049017318,0.96453768,0.863402486,0.178169131,0.920930624,0.950414896,-0.103847288,0.906561553,0.815538049,0.037506338,0.887045085,0.592626572,0.257182956,0.907549143,0.609444737,0.201881915,1.022513866,0.911266923,0.361272335,1.108262897,0.778144121,0.329713166,0.906960368,0.636311531,0.184695885,0.998044312,0.294432014,0.040650811,0.919555128,0.811256409,0.096956365,0.749717891,0.802244842,-0.120686434,0.853621304,0.787482083,-0.083903573,0.808398783,0.527047932,0.229092538,0.720287502,0.411280125,0.201988056,0.985488951,0.835030675,0.392585635,1.088026762,0.675843656,0.477601528,0.952410102,0.365324914,0,0,0,0,0,0.337000012,0.098206215,0.186187431,0.337172419,0.223238364,0.423233688,0.337371945,0.304649204,0.577579081,0.337503999,0.36996451,0.701409221,0.337609947,1.082729818,1.569977187,7.47E-05,6.18E-06,-1.24E-05,-0.000105132
1636988964,5,0,0.184695885,0.998044312,0.294432014,0.061664555,0.931005359,0.735860467,0.104399778,0.802101016,0.729020774,-0.083704993,0.871597111,0.714439094,-0.05033154,0.830566227,0.478144616,0.183561385,0.764723241,0.391634703,0.207034111,0.990413666,0.75728178,0.338028044,1.003533483,0.532433212,0.404552132,0.897414804,0.289455414,0.128250226,1.148193002,0.355633616,0.043294888,0.966080189,0.872288287,0.175144866,0.913162231,0.945499718,-0.096355364,0.936341643,0.832514048,0.018101975,0.874786198,0.592534423,0.282973379,0.92966491,0.622166336,0.182945147,0.995818734,0.912062466,0.349089831,1.080609679,0.782318592,0.384901226,1.006694078,0.685520947,0.184695885,0.998044312,0.294432014,0.040650811,0.919555128,0.811256409,0.096956365,0.749717891,0.802244842,-0.120686434,0.853621304,0.787482083,-0.083903573,0.808398783,0.527047932,0.229092538,0.720287502,0.411280125,0.201988056,0.985488951,0.835030675,0.3992787,1.085387707,0.682457447,0.484294593,0.949770987,0.371938705,0,0,0,0,0,0.337000012,0.098707423,0.185922205,0.337172419,0.224377692,0.422630757,0.337371945,0.306204021,0.576756299,0.337503999,0.371852666,0.700410008,0.337609947,1.081196126,1.569977187,7.47E-05,6.18E-06,-1.24E-05,-0.000105132
1636988964,5,0,0.184695885,0.998044312,0.294432014,0.061664555,0.931005359,0.735860467,0.104399778,0.802101016,0.729020774,-0.083704993,0.871597111,0.714439094,-0.05033154,0.830566227,0.478144616,0.183561385,0.764723241,0.391634703,0.207034111,0.990413666,0.75728178,0.338028044,1.003533483,0.532433212,0.404552132,0.897414804,0.289455414,0.128250226,1.148193002,0.355633616,0.043294888,0.966080189,0.872288287,0.175144866,0.913162231,0.945499718,-0.096355364,0.936341643,0.832514048,0.018101975,0.874786198,0.592534423,0.282973379,0.92966491,0.622166336,0.182945147,0.995818734,0.912062466,0.349089831,1.080609679,0.782318592,0.384901226,1.006694078,0.685520947,0.184695885,0.998044312,0.294432014,0.040650811,0.919555128,0.811256409,0.096956365,0.749717891,0.802244842,-0.120686434,0.853621304,0.787482083,-0.083903573,0.808398783,0.527047932,0.229092538,0.720287502,0.411280125,0.201988056,0.985488951,0.835030675,0.398442656,1.085748315,0.681617558,0.483458549,0.950131655,0.371098787,0,0,0,0,0,0.337000012,0.098707423,0.185922205,0.337172419,0.224377692,0.422630757,0.337371945,0.306204021,0.576756299,0.337503999,0.371852666,0.700410008,0.337609947,1.080469087,1.569977187,7.47E-05,6.18E-06,-1.24E-05,-0.000105132
1636988964,5,0,0.256893307,0.818554103,0.312408894,0.062371034,0.930291355,0.735515177,0.104222395,0.802404523,0.72917217,-0.081126057,0.867717087,0.712608039,-0.04988727,0.829894483,0.47790876,0.151239142,0.776744127,0.3977741,0.205868125,0.992865622,0.758422315,0.335812032,1.008994102,0.534332454,0.399855614,0.909359038,0.292287558,0.128250226,1.148193002,0.355633616,0.043294888,0.966080189,0.872288287,0.175144866,0.913162231,0.945499718,-0.096355364,0.936341643,0.832514048,0.018101975,0.874786198,0.592534423,0.282973379,0.92966491,0.622166336,0.182945147,0.995818734,0.912062466,0.349089831,1.080609679,0.782318592,0.384901226,1.006694078,0.685520947,0.128250226,1.148193002,0.355633616,0.045153219,0.970063746,0.860986829,0.100812331,0.799984038,0.852551103,-0.114388242,0.900493085,0.835518479,-0.079617761,0.858394444,0.574285388,0.23177819,0.776103914,0.450216115,0.204694673,1.039634466,0.886455238,0.401149273,1.139893889,0.733042061,0.48417595,1.010725975,0.419252783,0,0,0,0,0,0.337000012,0.099127486,0.185698569,0.337172419,0.225332573,0.422122419,0.337371945,0.307507128,0.57606256,0.337503999,0.373435169,0.699567556,0.337609947,1.078527077,1.569977187,7.47E-05,6.18E-06,-1.24E-05,-0.000105132
1636988964,5,0,0.256893307,0.818554103,0.312408894,0.062371034,0.930291355,0.735515177,0.104222395,0.802404523,0.72917217,-0.081126057,0.867717087,0.712608039,-0.04988727,0.829894483,0.47790876,0.151239142,0.776744127,0.3977741,0.205868125,0.992865622,0.758422315,0.335812032,1.008994102,0.534332454,0.399855614,0.909359038,0.292287558,0.128250226,1.148193002,0.355633616,0.043294888,0.966080189,0.872288287,0.175144866,0.913162231,0.945499718,-0.096355364,0.936341643,0.832514048,0.018101975,0.874786198,0.592534423,0.282973379,0.92966491,0.622166336,0.182945147,0.995818734,0.912062466,0.349089831,1.080609679,0.782318592,0.384901226,1.006694078,0.685520947,0.128250226,1.148193002,0.355633616,0.045153219,0.970063746,0.860986829,0.100812331,0.799984038,0.852551103,-0.114388242,0.900493085,0.835518479,-0.079617761,0.858394444,0.574285388,0.23177819,0.776103914,0.450216115,0.204694673,1.039634466,0.886455238,0.401149273,1.139893889,0.733042061,0.48417595,1.010725975,0.419252783,0,0,0,0,0,0.337000012,0.099127486,0.185698569,0.337172419,0.225332573,0.422122419,0.337371945,0.307507128,0.57606256,0.337503999,0.373435169,0.699567556,0.337609947,1.077959398,1.569977187,7.47E-05,6.18E-06,-1.24E-05,-0.000105132
1636988964,5,0,0.256893307,0.818554103,0.312408894,0.062371034,0.930291355,0.735515177,0.104222395,0.802404523,0.72917217,-0.081126057,0.867717087,0.712608039,-0.04988727,0.829894483,0.47790876,0.151239142,0.776744127,0.3977741,0.205868125,0.992865622,0.758422315,0.335812032,1.008994102,0.534332454,0.399855614,0.909359038,0.292287558,0.146672711,1.174420357,0.356406182,0.049985304,0.957972705,0.864976585,0.178497031,0.921772897,0.950947881,-0.094000854,0.913438082,0.812464416,0.031878293,0.869736969,0.584604561,0.284790009,0.91538775,0.616670012,0.19397147,1.002507329,0.917488754,0.352902144,1.109644055,0.79572171,0.350646526,0.934054375,0.650563061,0.146672711,1.174420357,0.356406182,0.053237647,0.965253532,0.847869456,0.108896762,0.795173824,0.83943373,-0.106303811,0.895682871,0.822401047,-0.071533337,0.85358423,0.561167955,0.239862621,0.7712937,0.437098712,0.212779105,1.034824133,0.873337805,0.400817662,1.161582708,0.729269326,0.48384434,1.032414794,0.415480047,0,0,0,0,0,0.337000012,0.099593222,0.185449213,0.337172419,0.226391256,0.421555579,0.337371945,0.308951914,0.575289011,0.337503999,0.375189692,0.698628187,0.337609947,1.07690878,1.569977187,7.47E-05,6.18E-06,-1.24E-05,-0.000105132
1636988964,5,0,0.237266809,0.851156473,0.311489761,0.062941797,0.929553986,0.735164285,0.091481,0.806726396,0.728768289,-0.079578854,0.865389347,0.711509526,-0.043663997,0.837529778,0.484138489,0.177305043,0.75837338,0.386186898,0.205462456,0.993718684,0.758819103,0.344206303,1.002613425,0.522347331,0.395842195,0.919565797,0.294707686,0.146672711,1.174420357,0.356406182,0.049985304,0.957972705,0.864976585,0.178497031,0.921772897,0.950947881,-0.094000854,0.913438082,0.812464416,0.031878293,0.869736969,0.584604561,0.284790009,0.91538775,0.616670012,0.19397147,1.002507329,0.917488754,0.352902144,1.109644055,0.79572171,0.350646526,0.934054375,0.650563061,0.146672711,1.174420357,0.356406182,0.053237647,0.965253532,0.847869456,0.091509886,0.790481448,0.838586688,-0.105214119,0.893588066,0.821425319,-0.063316971,0.863160908,0.559618473,0.234641686,0.752279818,0.425237,0.211689413,1.036918998,0.874313533,0.39972797,1.163677573,0.730245054,0.47107017,1.048379302,0.40828526,0,0,0,0,0,0.337000012,0.099593222,0.185449213,0.337172419,0.226391256,0.421555579,0.337371945,0.308951914,0.575289011,0.337503999,0.375189692,0.698628187,0.337609947,1.076435692,1.569977187,7.47E-05,6.18E-06,-1.24E-05,-0.000105132
1636988964,5,0,0.237266809,0.851156473,0.311489761,0.062941797,0.929553986,0.735164285,0.091481,0.806726396,0.728768289,-0.079578854,0.865389347,0.711509526,-0.043663997,0.837529778,0.484138489,0.177305043,0.75837338,0.386186898,0.205462456,0.993718684,0.758819103,0.344206303,1.002613425,0.522347331,0.395842195,0.919565797,0.294707686,0.144011304,1.167827487,0.362749398,0.052485,0.966795504,0.865524888,0.175800756,0.914847016,0.946565747,-0.090206601,0.92828232,0.820874691,0.033352442,0.874969542,0.594901919,0.263055414,0.884320021,0.600931168,0.195176601,1.005308628,0.910175025,0.367308199,1.14268744,0.803258598,0.344321579,0.938207924,0.65133059,0.146672711,1.174420357,0.356406182,0.053237647,0.965253532,0.847869456,0.093732245,0.790972054,0.838794053,-0.105354153,0.893853426,0.82154721,-0.064016752,0.861787498,0.559846997,0.235855222,0.754366219,0.426919162,0.211829439,1.036653638,0.874191642,0.399868011,1.163412213,0.730123162,0.472676396,1.046312094,0.409143418,0,0,0,0,0,0.337000012,0.099875674,0.185297251,0.337172419,0.227033317,0.42121014,0.337371945,0.309828132,0.574817598,0.337503999,0.376253754,0.698055685,0.337609947,1.075574255,1.569977187,7.47E-05,6.18E-06,-1.24E-05,-0.000105132
1636988964,5,0,0.237266809,0.851156473,0.311489761,0.062941797,0.929553986,0.735164285,0.091481,0.806726396,0.728768289,-0.079578854,0.865389347,0.711509526,-0.043663997,0.837529778,0.484138489,0.177305043,0.75837338,0.386186898,0.205462456,0.993718684,0.758819103,0.344206303,1.002613425,0.522347331,0.395842195,0.919565797,0.294707686,0.144011304,1.167827487,0.362749398,0.052485,0.966795504,0.865524888,0.175800756,0.914847016,0.946565747,-0.090206601,0.92828232,0.820874691,0.033352442,0.874969542,0.594901919,0.263055414,0.884320021,0.600931168,0.195176601,1.005308628,0.910175025,0.367308199,1.14268744,0.803258598,0.344321579,0.938207924,0.65133059,0.144011304,1.167827487,0.362749398,0.053639051,0.969330311,0.859185398,0.094133645,0.795048833,0.850109994,-0.104952745,0.897930205,0.832863212,-0.063615344,0.865864277,0.571162999,0.236256629,0.758442938,0.438235134,0.212230846,1.040730357,0.885507584,0.40113461,1.19149518,0.768173397,0.473942995,1.074395061,0.447193652,0,0,0,0,0,0.337000012,0.099875674,0.185297251,0.337172419,0.227033317,0.42121014,0.337371945,0.309828132,0.574817598,0.337503999,0.376253754,0.698055685,0.337609947,1.075180847,1.569977187,7.47E-05,6.18E-06,-1.24E-05,-0.000105132
1636988964,5,0,0.242599681,0.864519894,0.296131402,0.059619483,0.924574018,0.731394351,0.092850089,0.804406345,0.727614462,-0.090786442,0.865024626,0.708432913,-0.038870696,0.830211997,0.481555045,0.15021871,0.778547108,0.398343444,0.2100254,0.984123468,0.754355788,0.344999075,1.000645638,0.521672666,0.402203858,0.90338695,0.290871471,0.144011304,1.167827487,0.362749398,0.052485,0.966795504,0.865524888,0.175800756,0.914847016,0.946565747,-0.090206601,0.92828232,0.820874691,0.033352442,0.874969542,0.594901919,0.263055414,0.884320021,0.600931168,0.195176601,1.005308628,0.910175025,0.367308199,1.14268744,0.803258598,0.344321579,0.938207924,0.65133059,0.144011304,1.167827487,0.362749398,0.053639051,0.969330311,0.859185398,0.101676032,0.796817183,0.853904665,-0.108423851,0.905530095,0.834541082,-0.048787855,0.865794837,0.577463925,0.257914811,0.78307265,0.442471862,0.215701953,1.033130527,0.883829713,0.404605716,1.18389523,0.766495526,0.48258391,1.050998449,0.452968299,0,0,0,0,0,0.337000012,0.100108117,0.185171768,0.337172419,0.227561697,0.420924932,0.337371945,0.31054917,0.57442838,0.337503999,0.377129406,0.69758302,0.337609947,1.074448882,1.569977187,7.47E-05,6.18E-06,-1.24E-05,-0.000105132
1636988964,5,0,0.242599681,0.864519894,0.296131402,0.059619483,0.924574018,0.731394351,0.092850089,0.804406345,0.727614462,-0.090786442,0.865024626,0.708432913,-0.038870696,0.830211997,0.481555045,0.15021871,0.778547108,0.398343444,0.2100254,0.984123468,0.754355788,0.344999075,1.000645638,0.521672666,0.402203858,0.90338695,0.290871471,0.144011304,1.167827487,0.362749398,0.052485,0.966795504,0.865524888,0.175800756,0.914847016,0.946565747,-0.090206601,0.92828232,0.820874691,0.033352442,0.874969542,0.594901919,0.263055414,0.884320021,0.600931168,0.195176601,1.005308628,0.910175025,0.367308199,1.14268744,0.803258598,0.344321579,0.938207924,0.65133059,0.144011304,1.167827487,0.362749398,0.053639051,0.969330311,0.859185398,0.101367429,0.796736181,0.853756428,-0.108289354,0.90521884,0.834464908,-0.049414076,0.865739465,0.577173054,0.257065713,0.781999946,0.442302048,0.215567455,1.033441782,0.883905888,0.404471219,1.184206486,0.766571701,0.482259005,1.051952839,0.452725351,0,0,0,0,0,0.337000012,0.100108117,0.185171768,0.337172419,0.227561697,0.420924932,0.337371945,0.31054917,0.57442838,0.337503999,0.377129406,0.69758302,0.337609947,1.074095348,1.569977187,7.47E-05,6.18E-06,-1.24E-05,-0.000105132
1636988965,5,0,0.242599681,0.864519894,0.296131402,0.059619483,0.924574018,0.731394351,0.092850089,0.804406345,0.727614462,-0.090786442,0.865024626,0.708432913,-0.038870696,0.830211997,0.481555045,0.15021871,0.778547108,0.398343444,0.2100254,0.984123468,0.754355788,0.344999075,1.000645638,0.521672666,0.402203858,0.90338695,0.290871471,0.127831697,1.126323462,0.366267473,0.049029119,0.954698443,0.863096893,0.172703624,0.906891406,0.941532075,-0.095191233,0.908780992,0.809825778,0.043634132,0.882410049,0.591619194,0.257927597,0.872646153,0.59546423,0.193249464,1.000615954,0.916368008,0.363596499,1.134221792,0.80822432,0.332774431,0.896155238,0.63232404,0.127831697,1.126323462,0.366267473,0.047439482,0.951236367,0.873119116,0.09516786,0.778642237,0.867690206,-0.114488922,0.887124896,0.848398626,-0.055613644,0.847645521,0.591106772,0.250866145,0.763906002,0.456235796,0.209367886,1.015347838,0.897839665,0.398486674,1.16367662,0.777778804,0.476274461,1.031423092,0.463932455,0,0,0,0,0,0.337000012,0.100368962,0.18503052,0.337172419,0.228154629,0.420603812,0.337371945,0.311358362,0.573990166,0.337503999,0.378112078,0.697050869,0.337609947,1.073154165,1.569977187,7.47E-05,6.18E-06,-1.24E-05,-0.000105132
1636988965,5,0,0.242599681,0.864519894,0.296131402,0.059619483,0.924574018,0.731394351,0.092850089,0.804406345,0.727614462,-0.090786442,0.865024626,0.708432913,-0.038870696,0.830211997,0.481555045,0.15021871,0.778547108,0.398343444,0.2100254,0.984123468,0.754355788,0.344999075,1.000645638,0.521672666,0.402203858,0.90338695,0.290871471,0.127831697,1.126323462,0.366267473,0.049029119,0.954698443,0.863096893,0.172703624,0.906891406,0.941532075,-0.095191233,0.908780992,0.809825778,0.043634132,0.882410049,0.591619194,0.257927597,0.872646153,0.59546423,0.193249464,1.000615954,0.916368008,0.363596499,1.134221792,0.80822432,0.332774431,0.896155238,0.63232404,0.127831697,1.126323462,0.366267473,0.047439482,0.951236367,0.873119116,0.09516786,0.778642237,0.867690206,-0.114488922,0.887124896,0.848398626,-0.055613644,0.847645521,0.591106772,0.250866145,0.763906002,0.456235796,0.209367886,1.015347838,0.897839665,0.398486674,1.16367662,0.777778804,0.476274461,1.031423092,0.463932455,0,0,0,0,0,0.337000012,0.100368962,0.18503052,0.337172419,0.228154629,0.420603812,0.337371945,0.311358362,0.573990166,0.337503999,0.378112078,0.697050869,0.337609947,1.072840504,1.569977187,7.47E-05,6.18E-06,-1.24E-05,-0.000105132
1636988965,5,0,0.243331984,0.875761449,0.296400666,0.06953761,0.921778619,0.726475477,0.097552449,0.796437621,0.723651648,-0.08041691,0.866650224,0.712104559,-0.025815403,0.810280979,0.474518627,0.147794813,0.80064857,0.408853978,0.219492137,0.976906955,0.740846395,0.353038818,0.995011568,0.510035038,0.39870283,0.912290633,0.292982668,0.127831697,1.126323462,0.366267473,0.049029119,0.954698443,0.863096893,0.172703624,0.906891406,0.941532075,-0.095191233,0.908780992,0.809825778,0.043634132,0.882410049,0.591619194,0.257927597,0.872646153,0.59546423,0.193249464,1.000615954,0.916368008,0.363596499,1.134221792,0.80822432,0.332774431,0.896155238,0.63232404,0.127831697,1.126323462,0.366267473,0.047439482,0.951236367,0.873119116,0.086508408,0.776438415,0.869181097,-0.116996996,0.890783966,0.857360363,-0.05875849,0.830659986,0.603948832,0.263642758,0.812772214,0.482006937,0.21187596,1.011688828,0.888877928,0.400994748,1.16001761,0.768817067,0.468382329,1.037944078,0.44850713,0,0,0,0,0,0.337000012,0.100541212,0.18493697,0.337172419,0.228546172,0.420391202,0.337371945,0.311892688,0.573700011,0.337503999,0.378760964,0.696698487,0.337609947,1.072457081,1.569977187,7.47E-05,6.18E-06,-1.24E-05,-0.000105132
1636988965,5,0,0.243331984,0.875761449,0.296400666,0.06953761,0.921778619,0.726475477,0.097552449,0.796437621,0.723651648,-0.08041691,0.866650224,0.712104559,-0.025815403,0.810280979,0.474518627,0.147794813,0.80064857,0.408853978,0.219492137,0.976906955,0.740846395,0.353038818,0.995011568,0.510035038,0.39870283,0.912290633,0.292982668,0.136504009,1.147346616,0.356393903,0.053908482,0.955667913,0.859953701,0.173359513,0.90857619,0.942598104,-0.089889407,0.89940089,0.805834472,0.042143051,0.901304603,0.599235654,0.249671206,0.87183708,0.593923151,0.197706372,1.011934876,0.91407299,0.341916472,1.084396958,0.782878578,0.349583507,0.91441226,0.642329156,0.136504009,1.147346616,0.356393903,0.05557745,0.967579663,0.861519396,0.094646372,0.792781711,0.857581317,-0.108859025,0.907127261,0.845760584,-0.050620519,0.847003281,0.592349052,0.271780699,0.82911551,0.470407188,0.220013931,1.028032064,0.877278149,0.411480427,1.159869671,0.742588162,0.478868008,1.03779614,0.422278225,0,0,0,0,0,0.337000012,0.100541212,0.18493697,0.337172419,0.228546172,0.420391202,0.337371945,0.311892688,0.573700011,0.337503999,0.378760964,0.696698487,0.337609947,1.072307705,1.569977187,7.47E-05,6.18E-06,-1.24E-05,-0.000105132
1636988965,5,0,0.241262168,0.865433693,0.296060085,0.05995338,0.92516309,0.731652081,0.096600085,0.798051536,0.724454224,-0.086569726,0.858739793,0.70547694,-0.027833598,0.813362122,0.475606352,0.158377022,0.781759739,0.40285182,0.206476495,0.991586328,0.757827282,0.340066403,1.012889862,0.525870383,0.403348953,0.91456449,0.284404337,0.136504009,1.147346616,0.356393903,0.053908482,0.955667913,0.859953701,0.173359513,0.90857619,0.942598104,-0.089889407,0.89940089,0.805834472,0.042143051,0.901304603,0.599235654,0.249671206,0.87183708,0.593923151,0.197706372,1.011934876,0.91407299,0.341916472,1.084396958,0.782878578,0.349583507,0.91441226,0.642329156,0.136504009,1.147346616,0.356393903,0.054343019,0.956676304,0.857304513,0.096607774,0.782669127,0.851702034,-0.108406626,0.89287585,0.837702274,-0.047887757,0.835537672,0.584179461,0.273638248,0.806792259,0.462003022,0.217092663,1.020476699,0.876906753,0.403374434,1.11407876,0.707437813,0.475167453,0.989991188,0.388863623,0,0,0,0,0,0.337000012,0.100639731,0.184883386,0.337172419,0.228770122,0.42026937,0.337371945,0.312198311,0.573533773,0.337503999,0.379132092,0.696496546,0.337609947,1.071979,1.569977187,7.47E-05,6.18E-06,-1.24E-05,-0.000105132
1636988965,5,0,0.241262168,0.865433693,0.296060085,0.05995338,0.92516309,0.731652081,0.096600085,0.798051536,0.724454224,-0.086569726,0.858739793,0.70547694,-0.027833598,0.813362122,0.475606352,0.158377022,0.781759739,0.40285182,0.206476495,0.991586328,0.757827282,0.340066403,1.012889862,0.525870383,0.403348953,0.91456449,0.284404337,0.136504009,1.147346616,0.356393903,0.053908482,0.955667913,0.859953701,0.173359513,0.90857619,0.942598104,-0.089889407,0.89940089,0.805834472,0.042143051,0.901304603,0.599235654,0.249671206,0.87183708,0.593923151,0.197706372,1.011934876,0.91407299,0.341916472,1.084396958,0.782878578,0.349583507,0.91441226,0.642329156,0.136504009,1.147346616,0.356393903,0.054343019,0.956676304,0.857304513,0.103899099,0.784787774,0.847571015,-0.103787921,0.884990871,0.829055667,-0.038894635,0.834856331,0.575088382,0.278650761,0.780964792,0.451019913,0.212473959,1.028361797,0.8855533,0.398755729,1.121963739,0.716084361,0.481157511,0.99393189,0.401665449,0,0,0,0,0,0.337000012,0.100639731,0.184883386,0.337172419,0.228770122,0.42026937,0.337371945,0.312198311,0.573533773,0.337503999,0.379132092,0.696496546,0.337609947,1.071804729,1.569977187,7.47E-05,6.18E-06,-1.24E-05,-0.000105132
1636988965,5,0,0.241262168,0.865433693,0.296060085,0.05995338,0.92516309,0.731652081,0.096600085,0.798051536,0.724454224,-0.086569726,0.858739793,0.70547694,-0.027833598,0.813362122,0.475606352,0.158377022,0.781759739,0.40285182,0.206476495,0.991586328,0.757827282,0.340066403,1.012889862,0.525870383,0.403348953,0.91456449,0.284404337,0.15296717,1.178568602,0.358252674,0.044866826,0.944869757,0.852998376,0.170736,0.901837289,0.938334227,-0.085991092,0.91303879,0.805248559,0.031564016,0.869467497,0.592329919,0.274866819,0.911248565,0.621722817,0.175724745,0.976700783,0.900748134,0.352104723,1.107747912,0.785629392,0.349427998,0.931470335,0.64931947,0.15296717,1.178568602,0.358252674,0.063862152,0.976811945,0.853602648,0.113418229,0.804923475,0.84386915,-0.094268784,0.905126512,0.825353801,-0.029375501,0.854992032,0.571386516,0.288169891,0.801100433,0.447318047,0.221993089,1.048497438,0.881851435,0.412207246,1.156265616,0.72568953,0.494609028,1.028233647,0.411270559,0,0,0,0,0,0.337000012,0.100764915,0.184815183,0.337172419,0.229054704,0.420114338,0.337371945,0.312586665,0.573322177,0.337503999,0.379603714,0.69623965,0.337609947,1.07152089,1.569977187,7.47E-05,6.18E-06,-1.24E-05,-0.000105132
1636988965,5,0,0.241262168,0.865433693,0.296060085,0.05995338,0.92516309,0.731652081,0.096600085,0.798051536,0.724454224,-0.086569726,0.858739793,0.70547694,-0.027833598,0.813362122,0.475606352,0.158377022,0.781759739,0.40285182,0.206476495,0.991586328,0.757827282,0.340066403,1.012889862,0.525870383,0.403348953,0.91456449,0.284404337,0.15296717,1.178568602,0.358252674,0.044866826,0.944869757,0.852998376,0.170736,0.901837289,0.938334227,-0.085991092,0.91303879,0.805248559,0.031564016,0.869467497,0.592329919,0.274866819,0.911248565,0.621722817,0.175724745,0.976700783,0.900748134,0.352104723,1.107747912,0.785629392,0.349427998,0.931470335,0.64931947,0.15296717,1.178568602,0.358252674,0.047872335,0.951367319,0.839242995,0.097428419,0.779478788,0.829509497,-0.110258602,0.879681826,0.810994148,-0.045365315,0.829547346,0.557026803,0.27218008,0.775655806,0.432958394,0.206003278,1.023052692,0.867491782,0.397032768,1.164984226,0.74281168,0.47943455,1.036952376,0.428392708,0,0,0,0,0,0.337000012,0.100764915,0.184815183,0.337172419,0.229054704,0.420114338,0.337371945,0.312586665,0.573322177,0.337503999,0.379603714,0.69623965,0.337609947,1.071341626,1.569977187,7.47E-05,6.18E-06,-1.24E-05,-0.000105132
1636988965,5,0,0.238785818,0.885724485,0.287550867,0.060042605,0.935766399,0.73805207,0.096421525,0.798354149,0.724604726,-0.079191931,0.864807189,0.711234748,-0.029851774,0.816443205,0.476694107,0.150721818,0.795423985,0.40719378,0.199277133,1.00672555,0.764869392,0.338260621,1.01737237,0.527407169,0.40869385,0.900868833,0.281223357,0.15296717,1.178568602,0.358252674,0.044866826,0.944869757,0.852998376,0.170736,0.901837289,0.938334227,-0.085991092,0.91303879,0.805248559,0.031564016,0.869467497,0.592329919,0.274866819,0.911248565,0.621722817,0.175724745,0.976700783,0.900748134,0.352104723,1.107747912,0.785629392,0.349427998,0.931470335,0.64931947,0.15296717,1.178568602,0.358252674,0.047872335,0.951367319,0.839242995,0.093518749,0.77894944,0.822369933,-0.106594212,0.872645319,0.809491873,-0.052739289,0.819855869,0.553490043,0.267496794,0.782579541,0.430235565,0.202338889,1.030089259,0.868994057,0.393368393,1.172020793,0.744313955,0.480832994,1.027345657,0.438600749,0,0,0,0,0,0.337000012,0.100818291,0.184786066,0.337172419,0.22917603,0.420048147,0.337371945,0.312752247,0.573231876,0.337503999,0.37980479,0.696129978,0.337609947,1.071162363,1.569977187,7.47E-05,6.18E-06,-6.18E-06,-0.000105132
1636988965,5,0,0.238785818,0.885724485,0.287550867,0.060042605,0.935766399,0.73805207,0.096421525,0.798354149,0.724604726,-0.079191931,0.864807189,0.711234748,-0.029851774,0.816443205,0.476694107,0.150721818,0.795423985,0.40719378,0.199277133,1.00672555,0.764869392,0.338260621,1.01737237,0.527407169,0.40869385,0.900868833,0.281223357,0.15296717,1.178568602,0.358252674,0.044866826,0.944869757,0.852998376,0.170736,0.901837289,0.938334227,-0.085991092,0.91303879,0.805248559,0.031564016,0.869467497,0.592329919,0.274866819,0.911248565,0.621722817,0.175724745,0.976700783,0.900748134,0.352104723,1.107747912,0.785629392,0.349427998,0.931470335,0.64931947,0.15296717,1.178568602,0.358252674,0.047872335,0.951367319,0.839242995,0.093518749,0.77894944,0.822369933,-0.106594212,0.872645319,0.809491873,-0.052739289,0.819855869,0.553490043,0.267496794,0.782579541,0.430235565,0.202338889,1.030089259,0.868994057,0.393368393,1.172020793,0.744313955,0.480832994,1.027345657,0.438600749,0,0,0,0,0,0.337000012,0.100818291,0.184786066,0.337172419,0.22917603,0.420048147,0.337371945,0.312752247,0.573231876,0.337503999,0.37980479,0.696129978,0.337609947,1.071067772,1.569977187,7.47E-05,6.18E-06,-6.18E-06,-0.000105132
1636988965,5,0,0.238785818,0.885724485,0.287550867,0.060042605,0.935766399,0.73805207,0.096421525,0.798354149,0.724604726,-0.079191931,0.864807189,0.711234748,-0.029851774,0.816443205,0.476694107,0.150721818,0.795423985,0.40719378,0.199277133,1.00672555,0.764869392,0.338260621,1.01737237,0.527407169,0.40869385,0.900868833,0.281223357,0.142840639,1.162541866,0.352847576,0.051379617,0.949920058,0.860993743,0.170736,0.901837289,0.938334227,-0.08875747,0.903763652,0.808309138,0.034374397,0.878113508,0.596371651,0.286618173,0.919533432,0.626835883,0.191516697,0.996076524,0.913678288,0.330436647,1.078233719,0.778380394,0.362967402,0.960181653,0.66313684,0.142840639,1.162541866,0.352847576,0.05402403,0.956067622,0.846301734,0.09967044,0.783649802,0.829428673,-0.100442521,0.877345622,0.816550612,-0.046587598,0.824556231,0.560548782,0.2736485,0.787279844,0.437294304,0.20849058,1.034789562,0.876052797,0.385710299,1.139597297,0.70345366,0.4731749,0.994922221,0.397740483,0,0,0,0,0,0.337000012,0.100868896,0.184758455,0.337172419,0.229291052,0.419985384,0.337371945,0.312909216,0.573146224,0.337502927,0.379995435,0.696025968,0.33760801,1.07087859,1.569977187,7.47E-05,6.18E-06,-6.18E-06,-0.000105132
1636988965,5,0,0.26924786,0.798478007,0.302863538,0.06226401,0.931210816,0.735931039,0.094754845,0.801178515,0.72600925,-0.078805104,0.864225268,0.71096015,-0.035717197,0.82539767,0.479855418,0.16165784,0.793728411,0.410153091,0.203333125,0.998196363,0.760901928,0.34966886,1.003438354,0.512882233,0.397806227,0.914570987,0.293523371,0.142840639,1.162541866,0.352847576,0.051379617,0.949920058,0.860993743,0.170736,0.901837289,0.938334227,-0.08875747,0.903763652,0.808309138,0.034374397,0.878113508,0.596371651,0.286618173,0.919533432,0.626835883,0.191516697,0.996076524,0.913678288,0.330436647,1.078233719,0.778380394,0.362967402,0.960181653,0.66313684,0.142840639,1.162541866,0.352847576,0.05402403,0.956067622,0.846301734,0.098980464,0.78336513,0.830522537,-0.101187333,0.878604829,0.817127407,-0.048913691,0.828638911,0.560232699,0.271911234,0.787115097,0.439901948,0.209235385,1.033530474,0.875476003,0.386455119,1.138338208,0.702876866,0.468457073,0.998229325,0.393544227,0,0,0,0,0,0.337000012,0.100868896,0.184758455,0.337172419,0.229291052,0.419985384,0.337371945,0.312909216,0.573146224,0.337502927,0.379995435,0.696025968,0.33760801,1.070793917,1.569977187,7.47E-05,6.18E-06,-6.18E-06,-0.000105132
1636988965,5,0,0.26924786,0.798478007,0.302863538,0.06226401,0.931210816,0.735931039,0.094754845,0.801178515,0.72600925,-0.078805104,0.864225268,0.71096015,-0.035717197,0.82539767,0.479855418,0.16165784,0.793728411,0.410153091,0.203333125,0.998196363,0.760901928,0.34966886,1.003438354,0.512882233,0.397806227,0.914570987,0.293523371,0.142840639,1.162541866,0.352847576,0.051379617,0.949920058,0.860993743,0.170736,0.901837289,0.938334227,-0.08875747,0.903763652,0.808309138,0.034374397,0.878113508,0.596371651,0.286618173,0.919533432,0.626835883,0.191516697,0.996076524,0.913678288,0.330436647,1.078233719,0.778380394,0.362967402,0.960181653,0.66313684,0.142840639,1.162541866,0.352847576,0.05402403,0.956067622,0.846301734,0.097335093,0.782731414,0.833075702,-0.102882512,0.881561816,0.8185274,-0.054621596,0.838072717,0.559676886,0.267173618,0.786439955,0.446036011,0.210930571,1.030573487,0.874076009,0.388150305,1.135381222,0.701476872,0.45777753,1.006840944,0.384190023,0,0,0,0,0,0.337000012,0.100928687,0.184725806,0.337172419,0.229426965,0.419911146,0.337371945,0.313094705,0.573044896,0.337502927,0.380220681,0.695902944,0.33760801,1.070704252,1.569977187,7.47E-05,6.18E-06,-6.18E-06,-0.000105132
1636988965,5,0,0.26924786,0.798478007,0.302863538,0.06226401,0.931210816,0.735931039,0.094754845,0.801178515,0.72600925,-0.078805104,0.864225268,0.71096015,-0.035717197,0.82539767,0.479855418,0.16165784,0.793728411,0.410153091,0.203333125,0.998196363,0.760901928,0.34966886,1.003438354,0.512882233,0.397806227,0.914570987,0.293523371,0.133317858,1.150064707,0.373449117,0.057632584,0.95639658,0.856777906,0.182177141,0.910345376,0.953964353,-0.085386418,0.915367782,0.80656004,0.042544596,0.879769921,0.598292291,0.301765829,0.93523103,0.627177656,0.200651586,0.997425377,0.906995833,0.35027191,1.103535891,0.783504188,0.383975476,1.022943377,0.700781941,0.133317858,1.150064707,0.373449117,0.054206327,0.949768007,0.87108314,0.097517394,0.776431859,0.857857168,-0.102700211,0.875262201,0.843308806,-0.054439299,0.831773102,0.584458292,0.267355919,0.78014034,0.470817417,0.211112872,1.024273872,0.898857415,0.392710745,1.150704384,0.746478081,0.462337971,1.022164226,0.429191232,0,0,0,0,0,0.337000012,0.100928687,0.184725806,0.337172419,0.229426965,0.419911146,0.337371945,0.313094705,0.573044896,0.337502927,0.380220681,0.695902944,0.33760801,1.070654461,1.569977187,7.47E-05,6.18E-06,-6.18E-06,-0.000105132
1636988965,5,0,0.2359972,0.840344608,0.300566435,0.066516779,0.923174381,0.732177377,0.099100113,0.793815017,0.722347379,-0.075775012,0.859666586,0.70880872,-0.033635929,0.822220325,0.478733629,0.185563371,0.761091053,0.390492737,0.208808586,0.986682177,0.755546033,0.338524938,1.016716242,0.527182162,0.405385137,0.909347057,0.283192545,0.133317858,1.150064707,0.373449117,0.057632584,0.95639658,0.856777906,0.182177141,0.910345376,0.953964353,-0.085386418,0.915367782,0.80656004,0.042544596,0.879769921,0.598292291,0.301765829,0.93523103,0.627177656,0.200651586,0.997425377,0.906995833,0.35027191,1.103535891,0.783504188,0.383975476,1.022943377,0.700781941,0.133317858,1.150064707,0.373449117,0.055320241,0.950479567,0.871544659,0.098927043,0.777213454,0.858372688,-0.103339069,0.879208982,0.845278442,-0.055782139,0.836887598,0.586104214,0.255656034,0.753864348,0.46263054,0.213979542,1.021750212,0.897810876,0.39576906,1.150675058,0.747767925,0.479141772,1.014908195,0.436869472,0,0,0,0,0,0.337000012,0.100955367,0.184711218,0.337172419,0.229487628,0.419878006,0.337371945,0.313177466,0.572999656,0.337502927,0.380321175,0.695847988,0.33760801,1.070490175,1.569977187,7.47E-05,6.18E-06,-6.18E-06,-0.000105132
1636988965,5,0,0.2359972,0.840344608,0.300566435,0.066516779,0.923174381,0.732177377,0.099100113,0.793815017,0.722347379,-0.075775012,0.859666586,0.70880872,-0.033635929,0.822220325,0.478733629,0.185563371,0.761091053,0.390492737,0.208808586,0.986682177,0.755546033,0.338524938,1.016716242,0.527182162,0.405385137,0.909347057,0.283192545,0.133317858,1.150064707,0.373449117,0.057632584,0.95639658,0.856777906,0.182177141,0.910345376,0.953964353,-0.085386418,0.915367782,0.80656004,0.042544596,0.879769921,0.598292291,0.301765829,0.93523103,0.627177656,0.200651586,0.997425377,0.906995833,0.35027191,1.103535891,0.783504188,0.383975476,1.022943377,0.700781941,0.133317858,1.150064707,0.373449117,0.055320241,0.950479567,0.871544659,0.098960869,0.777221501,0.858378828,-0.103534244,0.879579484,0.845455885,-0.056058843,0.837391198,0.58624512,0.253921747,0.75094533,0.461459279,0.214174718,1.021379709,0.897633374,0.395964235,1.150304556,0.747590423,0.480953336,1.013822556,0.437443674,0,0,0,0,0,0.337000012,0.100955367,0.184711218,0.337172419,0.229487628,0.419878006,0.337371945,0.313177466,0.572999656,0.337502927,0.380321175,0.695847988,0.33760801,1.070455294,1.569977187,7.47E-05,6.18E-06,-6.18E-06,-0.000105132
1636988965,5,0,0.2359972,0.840344608,0.300566435,0.066516779,0.923174381,0.732177377,0.099100113,0.793815017,0.722347379,-0.075775012,0.859666586,0.70880872,-0.033635929,0.822220325,0.478733629,0.185563371,0.761091053,0.390492737,0.208808586,0.986682177,0.755546033,0.338524938,1.016716242,0.527182162,0.405385137,0.909347057,0.283192545,0.145607546,1.158814788,0.360553294,0.059869528,0.963035405,0.860621393,0.171391904,0.903522074,0.939400196,-0.08405108,0.920510888,0.80945611,0.047743347,0.895576119,0.60569036,0.255092382,0.884292424,0.599748671,0.203790143,1.005559921,0.911786616,0.349708766,1.081933379,0.764951527,0.357417047,0.930994451,0.641974449,0.145607546,1.158814788,0.360553294,0.059034478,0.964247525,0.859217167,0.102675103,0.790989459,0.846051335,-0.099820003,0.893347442,0.833128452,-0.052344605,0.851159155,0.573917627,0.257635981,0.764713287,0.449131817,0.217888951,1.035147667,0.885305941,0.393923521,1.123121381,0.702400506,0.478912652,0.98663938,0.392253757,0,0,0,0,0,0.337000012,0.100982033,0.184696645,0.337172419,0.229548246,0.419844866,0.337371945,0.313260198,0.572954416,0.337502927,0.380421638,0.695793092,0.33760801,1.070420413,1.569977187,7.47E-05,6.18E-06,-6.18E-06,-0.000105132
1636988965,5,0,0.2359972,0.840344608,0.300566435,0.066516779,0.923174381,0.732177377,0.099100113,0.793815017,0.722347379,-0.075775012,0.859666586,0.70880872,-0.033635929,0.822220325,0.478733629,0.185563371,0.761091053,0.390492737,0.208808586,0.986682177,0.755546033,0.338524938,1.016716242,0.527182162,0.405385137,0.909347057,0.283192545,0.145607546,1.158814788,0.360553294,0.059869528,0.963035405,0.860621393,0.171391904,0.903522074,0.939400196,-0.08405108,0.920510888,0.80945611,0.047743347,0.895576119,0.60569036,0.255092382,0.884292424,0.599748671,0.203790143,1.005559921,0.911786616,0.349708766,1.081933379,0.764951527,0.357417047,0.930994451,0.641974449,0.145607546,1.158814788,0.360553294,0.060120903,0.963609397,0.859155238,0.103761531,0.790351331,0.845989406,-0.098733582,0.892709315,0.833066463,-0.05125818,0.850521028,0.573855698,0.258722395,0.76407516,0.449069858,0.21897538,1.03450954,0.885243952,0.396649599,1.127503753,0.70645386,0.48163873,0.991021752,0.396307141,0,0,0,0,0,0.337000012,0.100982033,0.184696645,0.337172419,0.229548246,0.419844866,0.337371945,0.313260198,0.572954416,0.337502927,0.380421638,0.695793092,0.33760801,1.070350718,1.569977187,7.47E-05,6.18E-06,-6.18E-06,-0.000105132
1636988965,5,0,0.262862027,0.813589275,0.306319207,0.067996383,0.925810575,0.728307188,0.098504886,0.794823766,0.722849011,-0.077902555,0.862867415,0.71031934,-0.032942209,0.82116127,0.478359759,0.160853714,0.777338982,0.401447088,0.213895321,0.988753736,0.746295035,0.343325466,1.004799962,0.523096919,0.408057511,0.902499199,0.281602025,0.145607546,1.158814788,0.360553294,0.059869528,0.963035405,0.860621393,0.171391904,0.903522074,0.939400196,-0.08405108,0.920510888,0.80945611,0.047743347,0.895576119,0.60569036,0.255092382,0.884292424,0.599748671,0.203790143,1.005559921,0.911786616,0.349708766,1.081933379,0.764951527,0.357417047,0.930994451,0.641974449,0.145607546,1.158814788,0.360553294,0.060120903,0.963609397,0.859155238,0.100727007,0.78926903,0.851890564,-0.100368418,0.894371748,0.839368522,-0.050358102,0.847981155,0.581355155,0.263595849,0.77698797,0.456754804,0.220610216,1.032847047,0.878941953,0.398284435,1.12584126,0.700151861,0.481995851,0.993546069,0.38785094,0,0,0,0,0,0.337000012,0.101005949,0.184683561,0.337172419,0.229602605,0.419815153,0.337371945,0.313334376,0.572913885,0.337502927,0.380511731,0.695743799,0.33760801,1.070295934,1.569977187,7.47E-05,6.18E-06,-6.18E-06,-0.000105132
1636988965,5,0,0.262862027,0.813589275,0.306319207,0.067996383,0.925810575,0.728307188,0.098504886,0.794823766,0.722849011,-0.077902555,0.862867415,0.71031934,-0.032942209,0.82116127,0.478359759,0.160853714,0.777338982,0.401447088,0.213895321,0.988753736,0.746295035,0.343325466,1.004799962,0.523096919,0.408057511,0.902499199,0.281602025,0.145607546,1.158814788,0.360553294,0.059869528,0.963035405,0.860621393,0.171391904,0.903522074,0.939400196,-0.08405108,0.920510888,0.80945611,0.047743347,0.895576119,0.60569036,0.255092382,0.884292424,0.599748671,0.203790143,1.005559921,0.911786616,0.349708766,1.081933379,0.764951527,0.357417047,0.930994451,0.641974449,0.145607546,1.158814788,0.360553294,0.060120903,0.963609397,0.859155238,0.100727007,0.78926903,0.851890564,-0.100368418,0.894371748,0.839368522,-0.050358102,0.847981155,0.581355155,0.263595849,0.77698797,0.456754804,0.220610216,1.032847047,0.878941953,0.398284435,1.12584126,0.700151861,0.481995851,0.993546069,0.38785094,0,0,0,0,0,0.337000012,0.101005949,0.184683561,0.337172419,0.229602605,0.419815153,0.337371945,0.313334376,0.572913885,0.337502927,0.380511731,0.695743799,0.33760801,1.070266045,1.569977187,7.47E-05,6.18E-06,-6.18E-06,-0.000105132
1636988965,5,0,0.262862027,0.813589275,0.306319207,0.067996383,0.925810575,0.728307188,0.098504886,0.794823766,0.722849011,-0.077902555,0.862867415,0.71031934,-0.032942209,0.82116127,0.478359759,0.160853714,0.777338982,0.401447088,0.213895321,0.988753736,0.746295035,0.343325466,1.004799962,0.523096919,0.408057511,0.902499199,0.281602025,0.150735959,1.163373947,0.362354338,0.058287565,0.955793083,0.856604338,0.169096395,0.897625625,0.935669482,-0.089039654,0.901297033,0.798636794,0.050785225,0.88092196,0.592070341,0.285473645,0.916930139,0.617393196,0.20561479,1.010289192,0.914571881,0.348026872,1.078103662,0.763032675,0.355368376,0.926687062,0.639916599,0.150735959,1.163373947,0.362354338,0.058585238,0.956461489,0.855012953,0.099191338,0.782121062,0.84774828,-0.101904079,0.88722384,0.835226238,-0.051893767,0.840833187,0.57721287,0.262060165,0.769840062,0.452612489,0.219074562,1.025699139,0.874799669,0.39399749,1.108994842,0.688665986,0.477708876,0.976699591,0.376365066,0,0,0,0,0,0.337000012,0.101021588,0.184675008,0.337172419,0.229638144,0.419795692,0.337371945,0.313382894,0.572887361,0.337502927,0.38057065,0.695711613,0.33760801,1.070201343,1.569977187,7.47E-05,6.18E-06,-6.18E-06,-0.000105132
1636988965,5,0,0.196524039,0.96977514,0.309841007,0.063969053,0.923179746,0.72562319,0.097969092,0.795731604,0.723300517,-0.08631026,0.858353078,0.705295086,-0.036789406,0.827034652,0.480433285,0.14630717,0.785458624,0.400525838,0.214248374,0.988006473,0.745951355,0.342532754,1.00676775,0.523771524,0.410857171,0.895325363,0.279935807,0.150735959,1.163373947,0.362354338,0.058287565,0.955793083,0.856604338,0.169096395,0.897625625,0.935669482,-0.089039654,0.901297033,0.798636794,0.050785225,0.88092196,0.592070341,0.285473645,0.916930139,0.617393196,0.20561479,1.010289192,0.914571881,0.348026872,1.078103662,0.763032675,0.355368376,0.926687062,0.639916599,0.150735959,1.163373947,0.362354338,0.058585238,0.956461489,0.855012953,0.104182966,0.783243954,0.851445198,-0.101721779,0.887308419,0.833525658,-0.045369532,0.850168407,0.575322151,0.264787912,0.779770315,0.441237032,0.218892246,1.025614619,0.876500189,0.39381516,1.108910322,0.690366507,0.479839832,0.969055712,0.382012904,0,0,0,0,0,0.337000012,0.101021588,0.184675008,0.337172419,0.229638144,0.419795692,0.337371945,0.313382894,0.572887361,0.337502927,0.38057065,0.695711613,0.33760801,1.070181439,1.569977187,7.47E-05,6.18E-06,-6.18E-06,-0.000105132
1636988965,5,0,0.196524039,0.96977514,0.309841007,0.063969053,0.923179746,0.72562319,0.097969092,0.795731604,0.723300517,-0.08631026,0.858353078,0.705295086,-0.036789406,0.827034652,0.480433285,0.14630717,0.785458624,0.400525838,0.214248374,0.988006473,0.745951355,0.342532754,1.00676775,0.523771524,0.410857171,0.895325363,0.279935807,0.150735959,1.163373947,0.362354338,0.058287565,0.955793083,0.856604338,0.169096395,0.897625625,0.935669482,-0.089039654,0.901297033,0.798636794,0.050785225,0.88092196,0.592070341,0.285473645,0.916930139,0.617393196,0.20561479,1.010289192,0.914571881,0.348026872,1.078103662,0.763032675,0.355368376,0.926687062,0.639916599,0.150735959,1.163373947,0.362354338,0.058585238,0.956461489,0.855012953,0.104756989,0.783388019,0.851858735,-0.101699956,0.887318492,0.833331287,-0.044825055,0.851349175,0.57507664,0.264880866,0.7810238,0.439914018,0.218870431,1.025604486,0.87669456,0.393793344,1.108900189,0.690560877,0.480066478,0.968182087,0.382669926,0,0,0,0,0,0.337000012,0.101032615,0.184668973,0.337172419,0.229663208,0.419781983,0.337371945,0.313417107,0.572868645,0.337502927,0.380612195,0.695688844,0.33760801,1.070161536,1.569977187,7.47E-05,6.18E-06,-6.18E-06,-0.000105132
1636988965,5,0,0.196524039,0.96977514,0.309841007,0.063969053,0.923179746,0.72562319,0.097969092,0.795731604,0.723300517,-0.08631026,0.858353078,0.705295086,-0.036789406,0.827034652,0.480433285,0.14630717,0.785458624,0.400525838,0.214248374,0.988006473,0.745951355,0.342532754,1.00676775,0.523771524,0.410857171,0.895325363,0.279935807,0.150530025,1.161611676,0.361465424,0.067193925,0.970432281,0.865414858,0.177324325,0.897734523,0.937213004,-0.085588135,0.915978968,0.815238059,0.045999654,0.890274584,0.603209019,0.281584978,0.908157289,0.6132797,0.219975978,1.024885535,0.915591598,0.36261788,1.111326575,0.779679239,0.37076512,0.941576958,0.648259759,0.150530025,1.161611676,0.361465424,0.069038786,0.97401005,0.863642514,0.115210541,0.80093658,0.860488296,-0.091246411,0.904867053,0.841960847,-0.034371503,0.868897736,0.5837062,0.275334418,0.798572361,0.448543578,0.229323983,1.043153048,0.885324121,0.407417953,1.154726624,0.717944801,0.493691087,1.014008522,0.410053849,0,0,0,0,0,0.337000012,0.101032615,0.184668973,0.337172419,0.229663208,0.419781983,0.337371945,0.313417107,0.572868645,0.337502927,0.380612195,0.695688844,0.33760801,1.07013664,1.569977187,7.47E-05,6.18E-06,-6.18E-06,-0.000105132
1636988965,5,0,0.244612694,0.847760797,0.302004784,0.065327018,0.920508504,0.724389553,0.09981443,0.792604566,0.721745431,-0.085661568,0.857386231,0.704840302,-0.03704169,0.827419758,0.480569243,0.136273161,0.803188086,0.406124115,0.216315597,0.983630717,0.743938804,0.343677759,1.003925443,0.522797108,0.407124251,0.904890597,0.282157451,0.150530025,1.161611676,0.361465424,0.067193925,0.970432281,0.865414858,0.177324325,0.897734523,0.937213004,-0.085588135,0.915978968,0.815238059,0.045999654,0.890274584,0.603209019,0.281584978,0.908157289,0.6132797,0.219975978,1.024885535,0.915591598,0.36261788,1.111326575,0.779679239,0.37076512,0.941576958,0.648259759,0.150530025,1.161611676,0.361465424,0.06767755,0.971541762,0.862490237,0.113849305,0.798468292,0.859336078,-0.09260764,0.902398765,0.84080863,-0.035732739,0.866429448,0.582553983,0.273973197,0.796104074,0.447391331,0.227962747,1.0406847,0.884171903,0.406083018,1.148625731,0.714454889,0.492356151,1.007907629,0.406563938,0,0,0,0,0,0.337000012,0.101043649,0.184662938,0.337172419,0.229688302,0.419768274,0.337371945,0.31345135,0.57284987,0.337502927,0.380653769,0.695666134,0.33760801,1.070101759,1.569977187,7.47E-05,6.18E-06,-6.18E-06,-0.000105132
1636988965,5,0,0.244612694,0.847760797,0.302004784,0.065327018,0.920508504,0.724389553,0.09981443,0.792604566,0.721745431,-0.085661568,0.857386231,0.704840302,-0.03704169,0.827419758,0.480569243,0.136273161,0.803188086,0.406124115,0.216315597,0.983630717,0.743938804,0.343677759,1.003925443,0.522797108,0.407124251,0.904890597,0.282157451,0.150530025,1.161611676,0.361465424,0.067193925,0.970432281,0.865414858,0.177324325,0.897734523,0.937213004,-0.085588135,0.915978968,0.815238059,0.045999654,0.890274584,0.603209019,0.281584978,0.908157289,0.6132797,0.219975978,1.024885535,0.915591598,0.36261788,1.111326575,0.779679239,0.37076512,0.941576958,0.648259759,0.150530025,1.161611676,0.361465424,0.06767755,0.971541762,0.862490237,0.114328325,0.798605323,0.85889715,-0.093505308,0.904248238,0.841661036,-0.037473164,0.869751215,0.583021581,0.277216017,0.826902509,0.447865874,0.228860408,1.038835287,0.883319497,0.406980693,1.146776319,0.713602483,0.489569783,1.018098593,0.399496496,0,0,0,0,0,0.337000012,0.101043649,0.184662938,0.337172419,0.229688302,0.419768274,0.337371945,0.31345135,0.57284987,0.337502927,0.380653769,0.695666134,0.33760801,1.070101759,1.569977187,7.47E-05,6.18E-06,-6.18E-06,-0.000105132
1636988965,5,0,0.244612694,0.847760797,0.302004784,0.065327018,0.920508504,0.724389553,0.09981443,0.792604566,0.721745431,-0.085661568,0.857386231,0.704840302,-0.03704169,0.827419758,0.480569243,0.136273161,0.803188086,0.406124115,0.216315597,0.983630717,0.743938804,0.343677759,1.003925443,0.522797108,0.407124251,0.904890597,0.282157451,0.154083416,1.192800045,0.357645214,0.057862688,0.954845071,0.860203207,0.167784601,0.894256055,0.933537483,-0.089889407,0.89940089,0.805834472,0.043348446,0.905721486,0.609277487,0.281256258,0.889377534,0.605650067,0.20561479,1.010289192,0.914571881,0.355847955,1.09591186,0.77195555,0.348040313,0.894328356,0.617472351,0.154083416,1.192800045,0.357645214,0.068309911,0.991048336,0.853584826,0.114941187,0.818106294,0.85000968,-0.092836864,0.923679352,0.832720399,-0.036769621,0.889122725,0.574096501,0.27778253,0.845144272,0.438984692,0.229456693,1.05841732,0.874449313,0.408187866,1.164776921,0.704376578,0.490939826,1.035607815,0.390515238,0,0,0,0,0,0.337000012,0.101050094,0.184659421,0.337172419,0.22970295,0.419760257,0.337371945,0.313471317,0.572838962,0.337502927,0.380678028,0.695652843,0.33760801,1.07005696,1.569977187,7.47E-05,6.18E-06,-6.18E-06,-0.000105132
1636988965,5,0,0.244612694,0.847760797,0.302004784,0.065327018,0.920508504,0.724389553,0.09981443,0.792604566,0.721745431,-0.085661568,0.857386231,0.704840302,-0.03704169,0.827419758,0.480569243,0.136273161,0.803188086,0.406124115,0.216315597,0.983630717,0.743938804,0.343677759,1.003925443,0.522797108,0.407124251,0.904890597,0.282157451,0.154083416,1.192800045,0.357645214,0.057862688,0.954845071,0.860203207,0.167784601,0.894256055,0.933537483,-0.089889407,0.89940089,0.805834472,0.043348446,0.905721486,0.609277487,0.281256258,0.889377534,0.605650067,0.20561479,1.010289192,0.914571881,0.355847955,1.09591186,0.77195555,0.348040313,0.894328356,0.617472351,0.154083416,1.192800045,0.357645214,0.061229356,0.962546349,0.839701533,0.107860632,0.789604306,0.836126387,-0.099917427,0.895177364,0.818837106,-0.04385018,0.860620737,0.560213208,0.270701975,0.816642284,0.425101399,0.222376138,1.029915333,0.86056602,0.402528197,1.132318377,0.689566612,0.485280156,1.003149271,0.375705272,0,0,0,0,0,0.337000012,0.101050094,0.184659421,0.337172419,0.22970295,0.419760257,0.337371945,0.313471317,0.572838962,0.337502927,0.380678028,0.695652843,0.33760801,1.07005696,1.569977187,7.47E-05,6.18E-06,-6.18E-06,-0.000105132
1636988965,5,0,0.242087349,0.855529904,0.291790009,0.062502824,0.925917745,0.726891518,0.10231439,0.788368106,0.719638586,-0.087477989,0.860093594,0.706113696,-0.03634797,0.826360703,0.480195373,0.153109878,0.773438632,0.396730363,0.21248363,0.991741896,0.747669339,0.347699463,1.008362889,0.514546156,0.408821076,0.900542736,0.281147599,0.154083416,1.192800045,0.357645214,0.057862688,0.954845071,0.860203207,0.167784601,0.894256055,0.933537483,-0.089889407,0.89940089,0.805834472,0.043348446,0.905721486,0.609277487,0.281256258,0.889377534,0.605650067,0.20561479,1.010289192,0.914571881,0.355847955,1.09591186,0.77195555,0.348040313,0.894328356,0.617472351,0.154083416,1.192800045,0.357645214,0.061626956,0.964154124,0.840542555,0.111372173,0.792283595,0.831479907,-0.098166145,0.894023538,0.81840533,-0.039870854,0.855563343,0.560827196,0.26615122,0.770080984,0.426010251,0.22142005,1.034284711,0.86267972,0.401494622,1.136914968,0.69173491,0.482294202,0.994382381,0.383194208,0,0,0,0,0,0.337000012,0.1010556,0.184656397,0.337172419,0.229715466,0.419753402,0.337371945,0.313488394,0.572829604,0.337502927,0.38069877,0.695641458,0.33760801,1.07003699,1.569977187,7.47E-05,6.18E-06,-6.18E-06,-0.000105132
1636988965,5,0,0.242087349,0.855529904,0.291790009,0.062502824,0.925917745,0.726891518,0.10231439,0.788368106,0.719638586,-0.087477989,0.860093594,0.706113696,-0.03634797,0.826360703,0.480195373,0.153109878,0.773438632,0.396730363,0.21248363,0.991741896,0.747669339,0.347699463,1.008362889,0.514546156,0.408821076,0.900542736,0.281147599,0.154083416,1.192800045,0.357645214,0.057862688,0.954845071,0.860203207,0.167784601,0.894256055,0.933537483,-0.089889407,0.89940089,0.805834472,0.043348446,0.905721486,0.609277487,0.281256258,0.889377534,0.605650067,0.20561479,1.010289192,0.914571881,0.355847955,1.09591186,0.77195555,0.348040313,0.894328356,0.617472351,0.154083416,1.192800045,0.357645214,0.061626956,0.964154124,0.840542555,0.111372173,0.792283595,0.831479907,-0.098166145,0.894023538,0.81840533,-0.039870854,0.855563343,0.560827196,0.26615122,0.770080984,0.426010251,0.22142005,1.034284711,0.86267972,0.401494622,1.136914968,0.69173491,0.482294202,0.994382381,0.383194208,0,0,0,0,0,0.337000012,0.1010556,0.184656397,0.337172419,0.229715466,0.419753402,0.337371945,0.313488394,0.572829604,0.337502927,0.38069877,0.695641458,0.33760801,1.070027072,1.569977187,7.47E-05,6.18E-06,-6.18E-06,-0.000105132
1636988965,5,0,0.242087349,0.855529904,0.291790009,0.062502824,0.925917745,0.726891518,0.10231439,0.788368106,0.719638586,-0.087477989,0.860093594,0.706113696,-0.03634797,0.826360703,0.480195373,0.153109878,0.773438632,0.396730363,0.21248363,0.991741896,0.747669339,0.347699463,1.008362889,0.514546156,0.408821076,0.900542736,0.281147599,0.142020002,1.163114071,0.369263291,0.050462443,0.946268916,0.854449213,0.169752195,0.899310231,0.936735332,-0.090493098,0.897074103,0.804514647,0.036650479,0.861184299,0.581769228,0.273508489,0.889936924,0.604736269,0.191417977,0.995463789,0.904383779,0.348147601,1.098653913,0.781040907,0.351864964,0.936638236,0.651806533,0.142020002,1.163114071,0.369263291,0.049958982,0.945076525,0.857117176,0.099704199,0.773205996,0.848054528,-0.10983412,0.874945939,0.834979951,-0.051538829,0.836485803,0.577401876,0.254483223,0.751003385,0.442584902,0.209752083,1.015207171,0.879254401,0.397268295,1.138666987,0.731683135,0.478067875,0.99613446,0.423142403,0,0,0,0,0,0.337000012,0.101062037,0.18465288,0.337172419,0.229730099,0.419745386,0.337371945,0.313508391,0.572818696,0.337502927,0.380723029,0.695628226,0.33760801,1.070017087,1.569977187,7.47E-05,6.18E-06,-6.18E-06,-0.000105132
1636988965,5,0,0.231690034,0.892860532,0.294252515,0.064383671,0.927081406,0.734004617,0.102552556,0.787964523,0.719437897,-0.077709146,0.862576485,0.710182011,-0.030987076,0.818176448,0.477306008,0.13882421,0.798680604,0.404700845,0.206476495,0.991586328,0.757827282,0.343017161,1.005565166,0.523359299,0.406403154,0.9067384,0.282586634,0.142020002,1.163114071,0.369263291,0.050462443,0.946268916,0.854449213,0.169752195,0.899310231,0.936735332,-0.090493098,0.897074103,0.804514647,0.036650479,0.861184299,0.581769228,0.273508489,0.889936924,0.604736269,0.191417977,0.995463789,0.904383779,0.348147601,1.098653913,0.781040907,0.351864964,0.936638236,0.651806533,0.142020002,1.163114071,0.369263291,0.049958982,0.945076525,0.857117176,0.099704199,0.773205996,0.848054528,-0.10983412,0.874945939,0.834979951,-0.051538829,0.836485803,0.577401876,0.254483223,0.751003385,0.442584902,0.209752083,1.015207171,0.879254401,0.397268295,1.138666987,0.731683135,0.478067875,0.99613446,0.423142403,0,0,0,0,0,0.337000012,0.101062037,0.18465288,0.337172419,0.229730099,0.419745386,0.337371945,0.313508391,0.572818696,0.337502927,0.380723029,0.695628226,0.33760801,1.070012094,1.569977187,7.47E-05,6.18E-06,-6.18E-06,-0.000105132
1636988965,5,0,0.231690034,0.892860532,0.294252515,0.064383671,0.927081406,0.734004617,0.102552556,0.787964523,0.719437897,-0.077709146,0.862576485,0.710182011,-0.030987076,0.818176448,0.477306008,0.13882421,0.798680604,0.404700845,0.206476495,0.991586328,0.757827282,0.343017161,1.005565166,0.523359299,0.406403154,0.9067384,0.282586634,0.142020002,1.163114071,0.369263291,0.050462443,0.946268916,0.854449213,0.169752195,0.899310231,0.936735332,-0.090493098,0.897074103,0.804514647,0.036650479,0.861184299,0.581769228,0.273508489,0.889936924,0.604736269,0.191417977,0.995463789,0.904383779,0.348147601,1.098653913,0.781040907,0.351864964,0.936638236,0.651806533,0.142020002,1.163114071,0.369263291,0.049958982,0.945076525,0.857117176,0.097121127,0.773181319,0.839118242,-0.108378723,0.873197019,0.830570996,-0.056774814,0.824157774,0.573362529,0.258835196,0.787923038,0.438419133,0.208296686,1.016956091,0.883663356,0.395812899,1.140415907,0.736092091,0.47847718,1.01153183,0.42209053,0,0,0,0,0,0.337000012,0.101064794,0.184651375,0.337172419,0.229736358,0.419741958,0.337371945,0.313516915,0.572813988,0.337502927,0.380733401,0.695622504,0.33760801,1.070002176,1.569977187,7.47E-05,6.18E-06,-6.18E-06,-0.000105132
1636988965,5,0,0.231690034,0.892860532,0.294252515,0.064383671,0.927081406,0.734004617,0.102552556,0.787964523,0.719437897,-0.077709146,0.862576485,0.710182011,-0.030987076,0.818176448,0.477306008,0.13882421,0.798680604,0.404700845,0.206476495,0.991586328,0.757827282,0.343017161,1.005565166,0.523359299,0.406403154,0.9067384,0.282586634,0.13393414,1.151328921,0.365124702,0.052412957,0.954277396,0.859238923,0.170736,0.901837289,0.938334227,-0.084958076,0.917017519,0.807488978,0.038015142,0.889313936,0.601607502,0.276798844,0.897359967,0.608216882,0.18978399,0.991537333,0.910988808,0.348147601,1.098653913,0.781040907,0.326817155,0.883522272,0.626244426,0.13393414,1.151328921,0.365124702,0.044821888,0.939080775,0.856069386,0.091984034,0.767185509,0.838070512,-0.113515817,0.867201209,0.829523265,-0.061911907,0.818161964,0.572314739,0.253698081,0.781927228,0.437371373,0.203159586,1.010960221,0.882615566,0.389644057,1.134742022,0.73401016,0.472308367,1.005857944,0.42000857,0,0,0,0,0,0.337000012,0.101064794,0.184651375,0.337172419,0.229736358,0.419741958,0.337371945,0.313516915,0.572813988,0.337502927,0.380733401,0.695622504,0.33760801,1.069997183,1.569977187,7.47E-05,6.18E-06,-6.18E-06,-0.000105132
1636988965,5,0,0.245985568,0.861948252,0.291195422,0.064061329,0.92756635,0.734233499,0.088071957,0.795201719,0.720479012,-0.07835383,0.863546371,0.710639775,-0.031869996,0.819524288,0.477781892,0.143075898,0.791168153,0.40232867,0.206476495,0.991586328,0.757827282,0.353372544,1.017976522,0.521331847,0.400923014,0.906644404,0.291643858,0.13393414,1.151328921,0.365124702,0.052412957,0.954277396,0.859238923,0.170736,0.901837289,0.938334227,-0.084958076,0.917017519,0.807488978,0.038015142,0.889313936,0.601607502,0.276798844,0.897359967,0.608216882,0.18978399,0.991537333,0.910988808,0.348147601,1.098653913,0.781040907,0.326817155,0.883522272,0.626244426,0.13393414,1.151328921,0.365124702,0.05179701,0.952788591,0.86297226,0.094403282,0.779699683,0.845051527,-0.106630757,0.881078601,0.836505055,-0.055096965,0.832156301,0.57926023,0.259975016,0.791546941,0.444305152,0.210224777,1.024498582,0.889439464,0.394275993,1.148990154,0.738413215,0.472106248,1.013259888,0.426065266,0,0,0,0,0,0.337000012,0.101066634,0.184650362,0.337172419,0.22974056,0.419739664,0.337371945,0.313522637,0.572810888,0.337502927,0.380740374,0.695618749,0.33760801,1.069987198,1.569977187,7.47E-05,6.18E-06,-6.18E-06,-0.000105132
1636988965,5,0,0.245985568,0.861948252,0.291195422,0.064061329,0.92756635,0.734233499,0.088071957,0.795201719,0.720479012,-0.07835383,0.863546371,0.710639775,-0.031869996,0.819524288,0.477781892,0.143075898,0.791168153,0.40232867,0.206476495,0.991586328,0.757827282,0.353372544,1.017976522,0.521331847,0.400923014,0.906644404,0.291643858,0.13393414,1.151328921,0.365124702,0.052412957,0.954277396,0.859238923,0.170736,0.901837289,0.938334227,-0.084958076,0.917017519,0.807488978,0.038015142,0.889313936,0.601607502,0.276798844,0.897359967,0.608216882,0.18978399,0.991537333,0.910988808,0.348147601,1.098653913,0.781040907,0.326817155,0.883522272,0.626244426,0.13393414,1.151328921,0.365124702,0.05179701,0.952788591,0.86297226,0.08360748,0.777425408,0.844749629,-0.106840916,0.881475925,0.836690903,-0.055471938,0.832827449,0.5793612,0.258009762,0.782016695,0.444158286,0.210434929,1.024101138,0.889253616,0.394486159,1.14859283,0.738227367,0.458465308,0.99879545,0.429182172,0,0,0,0,0,0.337000012,0.101066634,0.184650362,0.337172419,0.22974056,0.419739664,0.337371945,0.313522637,0.572810888,0.337502927,0.380740374,0.695618749,0.33760801,1.069982273,1.569977187,7.47E-05,6.18E-06,-6.18E-06,-0.000105132
1636988965,5,0,0.245985568,0.861948252,0.291195422,0.064061329,0.92756635,0.734233499,0.088071957,0.795201719,0.720479012,-0.07835383,0.863546371,0.710639775,-0.031869996,0.819524288,0.477781892,0.143075898,0.791168153,0.40232867,0.206476495,0.991586328,0.757827282,0.353372544,1.017976522,0.521331847,0.400923014,0.906644404,0.291643858,0.126929045,1.144678712,0.370859504,0.049505789,0.944147468,0.853467941,0.172703624,0.906891406,0.941532075,-0.089039654,0.901297033,0.798636794,0.036418311,0.884401441,0.599311054,0.244502231,0.859961212,0.588368595,0.188051224,0.986997902,0.908299088,0.359977186,1.125839829,0.794757903,0.355368376,0.926687062,0.639916599,0.126929045,1.144678712,0.370859504,0.045591544,0.943958402,0.867963672,0.077402011,0.768595278,0.849741042,-0.113046378,0.872645795,0.841682315,-0.061677404,0.823997319,0.584352612,0.251804322,0.773186564,0.449149698,0.204229474,1.015271068,0.894245028,0.389601022,1.147441745,0.751590848,0.453580171,0.997644484,0.442545652,0,0,0,0,0,0.337000012,0.101070315,0.18464835,0.337172419,0.229748905,0.419735104,0.337371945,0.313534051,0.57280463,0.337502927,0.380754203,0.695611119,0.33760801,1.06997728,1.569977187,7.47E-05,6.18E-06,-6.18E-06,-0.000105132
1636988965,5,0,0.245985568,0.861948252,0.291195422,0.064061329,0.92756635,0.734233499,0.088071957,0.795201719,0.720479012,-0.07835383,0.863546371,0.710639775,-0.031869996,0.819524288,0.477781892,0.143075898,0.791168153,0.40232867,0.206476495,0.991586328,0.757827282,0.353372544,1.017976522,0.521331847,0.400923014,0.906644404,0.291643858,0.126929045,1.144678712,0.370859504,0.049505789,0.944147468,0.853467941,0.172703624,0.906891406,0.941532075,-0.089039654,0.901297033,0.798636794,0.036418311,0.884401441,0.599311054,0.244502231,0.859961212,0.588368595,0.188051224,0.986997902,0.908299088,0.359977186,1.125839829,0.794757903,0.355368376,0.926687062,0.639916599,0.126929045,1.144678712,0.370859504,0.047466278,0.938865006,0.866181016,0.079276748,0.763501823,0.847958326,-0.111171648,0.8675524,0.8398996,-0.05980267,0.818903923,0.582569957,0.253679037,0.768093109,0.447367013,0.206104204,1.010177612,0.892462373,0.392020464,1.160317659,0.769681871,0.455999613,1.010520339,0.460636705,0,0,0,0,0,0.337000012,0.101070315,0.18464835,0.337172419,0.229748905,0.419735104,0.337371945,0.313534051,0.57280463,0.337502927,0.380754203,0.695611119,0.33760801,1.06997728,1.569977187,7.47E-05,6.18E-06,-6.18E-06,-0.000105132
1636988965,5,0,0.200611696,0.961482346,0.290883988,0.059878968,0.924187303,0.731212497,0.089390375,0.792989314,0.719381988,-0.090267472,0.864251137,0.708069146,-0.026256839,0.810954928,0.474756539,0.146533936,0.785058022,0.400399297,0.2100254,0.984123468,0.754355788,0.350727499,1.024670959,0.523605764,0.390659541,0.909684956,0.288461536,0.126929045,1.144678712,0.370859504,0.049505789,0.944147468,0.853467941,0.172703624,0.906891406,0.941532075,-0.089039654,0.901297033,0.798636794,0.036418311,0.884401441,0.599311054,0.244502231,0.859961212,0.588368595,0.188051224,0.986997902,0.908299088,0.359977186,1.125839829,0.794757903,0.355368376,0.926687062,0.639916599,0.126929045,1.144678712,0.370859504,0.047466278,0.938865006,0.866181016,0.087701164,0.764964402,0.850820899,-0.114677638,0.875294387,0.841476381,-0.043108415,0.816826284,0.591109931,0.271057039,0.770296574,0.455952972,0.209610194,1.002435565,0.890885651,0.395526439,1.152575731,0.768105149,0.446559608,1.00071466,0.457661361,0,0,0,0,0,0.337000012,0.101070315,0.18464835,0.337172419,0.229748905,0.419735104,0.337371945,0.313534051,0.57280463,0.337502927,0.380754203,0.695611119,0.33760801,1.069972288,1.569977187,7.47E-05,6.18E-06,-6.18E-06,-0.000105132
1636988965,5,0,0.200611696,0.961482346,0.290883988,0.059878968,0.924187303,0.731212497,0.089390375,0.792989314,0.719381988,-0.090267472,0.864251137,0.708069146,-0.026256839,0.810954928,0.474756539,0.146533936,0.785058022,0.400399297,0.2100254,0.984123468,0.754355788,0.350727499,1.024670959,0.523605764,0.390659541,0.909684956,0.288461536,0.126929045,1.144678712,0.370859504,0.049505789,0.944147468,0.853467941,0.172703624,0.906891406,0.941532075,-0.089039654,0.901297033,0.798636794,0.036418311,0.884401441,0.599311054,0.244502231,0.859961212,0.588368595,0.188051224,0.986997902,0.908299088,0.359977186,1.125839829,0.794757903,0.355368376,0.926687062,0.639916599,0.126929045,1.144678712,0.370859504,0.047466278,0.938865006,0.866181016,0.086631194,0.764750659,0.850480556,-0.114253648,0.874308884,0.841253757,-0.04529671,0.816894293,0.589912295,0.268786579,0.769821227,0.454752535,0.209186196,1.003421068,0.891108215,0.395102441,1.153561234,0.768327713,0.447787583,1.001852155,0.458085686,0,0,0,0,0,0.337000012,0.101070315,0.18464835,0.337172419,0.229748905,0.419735104,0.337371945,0.313534051,0.57280463,0.337502927,0.380754203,0.695611119,0.33760801,1.069967295,1.569977187,7.47E-05,6.18E-06,-6.18E-06,-0.000105132
1636988965,5,0,0.200611696,0.961482346,0.290883988,0.059878968,0.924187303,0.731212497,0.089390375,0.792989314,0.719381988,-0.090267472,0.864251137,0.708069146,-0.026256839,0.810954928,0.474756539,0.146533936,0.785058022,0.400399297,0.2100254,0.984123468,0.754355788,0.350727499,1.024670959,0.523605764,0.390659541,0.909684956,0.288461536,0.140009612,1.156583309,0.363658667,0.060663521,0.96655333,0.862577856,0.175873622,0.915034175,0.946684182,-0.08173316,0.929438531,0.814483285,0.038526088,0.89088583,0.602342308,0.272904634,0.888553798,0.596007228,0.20306021,1.00366807,0.910672426,0.347567946,1.1177212,0.771013737,0.367513955,0.935055912,0.628450096,0.126929045,1.144678712,0.370859504,0.047466278,0.938865006,0.866181016,0.086631194,0.764750659,0.850480556,-0.114253648,0.874308884,0.841253757,-0.04529671,0.816894293,0.589912295,0.268786579,0.769821227,0.454752535,0.209186196,1.003421068,0.891108215,0.395102441,1.153561234,0.768327713,0.447787583,1.001852155,0.458085686,0,0,0,0,0,0.337000012,0.101072155,0.184647337,0.337172419,0.229753107,0.419732809,0.337371945,0.313539773,0.57280153,0.337502927,0.380761147,0.695607364,0.33760801,1.069962303,1.569977187,7.47E-05,6.18E-06,-6.18E-06,-0.000105132
1636988965,5,0,0.200611696,0.961482346,0.290883988,0.059878968,0.924187303,0.731212497,0.089390375,0.792989314,0.719381988,-0.090267472,0.864251137,0.708069146,-0.026256839,0.810954928,0.474756539,0.146533936,0.785058022,0.400399297,0.2100254,0.984123468,0.754355788,0.350727499,1.024670959,0.523605764,0.390659541,0.909684956,0.288461536,0.140009612,1.156583309,0.363658667,0.060663521,0.96655333,0.862577856,0.175873622,0.915034175,0.946684182,-0.08173316,0.929438531,0.814483285,0.038526088,0.89088583,0.602342308,0.272904634,0.888553798,0.596007228,0.20306021,1.00366807,0.910672426,0.347567946,1.1177212,0.771013737,0.367513955,0.935055912,0.628450096,0.140009612,1.156583309,0.363658667,0.060288318,0.966315806,0.865116358,0.099453233,0.792201459,0.849415898,-0.101431608,0.901759744,0.840189099,-0.032474671,0.844345152,0.588847637,0.281608611,0.797272086,0.453687847,0.222008243,1.030871987,0.890043557,0.389136881,1.16265595,0.726083398,0.441821992,1.01094687,0.415841311,0,0,0,0,0,0.337000012,0.101072155,0.184647337,0.337172419,0.229753107,0.419732809,0.337371945,0.313539773,0.57280153,0.337502927,0.380761147,0.695607364,0.33760801,1.069962303,1.569977187,7.47E-05,6.18E-06,-6.18E-06,-0.000105132
1636988965,5,0,0.25096637,0.848518372,0.310354501,0.056440357,0.931656539,0.734683871,0.087532625,0.796106696,0.720927715,-0.08948905,0.863090932,0.707523465,-0.03634797,0.826360703,0.480195373,0.147611052,0.783154786,0.399798393,0.202369764,1.000222087,0.761844277,0.344793051,1.024929404,0.533524215,0.375426084,0.933802009,0.303383201,0.140009612,1.156583309,0.363658667,0.060663521,0.96655333,0.862577856,0.175873622,0.915034175,0.946684182,-0.08173316,0.929438531,0.814483285,0.038526088,0.89088583,0.602342308,0.272904634,0.888553798,0.596007228,0.20306021,1.00366807,0.910672426,0.347567946,1.1177212,0.771013737,0.367513955,0.935055912,0.628450096,0.140009612,1.156583309,0.363658667,0.060298119,0.965678215,0.864875495,0.10018678,0.791922033,0.847158194,-0.096480794,0.891523719,0.835487187,-0.036918525,0.850687087,0.578565538,0.272000819,0.776997268,0.443395287,0.217077032,1.039832711,0.894263804,0.385094553,1.172440886,0.731884241,0.427589744,1.045850158,0.409067839,0,0,0,0,0,0.337000012,0.101073079,0.18464683,0.337172419,0.229755193,0.419731647,0.337371945,0.313542634,0.572799921,0.337502927,0.380764633,0.695605457,0.33760801,1.069962303,1.569977187,7.47E-05,6.18E-06,-6.18E-06,-0.000105132
1636988965,5,0,0.25096637,0.848518372,0.310354501,0.056440357,0.931656539,0.734683871,0.087532625,0.796106696,0.720927715,-0.08948905,0.863090932,0.707523465,-0.03634797,0.826360703,0.480195373,0.147611052,0.783154786,0.399798393,0.202369764,1.000222087,0.761844277,0.344793051,1.024929404,0.533524215,0.375426084,0.933802009,0.303383201,0.140009612,1.156583309,0.363658667,0.060663521,0.96655333,0.862577856,0.175873622,0.915034175,0.946684182,-0.08173316,0.929438531,0.814483285,0.038526088,0.89088583,0.602342308,0.272904634,0.888553798,0.596007228,0.20306021,1.00366807,0.910672426,0.347567946,1.1177212,0.771013737,0.367513955,0.935055912,0.628450096,0.140009612,1.156583309,0.363658667,0.060298119,0.965678215,0.864875495,0.100157566,0.791906953,0.847240508,-0.096696153,0.891913772,0.835655689,-0.036685616,0.850435436,0.578941286,0.272505641,0.777816534,0.443813086,0.217292383,1.039442658,0.894095302,0.385309905,1.172050834,0.731715679,0.428216368,1.044412374,0.409366578,0,0,0,0,0,0.337000012,0.101073079,0.18464683,0.337172419,0.229755193,0.419731647,0.337371945,0.313542634,0.572799921,0.337502927,0.380764633,0.695605457,0.33760801,1.069962303,1.569977187,7.47E-05,6.18E-06,-6.18E-06,-0.000105132
1636988965,5,0,0.25096637,0.848518372,0.310354501,0.056440357,0.931656539,0.734683871,0.087532625,0.796106696,0.720927715,-0.08948905,0.863090932,0.707523465,-0.03634797,0.826360703,0.480195373,0.147611052,0.783154786,0.399798393,0.202369764,1.000222087,0.761844277,0.344793051,1.024929404,0.533524215,0.375426084,0.933802009,0.303383201,0.151007295,1.18374896,0.355403453,0.059988182,0.959526658,0.854328036,0.162829578,0.902572036,0.937323213,-0.089845873,0.89819175,0.796888232,0.043986496,0.860497653,0.582580507,0.285608143,0.899107099,0.610217988,0.209822237,1.020861506,0.91176784,0.334270507,1.086795688,0.74670285,0.351459056,0.901707828,0.604586661,0.151007295,1.18374896,0.355403453,0.06200397,0.96449244,0.843278408,0.101863421,0.790721238,0.82564342,-0.094990298,0.890727997,0.814058661,-0.034979761,0.849249661,0.557344198,0.274211496,0.776630819,0.422216058,0.218998238,1.038256884,0.872498214,0.373090088,1.11989665,0.668114781,0.415996522,0.992258251,0.34576562,0,0,0,0,0,0.337000012,0.101073079,0.18464683,0.337172419,0.229755193,0.419731647,0.337371945,0.313542634,0.572799921,0.337502927,0.380764633,0.695605457,0.33760801,1.069962303,1.569977187,7.47E-05,6.18E-06,-6.18E-06,-0.000105132
1636988965,5,0,0.25096637,0.848518372,0.310354501,0.056440357,0.931656539,0.734683871,0.087532625,0.796106696,0.720927715,-0.08948905,0.863090932,0.707523465,-0.03634797,0.826360703,0.480195373,0.147611052,0.783154786,0.399798393,0.202369764,1.000222087,0.761844277,0.344793051,1.024929404,0.533524215,0.375426084,0.933802009,0.303383201,0.151007295,1.18374896,0.355403453,0.059988182,0.959526658,0.854328036,0.162829578,0.902572036,0.937323213,-0.089845873,0.89819175,0.796888232,0.043986496,0.860497653,0.582580507,0.285608143,0.899107099,0.610217988,0.209822237,1.020861506,0.91176784,0.334270507,1.086795688,0.74670285,0.351459056,0.901707828,0.604586661,0.151007295,1.18374896,0.355403453,0.06200397,0.96449244,0.843278408,0.101863421,0.790721238,0.82564342,-0.094990298,0.890727997,0.814058661,-0.034979761,0.849249661,0.557344198,0.274211496,0.776630819,0.422216058,0.218998238,1.038256884,0.872498214,0.373090088,1.11989665,0.668114781,0.415996522,0.992258251,0.34576562,0,0,0,0,0,0.337000012,0.101073079,0.18464683,0.337172419,0.229755193,0.419731647,0.337371945,0.313542634,0.572799921,0.337502927,0.380764633,0.695605457,0.33760801,1.069962303,1.569977187,7.47E-05,6.18E-06,-6.18E-06,-0.000105132
1636988965,5,0,0.254191399,0.854009867,0.302449197,0.061274841,0.92196703,0.730170727,0.072164528,0.804568529,0.722536564,-0.087932087,0.860770345,0.706431985,-0.026950678,0.812014222,0.475130469,0.158722088,0.763522148,0.393599153,0.210481778,0.983163774,0.753909409,0.353922278,1.040820241,0.532649696,0.364669114,0.960626423,0.309818566,0.151007295,1.18374896,0.355403453,0.059988182,0.959526658,0.854328036,0.162829578,0.902572036,0.937323213,-0.089845873,0.89819175,0.796888232,0.043986496,0.860497653,0.582580507,0.285608143,0.899107099,0.610217988,0.209822237,1.020861506,0.91176784,0.334270507,1.086795688,0.74670285,0.351459056,0.901707828,0.604586661,0.151007295,1.18374896,0.355403453,0.06200397,0.96449244,0.843278408,0.078516401,0.78647691,0.83170253,-0.099008068,0.898453951,0.817661524,-0.032342575,0.845153213,0.564800382,0.275020838,0.764879227,0.429833114,0.223016009,1.030531049,0.868895352,0.377107859,1.112170815,0.664511859,0.392944574,0.993995726,0.336144149,0,0,0,0,0,0.337000012,0.101073079,0.18464683,0.337172419,0.229755193,0.419731647,0.337371945,0.313542634,0.572799921,0.337502927,0.380764633,0.695605457,0.33760801,1.069962303,1.569972128,7.47E-05,6.18E-06,-6.18E-06,-0.000105132
1636988965,5,0,0.254191399,0.854009867,0.302449197,0.061274841,0.92196703,0.730170727,0.072164528,0.804568529,0.722536564,-0.087932087,0.860770345,0.706431985,-0.026950678,0.812014222,0.475130469,0.158722088,0.763522148,0.393599153,0.210481778,0.983163774,0.753909409,0.353922278,1.040820241,0.532649696,0.364669114,0.960626423,0.309818566,0.151007295,1.18374896,0.355403453,0.059988182,0.959526658,0.854328036,0.162829578,0.902572036,0.937323213,-0.089845873,0.89819175,0.796888232,0.043986496,0.860497653,0.582580507,0.285608143,0.899107099,0.610217988,0.209822237,1.020861506,0.91176784,0.334270507,1.086795688,0.74670285,0.351459056,0.901707828,0.604586661,0.151007295,1.18374896,0.355403453,0.06200397,0.96449244,0.843278408,0.078516401,0.78647691,0.83170253,-0.099008068,0.898453951,0.817661524,-0.032342575,0.845153213,0.564800382,0.275020838,0.764879227,0.429833114,0.223016009,1.030531049,0.868895352,0.377107859,1.112170815,0.664511859,0.392944574,0.993995726,0.336144149,0,0,0,0,0,0.337000012,0.101073079,0.18464683,0.337172419,0.229755193,0.419731647,0.337371945,0.313542634,0.572799921,0.337502927,0.380764633,0.695605457,0.33760801,1.069962303,1.569972128,7.47E-05,6.18E-06,-6.18E-06,-0.000105132
1636988965,5,0,0.254191399,0.854009867,0.302449197,0.061274841,0.92196703,0.730170727,0.072164528,0.804568529,0.722536564,-0.087932087,0.860770345,0.706431985,-0.026950678,0.812014222,0.475130469,0.158722088,0.763522148,0.393599153,0.210481778,0.983163774,0.753909409,0.353922278,1.040820241,0.532649696,0.364669114,0.960626423,0.309818566,0.138910741,1.164388537,0.365228385,0.059666995,0.958059371,0.853511989,0.170190409,0.92168045,0.949399292,-0.090853654,0.894310296,0.79470253,0.028753635,0.860821545,0.588288188,0.268861324,0.897537649,0.607120991,0.210187644,1.021808505,0.912321508,0.253057688,0.897983253,0.604976237,0.284168243,0.810067177,0.535216689,0.138910741,1.164388537,0.365228385,0.058742125,0.955651224,0.859210849,0.075254552,0.777635694,0.847634971,-0.102269918,0.889612734,0.833593965,-0.035604421,0.836311996,0.580732822,0.271759003,0.75603801,0.445765555,0.219754159,1.021689773,0.884827793,0.362530261,1.07907927,0.664592922,0.378366977,0.960904241,0.336225212,0,0,0,0,0,0.337000012,0.101073079,0.18464683,0.337173492,0.229755193,0.419731647,0.3373757,0.313542634,0.572799921,0.33750844,0.380764633,0.695605457,0.337614924,1.069962303,1.569972128,6.97E-05,6.18E-06,-6.18E-06,-0.000105132
1636988965,5,0,0.249525622,0.858976364,0.29756707,0.057894368,0.928837359,0.733369529,0.076327235,0.797650814,0.719116569,-0.088710509,0.861930549,0.706977725,-0.035906389,0.825686514,0.479957342,0.135308608,0.787106693,0.397521764,0.204499245,0.995744228,0.759761333,0.340230286,1.060753703,0.549439549,0.358206272,0.976742744,0.31368497,0.138910741,1.164388537,0.365228385,0.059666995,0.958059371,0.853511989,0.170190409,0.92168045,0.949399292,-0.090853654,0.894310296,0.79470253,0.028753635,0.860821545,0.588288188,0.268861324,0.897537649,0.607120991,0.210187644,1.021808505,0.912321508,0.253057688,0.897983253,0.604976237,0.284168243,0.810067177,0.535216689,0.138910741,1.164388537,0.365228385,0.058742125,0.955651224,0.859210849,0.082700193,0.779059112,0.840841711,-0.099510677,0.884197414,0.831057906,-0.038968127,0.841974497,0.574589908,0.266116142,0.772127926,0.429065347,0.216994926,1.027105093,0.887363851,0.358237207,1.093607306,0.668708801,0.382331163,0.976455331,0.340476602,0,0,0,0,0,0.337000012,0.101073079,0.18464683,0.337173492,0.229755193,0.419731647,0.3373757,0.313542634,0.572799921,0.33750844,0.380764633,0.695605457,0.337614924,1.069962303,1.569972128,6.97E-05,6.18E-06,-6.18E-06,-0.000105132
