UF-SAMM-Lab/NSF_project_archive_data/MSEC_2022/skeleton_fusion_data/data_files/reject/dynamic/location_test_2021_11_15_09_31_13_OpenPose.csv
Time,Test Joint,Touch Active,H1-Pelvis-x,H1-Pelvis-y,H1-Pelvis-z,H1-Spine-x,H1-Spine-y,H1-Spine-z,H1-Head-x,H1-Head-y,H1-Head-z,H1-R-Shoulder-x,H1-R-Shoulder-y,H1-R-Shoulder-z,H1-R-Elbow-x,H1-R-Elbow-y,H1-R-Elbow-z,H1-R-Wrist-x,H1-R-Wrist-y,H1-R-Wrist-z,H1-L-Shoulder-x,H1-L-Shoulder-y,H1-L-Shoulder-z,H1-L-Elbow-x,H1-L-Elbow-y,H1-L-Elbow-z,H1-L-Wrist-x,H1-L-Wrist-y,H1-L-Wrist-z,H2-Pelvis-x,H2-Pelvis-y,H2-Pelvis-z,H2-Spine-x,H2-Spine-y,H2-Spine-z,H2-Head-x,H2-Head-y,H2-Head-z,H2-R-Shoulder-x,H2-R-Shoulder-y,H2-R-Shoulder-z,H2-R-Elbow-x,H2-R-Elbow-y,H2-R-Elbow-z,H2-R-Wrist-x,H2-R-Wrist-y,H2-R-Wrist-z,H2-L-Shoulder-x,H2-L-Shoulder-y,H2-L-Shoulder-z,H2-L-Elbow-x,H2-L-Elbow-y,H2-L-Elbow-z,H2-L-Wrist-x,H2-L-Wrist-y,H2-L-Wrist-z,HC-Pelvis-x,HC-Pelvis-y,HC-Pelvis-z,HC-Spine-x,HC-Spine-y,HC-Spine-z,HC-Head-x,HC-Head-y,HC-Head-z,HC-R-Shoulder-x,HC-R-Shoulder-y,HC-R-Shoulder-z,HC-R-Elbow-x,HC-R-Elbow-y,HC-R-Elbow-z,HC-R-Wrist-x,HC-R-Wrist-y,HC-R-Wrist-z,HC-L-Shoulder-x,HC-L-Shoulder-y,HC-L-Shoulder-z,HC-L-Elbow-x,HC-L-Elbow-y,HC-L-Elbow-z,HC-L-Wrist-x,HC-L-Wrist-y,HC-L-Wrist-z,Robot-Base(x),Robot-Base(y),Robot-Base(z),Robot-J2(x),Robot-J2(y),Robot-J2(z),Robot-J3(x),Robot-J3(y),Robot-J3(z),Robot-J5(x),Robot-J5(y),Robot-J5(z),Robot-J6(x),Robot-J6(y),Robot-J6(z),Robot-EE(x),Robot-EE(y),Robot-EE(z),Robot-J1-angle,Robot-J2-angle,Robot-J3-angle,Robot-J4-angle,Robot-J5-angle,Robot-J6-angle
1636986673.554404,5.0,0.0,0.015854984521865845,1.132788896560669,0.23926596343517303,-0.06835857778787613,0.9251760840415955,0.684977114200592,0.03390200808644295,0.8087102174758911,0.7040035128593445,-0.23681136965751648,0.8618992567062378,0.6566703915596008,-0.4132362902164459,0.806003212928772,0.5103477835655212,-0.38349708914756775,0.6424108147621155,0.21913927793502808,0.10009422898292542,0.9884529113769531,0.7132838368415833,0.25280436873435974,1.0468803644180298,0.5599719882011414,0.4321051239967346,1.0080064535140991,0.33441096544265747,-0.1292213648557663,0.6695430278778076,0.17384928464889526,-0.0665842741727829,0.9108983278274536,0.7850436568260193,0.11286183446645737,0.9427286386489868,0.9069008231163025,-0.2330108880996704,0.8285344839096069,0.744201123714447,-0.4046339690685272,0.7903830409049988,0.5669461488723755,-0.4246312379837036,0.7311462163925171,0.30800098180770874,0.09984234720468521,0.9932621121406555,0.8258861303329468,0.3245845437049866,1.1691718101501465,0.7525767087936401,0.5357049107551575,1.1558911800384521,0.5773257613182068,0.015854984521865845,1.132788896560669,0.23926596343517303,-0.07568196207284927,0.9071216583251953,0.7237371206283569,0.07095865905284882,0.9331328868865967,0.8233169913291931,-0.2296553999185562,0.8309208750724792,0.685950756072998,-0.413115918636322,0.7901380062103271,0.4964698553085327,-0.38250574469566345,0.6217544078826904,0.19673271477222443,0.07829147577285767,0.9833224415779114,0.7615234851837158,0.2832047939300537,1.1437116861343384,0.6946821212768555,0.49863699078559875,1.0970042943954468,0.4236676096916199,0.0,0.0,0.0,0.0,0.0,0.3370000123977661,-0.1006649062037468,0.1848696768283844,0.33717241883277893,-0.2288273423910141,0.420238196849823,0.337399959564209,-0.3122763931751251,0.5734912157058716,0.3375362455844879,-0.3792269229888916,0.6964449286460876,0.33764559030532837,2.0694211307525636,1.5699771869659425,-2.987710584420711e-05,-1.8552719213766977e-05,6.802663508569821e-05,7.421087685506791e-05
1636986673.5847673,5.0,0.0,0.012946221977472305,1.1386889219284058,0.24043069779872894,-0.07523290812969208,0.9263584017753601,0.6839575171470642,0.03390200808644295,0.8087102174758911,0.7040035128593445,-0.2429545670747757,0.8700678944587708,0.6602874994277954,-0.41285422444343567,0.8055667877197266,0.5101845264434814,-0.3689783215522766,0.6349003911018372,0.20731957256793976,0.09248875826597214,0.9826489090919495,0.7076275944709778,0.25620031356811523,1.0391523838043213,0.55723637342453,0.42295849323272705,1.0079419612884521,0.3304157257080078,-0.1292213648557663,0.6695430278778076,0.17384928464889526,-0.0665842741727829,0.9108983278274536,0.7850436568260193,0.11286183446645737,0.9427286386489868,0.9069008231163025,-0.2330108880996704,0.8285344839096069,0.744201123714447,-0.4046339690685272,0.7903830409049988,0.5669461488723755,-0.4246312379837036,0.7311462163925171,0.30800098180770874,0.09984234720468521,0.9932621121406555,0.8258861303329468,0.3245845437049866,1.1691718101501465,0.7525767087936401,0.5357049107551575,1.1558911800384521,0.5773257613182068,0.012946221977472305,1.1386889219284058,0.24043069779872894,-0.08276232331991196,0.9082279801368713,0.7218292951583862,0.06387829780578613,0.9342392086982727,0.8214091658592224,-0.2367357611656189,0.8320271968841553,0.6840428709983826,-0.4201962947845459,0.7912443280220032,0.4945620000362396,-0.3769769072532654,0.6231316328048706,0.19622902572155,0.07121111452579498,0.9844287633895874,0.7596156597137451,0.2761244475841522,1.1448180675506592,0.6927742958068848,0.48179519176483154,1.1063247919082642,0.4130256772041321,0.0,0.0,0.0,0.0,0.0,0.3370000123977661,-0.1006649062037468,0.1848696768283844,0.33717241883277893,-0.2288273423910141,0.420238196849823,0.33739861845970154,-0.3122763931751251,0.5734912157058716,0.3375340402126312,-0.3792269229888916,0.6964449286460876,0.33764269948005676,2.0694211307525636,1.5699771869659425,-2.4897587526356802e-05,-1.8552719213766977e-05,6.802663508569821e-05,7.421087685506791e-05
1636986673.5874076,5.0,0.0,0.012946221977472305,1.1386889219284058,0.24043069779872894,-0.07523290812969208,0.9263584017753601,0.6839575171470642,0.03390200808644295,0.8087102174758911,0.7040035128593445,-0.2429545670747757,0.8700678944587708,0.6602874994277954,-0.41285422444343567,0.8055667877197266,0.5101845264434814,-0.3689783215522766,0.6349003911018372,0.20731957256793976,0.09248875826597214,0.9826489090919495,0.7076275944709778,0.25620031356811523,1.0391523838043213,0.55723637342453,0.42295849323272705,1.0079419612884521,0.3304157257080078,-0.1292213648557663,0.6695430278778076,0.17384928464889526,-0.0665842741727829,0.9108983278274536,0.7850436568260193,0.11286183446645737,0.9427286386489868,0.9069008231163025,-0.2330108880996704,0.8285344839096069,0.744201123714447,-0.4046339690685272,0.7903830409049988,0.5669461488723755,-0.4246312379837036,0.7311462163925171,0.30800098180770874,0.09984234720468521,0.9932621121406555,0.8258861303329468,0.3245845437049866,1.1691718101501465,0.7525767087936401,0.5357049107551575,1.1558911800384521,0.5773257613182068,0.012946221977472305,1.1386889219284058,0.24043069779872894,-0.08276232331991196,0.9082279801368713,0.7218292951583862,0.06387829780578613,0.9342392086982727,0.8214091658592224,-0.2367357611656189,0.8320271968841553,0.6840428709983826,-0.4201962947845459,0.7912443280220032,0.4945620000362396,-0.3769769072532654,0.6231316328048706,0.19622902572155,0.07121111452579498,0.9844287633895874,0.7596156597137451,0.2761244475841522,1.1448180675506592,0.6927742958068848,0.48179519176483154,1.1063247919082642,0.4130256772041321,0.0,0.0,0.0,0.0,0.0,0.3370000123977661,-0.1006649062037468,0.1848696768283844,0.33717241883277893,-0.2288273423910141,0.420238196849823,0.33739861845970154,-0.3122763931751251,0.5734912157058716,0.3375340402126312,-0.3792269229888916,0.6964449286460876,0.33764269948005676,2.0694211307525636,1.5699771869659425,-2.4897587526356802e-05,-1.8552719213766977e-05,6.802663508569821e-05,7.421087685506791e-05
1636986673.617767,5.0,0.0,0.012946221977472305,1.1386889219284058,0.24043069779872894,-0.07523290812969208,0.9263584017753601,0.6839575171470642,0.03390200808644295,0.8087102174758911,0.7040035128593445,-0.2429545670747757,0.8700678944587708,0.6602874994277954,-0.41285422444343567,0.8055667877197266,0.5101845264434814,-0.3689783215522766,0.6349003911018372,0.20731957256793976,0.09248875826597214,0.9826489090919495,0.7076275944709778,0.25620031356811523,1.0391523838043213,0.55723637342453,0.42295849323272705,1.0079419612884521,0.3304157257080078,-0.12129855901002884,0.6821287274360657,0.1730361431837082,-0.05513906851410866,0.9238711595535278,0.7891620993614197,0.103620246052742,0.9170893430709839,0.9000221490859985,-0.2233801931142807,0.8405293822288513,0.7521252036094666,-0.4122692346572876,0.7817907333374023,0.5618164539337158,-0.42545461654663086,0.7229554653167725,0.305154412984848,0.11310206353664398,1.0072128772735596,0.8261989951133728,0.3154365122318268,1.1469264030456543,0.741980254650116,0.5519234538078308,1.2062267065048218,0.5962991118431091,0.012946221977472305,1.1386889219284058,0.24043069779872894,-0.08276232331991196,0.9082279801368713,0.7218292951583862,0.0640343725681305,0.9019572138786316,0.8243359327316284,-0.23740622401237488,0.8316218852996826,0.6877857446670532,-0.421054869890213,0.7745128273963928,0.5027567148208618,-0.3778354823589325,0.6064001321792603,0.2044237107038498,0.07188156992197037,0.9848340749740601,0.7558728456497192,0.2810352146625519,1.129256248474121,0.6688157320022583,0.4867059886455536,1.090762972831726,0.3890671133995056,0.0,0.0,0.0,0.0,0.0,0.3370000123977661,-0.1006649062037468,0.1848696768283844,0.33717241883277893,-0.2288273423910141,0.420238196849823,0.33739861845970154,-0.3122763931751251,0.5734912157058716,0.3375340402126312,-0.3792269229888916,0.6964449286460876,0.33764269948005676,2.0694211307525636,1.5699771869659425,-2.4897587526356802e-05,-1.8552719213766977e-05,6.802663508569821e-05,7.421087685506791e-05
1636986673.6204038,5.0,0.0,0.012946221977472305,1.1386889219284058,0.24043069779872894,-0.07523290812969208,0.9263584017753601,0.6839575171470642,0.03390200808644295,0.8087102174758911,0.7040035128593445,-0.2429545670747757,0.8700678944587708,0.6602874994277954,-0.41285422444343567,0.8055667877197266,0.5101845264434814,-0.3689783215522766,0.6349003911018372,0.20731957256793976,0.09248875826597214,0.9826489090919495,0.7076275944709778,0.25620031356811523,1.0391523838043213,0.55723637342453,0.42295849323272705,1.0079419612884521,0.3304157257080078,-0.12129855901002884,0.6821287274360657,0.1730361431837082,-0.05513906851410866,0.9238711595535278,0.7891620993614197,0.103620246052742,0.9170893430709839,0.9000221490859985,-0.2233801931142807,0.8405293822288513,0.7521252036094666,-0.4122692346572876,0.7817907333374023,0.5618164539337158,-0.42545461654663086,0.7229554653167725,0.305154412984848,0.11310206353664398,1.0072128772735596,0.8261989951133728,0.3154365122318268,1.1469264030456543,0.741980254650116,0.5519234538078308,1.2062267065048218,0.5962991118431091,0.012946221977472305,1.1386889219284058,0.24043069779872894,-0.08276232331991196,0.9082279801368713,0.7218292951583862,0.0640343725681305,0.9019572138786316,0.8243359327316284,-0.23740622401237488,0.8316218852996826,0.6877857446670532,-0.421054869890213,0.7745128273963928,0.5027567148208618,-0.3778354823589325,0.6064001321792603,0.2044237107038498,0.07188156992197037,0.9848340749740601,0.7558728456497192,0.2810352146625519,1.129256248474121,0.6688157320022583,0.4867059886455536,1.090762972831726,0.3890671133995056,0.0,0.0,0.0,0.0,0.0,0.3370000123977661,-0.1006649062037468,0.1848696768283844,0.33717241883277893,-0.2288273423910141,0.420238196849823,0.33739861845970154,-0.3122763931751251,0.5734912157058716,0.3375340402126312,-0.3792269229888916,0.6964449286460876,0.33764269948005676,2.0694211307525636,1.5699771869659425,-2.4897587526356802e-05,-1.8552719213766977e-05,6.802663508569821e-05,7.421087685506791e-05
1636986673.650785,5.0,0.0,0.02144709601998329,1.1358543634414673,0.22901830077171326,-0.07768362015485764,0.9248819351196289,0.6888046860694885,0.03495020791888237,0.8070248365402222,0.7031897902488708,-0.24763503670692444,0.8667027354240417,0.6697999238967896,-0.40796348452568054,0.7999802231788635,0.5080944299697876,-0.3692936897277832,0.6352353692054749,0.20739483833312988,0.09226778894662857,0.9830610752105713,0.7078095078468323,0.2532288730144501,1.0459144115447998,0.5596300959587097,0.4231184422969818,1.0074998140335083,0.33030757308006287,-0.12129855901002884,0.6821287274360657,0.1730361431837082,-0.05513906851410866,0.9238711595535278,0.7891620993614197,0.103620246052742,0.9170893430709839,0.9000221490859985,-0.2233801931142807,0.8405293822288513,0.7521252036094666,-0.4122692346572876,0.7817907333374023,0.5618164539337158,-0.42545461654663086,0.7229554653167725,0.305154412984848,0.11310206353664398,1.0072128772735596,0.8261989951133728,0.3154365122318268,1.1469264030456543,0.741980254650116,0.5519234538078308,1.2062267065048218,0.5962991118431091,0.02144709601998329,1.1358543634414673,0.22901830077171326,-0.08282452821731567,0.9139409065246582,0.7126491665840149,0.06397217512130737,0.9076701402664185,0.8151558041572571,-0.237468421459198,0.8373348116874695,0.6786056160926819,-0.42111706733703613,0.7802257537841797,0.4935765862464905,-0.3824349641799927,0.6154284477233887,0.19278115034103394,0.07181936502456665,0.9905470013618469,0.7466927170753479,0.28097301721572876,1.1349691152572632,0.659635603427887,0.4870704710483551,1.0883674621582031,0.38143855333328247,0.0,0.0,0.0,0.0,0.0,0.3370000123977661,-0.1006649062037468,0.1848696768283844,0.33717241883277893,-0.2288273423910141,0.420238196849823,0.33739861845970154,-0.3122763931751251,0.5734912157058716,0.3375340402126312,-0.3792269229888916,0.6964449286460876,0.33764269948005676,2.0694211307525636,1.5699771869659425,-2.4897587526356802e-05,-1.8552719213766977e-05,6.802663508569821e-05,7.421087685506791e-05
1636986673.6534073,5.0,0.0,0.02144709601998329,1.1358543634414673,0.22901830077171326,-0.07768362015485764,0.9248819351196289,0.6888046860694885,0.03495020791888237,0.8070248365402222,0.7031897902488708,-0.24763503670692444,0.8667027354240417,0.6697999238967896,-0.40796348452568054,0.7999802231788635,0.5080944299697876,-0.3692936897277832,0.6352353692054749,0.20739483833312988,0.09226778894662857,0.9830610752105713,0.7078095078468323,0.2532288730144501,1.0459144115447998,0.5596300959587097,0.4231184422969818,1.0074998140335083,0.33030757308006287,-0.12129855901002884,0.6821287274360657,0.1730361431837082,-0.05513906851410866,0.9238711595535278,0.7891620993614197,0.103620246052742,0.9170893430709839,0.9000221490859985,-0.2233801931142807,0.8405293822288513,0.7521252036094666,-0.4122692346572876,0.7817907333374023,0.5618164539337158,-0.42545461654663086,0.7229554653167725,0.305154412984848,0.11310206353664398,1.0072128772735596,0.8261989951133728,0.3154365122318268,1.1469264030456543,0.741980254650116,0.5519234538078308,1.2062267065048218,0.5962991118431091,0.02144709601998329,1.1358543634414673,0.22901830077171326,-0.08282452821731567,0.9139409065246582,0.7126491665840149,0.06397217512130737,0.9076701402664185,0.8151558041572571,-0.237468421459198,0.8373348116874695,0.6786056160926819,-0.42111706733703613,0.7802257537841797,0.4935765862464905,-0.3824349641799927,0.6154284477233887,0.19278115034103394,0.07181936502456665,0.9905470013618469,0.7466927170753479,0.28097301721572876,1.1349691152572632,0.659635603427887,0.4870704710483551,1.0883674621582031,0.38143855333328247,0.0,0.0,0.0,0.0,0.0,0.3370000123977661,-0.1006649062037468,0.1848696768283844,0.33717241883277893,-0.2288273423910141,0.420238196849823,0.33739861845970154,-0.3122763931751251,0.5734912157058716,0.3375340402126312,-0.3792269229888916,0.6964449286460876,0.33764269948005676,2.0694211307525636,1.5699771869659425,-2.4897587526356802e-05,-1.8552719213766977e-05,6.802663508569821e-05,7.421087685506791e-05
1636986673.6838186,5.0,0.0,0.02144709601998329,1.1358543634414673,0.22901830077171326,-0.07768362015485764,0.9248819351196289,0.6888046860694885,0.03495020791888237,0.8070248365402222,0.7031897902488708,-0.24763503670692444,0.8667027354240417,0.6697999238967896,-0.40796348452568054,0.7999802231788635,0.5080944299697876,-0.3692936897277832,0.6352353692054749,0.20739483833312988,0.09226778894662857,0.9830610752105713,0.7078095078468323,0.2532288730144501,1.0459144115447998,0.5596300959587097,0.4231184422969818,1.0074998140335083,0.33030757308006287,-0.12384512275457382,0.6638401746749878,0.17646078765392303,-0.05247620493173599,0.9386535286903381,0.8014172315597534,0.10151532292366028,0.9111279249191284,0.8963919281959534,-0.21785694360733032,0.8706708550453186,0.7769514918327332,-0.4051714539527893,0.7854042053222656,0.564588189125061,-0.42494791746139526,0.7279959321022034,0.306906133890152,0.11290453374385834,1.006636142730713,0.8258830308914185,0.32781046628952026,1.1990244388580322,0.756111741065979,0.521281898021698,1.1455641984939575,0.5630569458007812,0.02144709601998329,1.1358543634414673,0.22901830077171326,-0.08282452821731567,0.9139409065246582,0.7126491665840149,0.06792572885751724,0.8869947195053101,0.805624783039093,-0.24401704967021942,0.8476799130439758,0.6888030171394348,-0.4130578637123108,0.770731508731842,0.4971570670604706,-0.37437576055526733,0.605934202671051,0.19636163115501404,0.07836800068616867,0.9802019000053406,0.736495316028595,0.27293044328689575,1.1543782949447632,0.6733288168907166,0.4790278971195221,1.1077765226364136,0.3951317369937897,0.0,0.0,0.0,0.0,0.0,0.3370000123977661,-0.1006649062037468,0.1848696768283844,0.33717241883277893,-0.2288273423910141,0.420238196849823,0.33739861845970154,-0.3122763931751251,0.5734912157058716,0.3375340402126312,-0.3792269229888916,0.6964449286460876,0.33764269948005676,2.0694211307525636,1.5699771869659425,-2.4897587526356802e-05,-1.8552719213766977e-05,6.802663508569821e-05,7.421087685506791e-05
1636986673.6863997,5.0,0.0,0.023197824135422707,1.1511012315750122,0.22883598506450653,-0.07493145763874054,0.930237352848053,0.6927139759063721,0.033223751932382584,0.8098008036613464,0.7045300006866455,-0.24595288932323456,0.8644776344299316,0.6688013076782227,-0.41843289136886597,0.8119391798973083,0.5125686526298523,-0.38191452622413635,0.6407380104064941,0.2187529057264328,0.09608998149633408,0.9959970116615295,0.7166266441345215,0.25752100348472595,1.0361469984054565,0.5561724305152893,0.4208385646343231,1.0138007402420044,0.33184877038002014,-0.12384512275457382,0.6638401746749878,0.17646078765392303,-0.05247620493173599,0.9386535286903381,0.8014172315597534,0.10151532292366028,0.9111279249191284,0.8963919281959534,-0.21785694360733032,0.8706708550453186,0.7769514918327332,-0.4051714539527893,0.7854042053222656,0.564588189125061,-0.42494791746139526,0.7279959321022034,0.306906133890152,0.11290453374385834,1.006636142730713,0.8258830308914185,0.32781046628952026,1.1990244388580322,0.756111741065979,0.521281898021698,1.1455641984939575,0.5630569458007812,0.02144709601998329,1.1358543634414673,0.22901830077171326,-0.08282452821731567,0.9139409065246582,0.7126491665840149,0.06792572885751724,0.8869947195053101,0.805624783039093,-0.24401704967021942,0.8476799130439758,0.6888030171394348,-0.4130578637123108,0.770731508731842,0.4971570670604706,-0.37437576055526733,0.605934202671051,0.19636163115501404,0.07836800068616867,0.9802019000053406,0.736495316028595,0.27293044328689575,1.1543782949447632,0.6733288168907166,0.4790278971195221,1.1077765226364136,0.3951317369937897,0.0,0.0,0.0,0.0,0.0,0.3370000123977661,-0.1006649062037468,0.1848696768283844,0.33717241883277893,-0.2288273423910141,0.420238196849823,0.33739861845970154,-0.3122763931751251,0.5734912157058716,0.3375340402126312,-0.3792269229888916,0.6964449286460876,0.33764269948005676,2.0694211307525636,1.5699771869659425,-2.4897587526356802e-05,-1.8552719213766977e-05,6.802663508569821e-05,7.421087685506791e-05
1636986673.7167783,5.0,0.0,0.023197824135422707,1.1511012315750122,0.22883598506450653,-0.07493145763874054,0.930237352848053,0.6927139759063721,0.033223751932382584,0.8098008036613464,0.7045300006866455,-0.24595288932323456,0.8644776344299316,0.6688013076782227,-0.41843289136886597,0.8119391798973083,0.5125686526298523,-0.38191452622413635,0.6407380104064941,0.2187529057264328,0.09608998149633408,0.9959970116615295,0.7166266441345215,0.25752100348472595,1.0361469984054565,0.5561724305152893,0.4208385646343231,1.0138007402420044,0.33184877038002014,-0.12384512275457382,0.6638401746749878,0.17646078765392303,-0.05247620493173599,0.9386535286903381,0.8014172315597534,0.10151532292366028,0.9111279249191284,0.8963919281959534,-0.21785694360733032,0.8706708550453186,0.7769514918327332,-0.4051714539527893,0.7854042053222656,0.564588189125061,-0.42494791746139526,0.7279959321022034,0.306906133890152,0.11290453374385834,1.006636142730713,0.8258830308914185,0.32781046628952026,1.1990244388580322,0.756111741065979,0.521281898021698,1.1455641984939575,0.5630569458007812,0.023197824135422707,1.1511012315750122,0.22883598506450653,-0.0785282626748085,0.9221418499946594,0.709716796875,0.07222199440002441,0.8951956629753113,0.8026924729347229,-0.23972079157829285,0.8558807969093323,0.6858706474304199,-0.408761590719223,0.7789324522018433,0.4942247271537781,-0.37190738320350647,0.6061568856239319,0.19770704209804535,0.08266425877809525,0.9884028434753418,0.7335630059242249,0.27722668647766113,1.1625791788101196,0.6703964471817017,0.482180118560791,1.1345360279083252,0.38888415694236755,0.0,0.0,0.0,0.0,0.0,0.3370000123977661,-0.1006649062037468,0.1848696768283844,0.33717241883277893,-0.2288273423910141,0.420238196849823,0.33739861845970154,-0.3122763931751251,0.5734912157058716,0.3375340402126312,-0.3792269229888916,0.6964449286460876,0.33764269948005676,2.0694211307525636,1.5699771869659425,-2.4897587526356802e-05,-1.8552719213766977e-05,6.802663508569821e-05,7.421087685506791e-05
1636986673.7194345,5.0,0.0,0.023197824135422707,1.1511012315750122,0.22883598506450653,-0.07493145763874054,0.930237352848053,0.6927139759063721,0.033223751932382584,0.8098008036613464,0.7045300006866455,-0.24595288932323456,0.8644776344299316,0.6688013076782227,-0.41843289136886597,0.8119391798973083,0.5125686526298523,-0.38191452622413635,0.6407380104064941,0.2187529057264328,0.09608998149633408,0.9959970116615295,0.7166266441345215,0.25752100348472595,1.0361469984054565,0.5561724305152893,0.4208385646343231,1.0138007402420044,0.33184877038002014,-0.15753212571144104,0.553032636642456,0.1598075032234192,-0.05739445239305496,0.9495347738265991,0.8064752817153931,0.1009138748049736,0.9094246029853821,0.895354688167572,-0.2224709391593933,0.8826435208320618,0.7742922306060791,-0.4046339690685272,0.7903830409049988,0.5669461488723755,-0.4236811399459839,0.7405970692634583,0.31128549575805664,0.10768203437328339,1.0164260864257812,0.838658332824707,0.29892778396606445,1.1502567529678345,0.74089515209198,0.510966420173645,1.161039113998413,0.5757650136947632,0.023197824135422707,1.1511012315750122,0.22883598506450653,-0.0785282626748085,0.9221418499946594,0.709716796875,0.07222199440002441,0.8951956629753113,0.8026924729347229,-0.23972079157829285,0.8558807969093323,0.6858706474304199,-0.408761590719223,0.7789324522018433,0.4942247271537781,-0.37190738320350647,0.6061568856239319,0.19770704209804535,0.08266425877809525,0.9884028434753418,0.7335630059242249,0.27722668647766113,1.1625791788101196,0.6703964471817017,0.482180118560791,1.1345360279083252,0.38888415694236755,0.0,0.0,0.0,0.0,0.0,0.3370000123977661,-0.1006649062037468,0.1848696768283844,0.33717241883277893,-0.2288273423910141,0.420238196849823,0.33739861845970154,-0.3122763931751251,0.5734912157058716,0.3375340402126312,-0.3792269229888916,0.6964449286460876,0.33764269948005676,2.0694211307525636,1.5699771869659425,-2.4897587526356802e-05,-1.8552719213766977e-05,6.802663508569821e-05,7.421087685506791e-05
1636986673.7497761,5.0,0.0,0.03008953481912613,1.1369304656982422,0.23981572687625885,-0.07979965209960938,0.9282199144363403,0.690289318561554,0.02696147933602333,0.8028298020362854,0.6984732747077942,-0.24987787008285522,0.869669497013092,0.6711314916610718,-0.40674087405204773,0.7985836267471313,0.5075719356536865,-0.38913074135780334,0.6624407768249512,0.22806590795516968,0.09027857333421707,0.9867703318595886,0.7094472050666809,0.2556343674659729,1.040440320968628,0.5576922297477722,0.4174638092517853,1.0074762105941772,0.339741587638855,-0.15753212571144104,0.553032636642456,0.1598075032234192,-0.05739445239305496,0.9495347738265991,0.8064752817153931,0.1009138748049736,0.9094246029853821,0.895354688167572,-0.2224709391593933,0.8826435208320618,0.7742922306060791,-0.4046339690685272,0.7903830409049988,0.5669461488723755,-0.4236811399459839,0.7405970692634583,0.31128549575805664,0.10768203437328339,1.0164260864257812,0.838658332824707,0.29892778396606445,1.1502567529678345,0.74089515209198,0.510966420173645,1.161039113998413,0.5757650136947632,0.023197824135422707,1.1511012315750122,0.22883598506450653,-0.0785282626748085,0.9221418499946594,0.709716796875,0.07401096820831299,0.8834933638572693,0.7953572273254395,-0.23895838856697083,0.8571333289146423,0.6784396171569824,-0.4060147702693939,0.7725239396095276,0.4882885813713074,-0.36916056275367737,0.599748432636261,0.19177089631557465,0.08190185576677322,0.9871503114700317,0.7409940361976624,0.28493615984916687,1.1292304992675781,0.6372045874595642,0.48988959193229675,1.1011873483657837,0.3556923270225525,0.0,0.0,0.0,0.0,0.0,0.3370000123977661,-0.1006649062037468,0.1848696768283844,0.33717241883277893,-0.2288273423910141,0.420238196849823,0.33739861845970154,-0.3122763931751251,0.5734912157058716,0.3375340402126312,-0.3792269229888916,0.6964449286460876,0.33764269948005676,2.0694211307525636,1.5699771869659425,-2.4897587526356802e-05,-1.8552719213766977e-05,6.802663508569821e-05,7.421087685506791e-05
1636986673.7523997,5.0,0.0,0.03008953481912613,1.1369304656982422,0.23981572687625885,-0.07979965209960938,0.9282199144363403,0.690289318561554,0.02696147933602333,0.8028298020362854,0.6984732747077942,-0.24987787008285522,0.869669497013092,0.6711314916610718,-0.40674087405204773,0.7985836267471313,0.5075719356536865,-0.38913074135780334,0.6624407768249512,0.22806590795516968,0.09027857333421707,0.9867703318595886,0.7094472050666809,0.2556343674659729,1.040440320968628,0.5576922297477722,0.4174638092517853,1.0074762105941772,0.339741587638855,-0.15753212571144104,0.553032636642456,0.1598075032234192,-0.05739445239305496,0.9495347738265991,0.8064752817153931,0.1009138748049736,0.9094246029853821,0.895354688167572,-0.2224709391593933,0.8826435208320618,0.7742922306060791,-0.4046339690685272,0.7903830409049988,0.5669461488723755,-0.4236811399459839,0.7405970692634583,0.31128549575805664,0.10768203437328339,1.0164260864257812,0.838658332824707,0.29892778396606445,1.1502567529678345,0.74089515209198,0.510966420173645,1.161039113998413,0.5757650136947632,0.03008953481912613,1.1369304656982422,0.23981572687625885,-0.07626597583293915,0.9098734259605408,0.720596969127655,0.07627324759960175,0.8712249398231506,0.8062373995780945,-0.23669609427452087,0.8448649644851685,0.6893197298049927,-0.40375250577926636,0.7602555751800537,0.4991686940193176,-0.37246349453926086,0.5936171412467957,0.1985277235507965,0.08416414260864258,0.9748819470405579,0.7518741488456726,0.2871984541416168,1.1169620752334595,0.6480847001075745,0.4928654134273529,1.0847464799880981,0.3675410747528076,0.0,0.0,0.0,0.0,0.0,0.3370000123977661,-0.1006649062037468,0.1848696768283844,0.33717241883277893,-0.2288273423910141,0.420238196849823,0.33739861845970154,-0.3122763931751251,0.5734912157058716,0.3375340402126312,-0.3792269229888916,0.6964449286460876,0.33764269948005676,2.0694211307525636,1.5699771869659425,-2.4897587526356802e-05,-1.8552719213766977e-05,6.802663508569821e-05,7.421087685506791e-05
1636986673.7827652,5.0,0.0,0.03008953481912613,1.1369304656982422,0.23981572687625885,-0.07979965209960938,0.9282199144363403,0.690289318561554,0.02696147933602333,0.8028298020362854,0.6984732747077942,-0.24987787008285522,0.869669497013092,0.6711314916610718,-0.40674087405204773,0.7985836267471313,0.5075719356536865,-0.38913074135780334,0.6624407768249512,0.22806590795516968,0.09027857333421707,0.9867703318595886,0.7094472050666809,0.2556343674659729,1.040440320968628,0.5576922297477722,0.4174638092517853,1.0074762105941772,0.339741587638855,-0.15753212571144104,0.553032636642456,0.1598075032234192,-0.05739445239305496,0.9495347738265991,0.8064752817153931,0.1009138748049736,0.9094246029853821,0.895354688167572,-0.2224709391593933,0.8826435208320618,0.7742922306060791,-0.4046339690685272,0.7903830409049988,0.5669461488723755,-0.4236811399459839,0.7405970692634583,0.31128549575805664,0.10768203437328339,1.0164260864257812,0.838658332824707,0.29892778396606445,1.1502567529678345,0.74089515209198,0.510966420173645,1.161039113998413,0.5757650136947632,0.03008953481912613,1.1369304656982422,0.23981572687625885,-0.0870918557047844,0.9143700003623962,0.7201825976371765,0.0654473751783371,0.8757215142250061,0.805823028087616,-0.24752196669578552,0.8493614792823792,0.6889054179191589,-0.414578378200531,0.7647520899772644,0.4987543225288391,-0.39505916833877563,0.6138503551483154,0.1889479160308838,0.07333827018737793,0.9793784618377686,0.7514597773551941,0.2763725817203522,1.121458649635315,0.6476703882217407,0.4831126928329468,1.0793464183807373,0.3692344129085541,0.0,0.0,0.0,0.0,0.0,0.3370000123977661,-0.1006649062037468,0.1848696768283844,0.33717241883277893,-0.2288273423910141,0.420238196849823,0.33739861845970154,-0.3122763931751251,0.5734912157058716,0.3375340402126312,-0.3792269229888916,0.6964449286460876,0.33764269948005676,2.0694211307525636,1.5699771869659425,-2.4897587526356802e-05,-1.8552719213766977e-05,6.802663508569821e-05,7.421087685506791e-05
1636986673.7853963,5.0,0.0,0.03008953481912613,1.1369304656982422,0.23981572687625885,-0.07979965209960938,0.9282199144363403,0.690289318561554,0.02696147933602333,0.8028298020362854,0.6984732747077942,-0.24987787008285522,0.869669497013092,0.6711314916610718,-0.40674087405204773,0.7985836267471313,0.5075719356536865,-0.38913074135780334,0.6624407768249512,0.22806590795516968,0.09027857333421707,0.9867703318595886,0.7094472050666809,0.2556343674659729,1.040440320968628,0.5576922297477722,0.4174638092517853,1.0074762105941772,0.339741587638855,-0.1467079371213913,0.5533149838447571,0.160456582903862,-0.06571391224861145,0.9153664708137512,0.7875284552574158,0.10241736471652985,0.9136826992034912,0.8979476094245911,-0.2312701791524887,0.8374707698822021,0.7491707801818848,-0.41308656334877014,0.7739611864089966,0.5581128001213074,-0.42444121837615967,0.7330363392829895,0.3086578845977783,0.09984234720468521,0.9932621121406555,0.8258861303329468,0.32444822788238525,1.2130497694015503,0.7520138621330261,0.5012325048446655,1.1415809392929077,0.5590957403182983,0.03008953481912613,1.1369304656982422,0.23981572687625885,-0.0870918557047844,0.9143700003623962,0.7201825976371765,0.0654473751783371,0.8757215142250061,0.805823028087616,-0.24752196669578552,0.8493614792823792,0.6889054179191589,-0.414578378200531,0.7647520899772644,0.4987543225288391,-0.39505916833877563,0.6138503551483154,0.1889479160308838,0.07333827018737793,0.9793784618377686,0.7514597773551941,0.2763725817203522,1.121458649635315,0.6476703882217407,0.4831126928329468,1.0793464183807373,0.3692344129085541,0.0,0.0,0.0,0.0,0.0,0.3370000123977661,-0.1006649062037468,0.1848696768283844,0.33717241883277893,-0.2288273423910141,0.420238196849823,0.33739861845970154,-0.3122763931751251,0.5734912157058716,0.3375340402126312,-0.3792269229888916,0.6964449286460876,0.33764269948005676,2.0694211307525636,1.5699771869659425,-2.4897587526356802e-05,-1.8552719213766977e-05,6.802663508569821e-05,7.421087685506791e-05
1636986673.8158019,5.0,0.0,0.010573603212833405,1.1439340114593506,0.2415218949317932,-0.07859649509191513,0.927571713924408,0.6899747252464294,0.02460317127406597,0.8065854907035828,0.7002807259559631,-0.2439904361963272,0.861881673336029,0.6676362156867981,-0.410256028175354,0.8025989532470703,0.5090741515159607,-0.3877704441547394,0.6469277143478394,0.2201826274394989,0.08679745346307755,0.9932616949081421,0.712313175201416,0.255068302154541,1.0417283773422241,0.5581482648849487,0.41311416029930115,1.0194025039672852,0.3427157998085022,-0.1467079371213913,0.5533149838447571,0.160456582903862,-0.06571391224861145,0.9153664708137512,0.7875284552574158,0.10241736471652985,0.9136826992034912,0.8979476094245911,-0.2312701791524887,0.8374707698822021,0.7491707801818848,-0.41308656334877014,0.7739611864089966,0.5581128001213074,-0.42444121837615967,0.7330363392829895,0.3086578845977783,0.09984234720468521,0.9932621121406555,0.8258861303329468,0.32444822788238525,1.2130497694015503,0.7520138621330261,0.5012325048446655,1.1415809392929077,0.5590957403182983,0.010573603212833405,1.1439340114593506,0.2415218949317932,-0.10016043484210968,0.9185479879379272,0.7221007943153381,0.049581851810216904,0.9170483350753784,0.8204430937767029,-0.2559399902820587,0.8452523350715637,0.6860082745552063,-0.4348050653934479,0.7827736139297485,0.49805161356925964,-0.4141041934490204,0.628107488155365,0.19018441438674927,0.055619120597839355,0.991843581199646,0.75819331407547,0.24254852533340454,1.1747629642486572,0.6967127323150635,0.44919779896736145,1.1365617513656616,0.41764602065086365,0.0,0.0,0.0,0.0,0.0,0.3370000123977661,-0.1006649062037468,0.1848696768283844,0.33717241883277893,-0.2288273423910141,0.420238196849823,0.33739861845970154,-0.3122763931751251,0.5734912157058716,0.3375340402126312,-0.3792269229888916,0.6964449286460876,0.33764269948005676,2.0694211307525636,1.5699771869659425,-2.4897587526356802e-05,-1.8552719213766977e-05,6.802663508569821e-05,7.421087685506791e-05
1636986673.818433,5.0,0.0,0.010573603212833405,1.1439340114593506,0.2415218949317932,-0.07859649509191513,0.927571713924408,0.6899747252464294,0.02460317127406597,0.8065854907035828,0.7002807259559631,-0.2439904361963272,0.861881673336029,0.6676362156867981,-0.410256028175354,0.8025989532470703,0.5090741515159607,-0.3877704441547394,0.6469277143478394,0.2201826274394989,0.08679745346307755,0.9932616949081421,0.712313175201416,0.255068302154541,1.0417283773422241,0.5581482648849487,0.41311416029930115,1.0194025039672852,0.3427157998085022,-0.1467079371213913,0.5533149838447571,0.160456582903862,-0.06571391224861145,0.9153664708137512,0.7875284552574158,0.10241736471652985,0.9136826992034912,0.8979476094245911,-0.2312701791524887,0.8374707698822021,0.7491707801818848,-0.41308656334877014,0.7739611864089966,0.5581128001213074,-0.42444121837615967,0.7330363392829895,0.3086578845977783,0.09984234720468521,0.9932621121406555,0.8258861303329468,0.32444822788238525,1.2130497694015503,0.7520138621330261,0.5012325048446655,1.1415809392929077,0.5590957403182983,0.010573603212833405,1.1439340114593506,0.2415218949317932,-0.08723346143960953,0.9129562377929688,0.7222505211830139,0.06250882893800735,0.9114565849304199,0.8205928206443787,-0.24301302433013916,0.8396605849266052,0.6861580014228821,-0.4218780994415283,0.77718186378479,0.4982013702392578,-0.3987181484699249,0.6150924563407898,0.1943543702363968,0.0685461014509201,0.9862518906593323,0.7583430409431458,0.2554754912853241,1.1691712141036987,0.6968624591827393,0.4615509510040283,1.1387544870376587,0.41641780734062195,0.0,0.0,0.0,0.0,0.0,0.3370000123977661,-0.1006649062037468,0.1848696768283844,0.33717241883277893,-0.2288273423910141,0.420238196849823,0.33739861845970154,-0.3122763931751251,0.5734912157058716,0.3375340402126312,-0.3792269229888916,0.6964449286460876,0.33764269948005676,2.0694211307525636,1.5699771869659425,-2.4897587526356802e-05,-1.8552719213766977e-05,6.802663508569821e-05,7.421087685506791e-05
1636986673.8487952,5.0,0.0,0.010573603212833405,1.1439340114593506,0.2415218949317932,-0.07859649509191513,0.927571713924408,0.6899747252464294,0.02460317127406597,0.8065854907035828,0.7002807259559631,-0.2439904361963272,0.861881673336029,0.6676362156867981,-0.410256028175354,0.8025989532470703,0.5090741515159607,-0.3877704441547394,0.6469277143478394,0.2201826274394989,0.08679745346307755,0.9932616949081421,0.712313175201416,0.255068302154541,1.0417283773422241,0.5581482648849487,0.41311416029930115,1.0194025039672852,0.3427157998085022,-0.12899889051914215,0.6402519941329956,0.1691383272409439,-0.061137933284044266,0.9140326976776123,0.7829892039299011,0.09100622683763504,0.9041724801063538,0.8907325863838196,-0.2276080697774887,0.8192355632781982,0.7402696013450623,-0.40981727838516235,0.8052789568901062,0.5729271173477173,-0.4246121346950531,0.7258127927780151,0.29952937364578247,0.10533221065998077,1.0088298320770264,0.82570880651474,0.30401238799095154,1.1850593090057373,0.7468324303627014,0.5166932344436646,1.1728092432022095,0.5714592337608337,0.010573603212833405,1.1439340114593506,0.2415218949317932,-0.08501198887825012,0.9120051264762878,0.7222394347190857,0.06473030149936676,0.9105055332183838,0.8205817341804504,-0.24079154431819916,0.8387094736099243,0.6861469745635986,-0.4196566343307495,0.7762307524681091,0.4981902837753296,-0.39606213569641113,0.6128824353218079,0.19505172967910767,0.07076756656169891,0.9853007793426514,0.7583319544792175,0.2576969563961029,1.1682201623916626,0.696851372718811,0.4636216461658478,1.1391308307647705,0.41615524888038635,0.0,0.0,0.0,0.0,0.0,0.3370000123977661,-0.1006649062037468,0.1848696768283844,0.33717241883277893,-0.2288273423910141,0.420238196849823,0.33739861845970154,-0.3122763931751251,0.5734912157058716,0.3375340402126312,-0.3792269229888916,0.6964449286460876,0.33764269948005676,2.069396767425537,1.5699771869659425,-2.4897587526356802e-05,-1.8552719213766977e-05,6.802663508569821e-05,7.421087685506791e-05
1636986673.8514142,5.0,0.0,0.010573603212833405,1.1439340114593506,0.2415218949317932,-0.07859649509191513,0.927571713924408,0.6899747252464294,0.02460317127406597,0.8065854907035828,0.7002807259559631,-0.2439904361963272,0.861881673336029,0.6676362156867981,-0.410256028175354,0.8025989532470703,0.5090741515159607,-0.3877704441547394,0.6469277143478394,0.2201826274394989,0.08679745346307755,0.9932616949081421,0.712313175201416,0.255068302154541,1.0417283773422241,0.5581482648849487,0.41311416029930115,1.0194025039672852,0.3427157998085022,-0.12899889051914215,0.6402519941329956,0.1691383272409439,-0.061137933284044266,0.9140326976776123,0.7829892039299011,0.09100622683763504,0.9041724801063538,0.8907325863838196,-0.2276080697774887,0.8192355632781982,0.7402696013450623,-0.40981727838516235,0.8052789568901062,0.5729271173477173,-0.4246121346950531,0.7258127927780151,0.29952937364578247,0.10533221065998077,1.0088298320770264,0.82570880651474,0.30401238799095154,1.1850593090057373,0.7468324303627014,0.5166932344436646,1.1728092432022095,0.5714592337608337,0.010573603212833405,1.1439340114593506,0.2415218949317932,-0.08501198887825012,0.9120051264762878,0.7222394347190857,0.06365041434764862,0.9081379771232605,0.8221430778503418,-0.23890766501426697,0.835193932056427,0.6853836178779602,-0.4251137673854828,0.785835325717926,0.5006811022758484,-0.4015192985534668,0.6224870085716248,0.19754254817962646,0.06888368725776672,0.9888163208961487,0.7590952515602112,0.2577257752418518,1.168186902999878,0.6931648850440979,0.4636504650115967,1.1390975713729858,0.41246873140335083,0.0,0.0,0.0,0.0,0.0,0.3370000123977661,-0.10066039860248566,0.18487213551998138,0.33717241883277893,-0.22881710529327393,0.4202437698841095,0.33739861845970154,-0.3122624456882477,0.5734987854957581,0.3375340402126312,-0.379209965467453,0.6964541673660278,0.33764269948005676,2.069396767425537,1.5699771869659425,-2.4897587526356802e-05,-1.8552719213766977e-05,6.802663508569821e-05,7.421087685506791e-05
1636986673.8817675,5.0,0.0,0.022832920774817467,1.1400325298309326,0.22423027455806732,-0.07974845916032791,0.9279725551605225,0.6901828646659851,0.023423999547958374,0.808463454246521,0.7011845111846924,-0.25043851137161255,0.8704111576080322,0.6714643239974976,-0.4107145071029663,0.8031226396560669,0.5092700719833374,-0.36937272548675537,0.6353193521499634,0.2074137032032013,0.09094160795211792,0.9855340123176575,0.7089013457298279,0.24964414536952972,1.0540719032287598,0.5625177621841431,0.41468483209609985,1.015095829963684,0.3416418135166168,-0.12899889051914215,0.6402519941329956,0.1691383272409439,-0.061137933284044266,0.9140326976776123,0.7829892039299011,0.09100622683763504,0.9041724801063538,0.8907325863838196,-0.2276080697774887,0.8192355632781982,0.7402696013450623,-0.40981727838516235,0.8052789568901062,0.5729271173477173,-0.4246121346950531,0.7258127927780151,0.29952937364578247,0.10533221065998077,1.0088298320770264,0.82570880651474,0.30401238799095154,1.1850593090057373,0.7468324303627014,0.5166932344436646,1.1728092432022095,0.5714592337608337,0.022832920774817467,1.1400325298309326,0.22423027455806732,-0.0760289803147316,0.9115873575210571,0.7059522867202759,0.06997263431549072,0.9021252989768982,0.8093457221984863,-0.2252216637134552,0.8266289830207825,0.6676664352416992,-0.42146942019462585,0.8115970492362976,0.4874308407306671,-0.39274531602859497,0.6469557881355286,0.18543659150600433,0.073163703083992,0.9965457320213318,0.7442381381988525,0.2658378779888153,1.1674480438232422,0.6677461862564087,0.47245049476623535,1.1324790716171265,0.3882289230823517,0.0,0.0,0.0,0.0,0.0,0.3370000123977661,-0.10066039860248566,0.18487213551998138,0.33717241883277893,-0.22881710529327393,0.4202437698841095,0.33739861845970154,-0.3122624456882477,0.5734987854957581,0.3375340402126312,-0.379209965467453,0.6964541673660278,0.33764269948005676,2.069396767425537,1.5699771869659425,-2.4897587526356802e-05,-1.8552719213766977e-05,6.802663508569821e-05,7.421087685506791e-05
1636986673.88442,5.0,0.0,0.022832920774817467,1.1400325298309326,0.22423027455806732,-0.07974845916032791,0.9279725551605225,0.6901828646659851,0.023423999547958374,0.808463454246521,0.7011845111846924,-0.25043851137161255,0.8704111576080322,0.6714643239974976,-0.4107145071029663,0.8031226396560669,0.5092700719833374,-0.36937272548675537,0.6353193521499634,0.2074137032032013,0.09094160795211792,0.9855340123176575,0.7089013457298279,0.24964414536952972,1.0540719032287598,0.5625177621841431,0.41468483209609985,1.015095829963684,0.3416418135166168,-0.12899889051914215,0.6402519941329956,0.1691383272409439,-0.061137933284044266,0.9140326976776123,0.7829892039299011,0.09100622683763504,0.9041724801063538,0.8907325863838196,-0.2276080697774887,0.8192355632781982,0.7402696013450623,-0.40981727838516235,0.8052789568901062,0.5729271173477173,-0.4246121346950531,0.7258127927780151,0.29952937364578247,0.10533221065998077,1.0088298320770264,0.82570880651474,0.30401238799095154,1.1850593090057373,0.7468324303627014,0.5166932344436646,1.1728092432022095,0.5714592337608337,0.022832920774817467,1.1400325298309326,0.22423027455806732,-0.08528891205787659,0.9215112328529358,0.7085597515106201,0.06071270629763603,0.9120491147041321,0.8119531869888306,-0.2344815880060196,0.8365527987480164,0.6702739000320435,-0.43072935938835144,0.8215209245681763,0.49003833532333374,-0.3871312141418457,0.6548248529434204,0.19096647202968597,0.06390377134084702,1.0064696073532104,0.7468456625938416,0.2565779685974121,1.177371859550476,0.6703536510467529,0.46350982785224915,1.1255857944488525,0.39369702339172363,0.0,0.0,0.0,0.0,0.0,0.3370000123977661,-0.10066039860248566,0.18487213551998138,0.33717241883277893,-0.22881710529327393,0.4202437698841095,0.33739861845970154,-0.3122624456882477,0.5734987854957581,0.3375340402126312,-0.379209965467453,0.6964541673660278,0.33764269948005676,2.069396767425537,1.5699771869659425,-2.4897587526356802e-05,-1.8552719213766977e-05,6.802663508569821e-05,7.421087685506791e-05
1636986673.914816,5.0,0.0,0.022832920774817467,1.1400325298309326,0.22423027455806732,-0.07974845916032791,0.9279725551605225,0.6901828646659851,0.023423999547958374,0.808463454246521,0.7011845111846924,-0.25043851137161255,0.8704111576080322,0.6714643239974976,-0.4107145071029663,0.8031226396560669,0.5092700719833374,-0.36937272548675537,0.6353193521499634,0.2074137032032013,0.09094160795211792,0.9855340123176575,0.7089013457298279,0.24964414536952972,1.0540719032287598,0.5625177621841431,0.41468483209609985,1.015095829963684,0.3416418135166168,-0.12762056291103363,0.6306005716323853,0.1697320193052292,-0.06833691895008087,0.9181839227676392,0.7884554862976074,0.08654351532459259,0.8913881182670593,0.8829566240310669,-0.23869574069976807,0.8366658091545105,0.747473955154419,-0.4183986186981201,0.7874295115470886,0.5634217262268066,-0.4250112473964691,0.7273659110069275,0.30668720602989197,0.10202189534902573,0.9997020363807678,0.8294370174407959,0.2967657446861267,1.166914463043213,0.7382948398590088,0.5249658226966858,1.1712876558303833,0.5630645155906677,0.022832920774817467,1.1400325298309326,0.22423027455806732,-0.08370114117860794,0.9198014140129089,0.708137035369873,0.06403970718383789,0.9052565693855286,0.8084230422973633,-0.23471680283546448,0.8380318880081177,0.6700555682182312,-0.4282533824443817,0.8119810223579407,0.488151878118515,-0.3872292637825012,0.6454669833183289,0.18861480057239532,0.0673145204782486,1.0015710592269897,0.7462184429168701,0.2598962187767029,1.1707185506820679,0.6656991839408875,0.4669443964958191,1.1218221187591553,0.38860413432121277,0.0,0.0,0.0,0.0,0.0,0.3370000123977661,-0.10066039860248566,0.18487213551998138,0.33717241883277893,-0.22881710529327393,0.4202437698841095,0.33739861845970154,-0.3122624456882477,0.5734987854957581,0.3375340402126312,-0.379209965467453,0.6964541673660278,0.33764269948005676,2.069396767425537,1.5699771869659425,-2.4897587526356802e-05,-1.8552719213766977e-05,6.802663508569821e-05,7.421087685506791e-05
1636986673.9174159,5.0,0.0,0.022832920774817467,1.1400325298309326,0.22423027455806732,-0.07974845916032791,0.9279725551605225,0.6901828646659851,0.023423999547958374,0.808463454246521,0.7011845111846924,-0.25043851137161255,0.8704111576080322,0.6714643239974976,-0.4107145071029663,0.8031226396560669,0.5092700719833374,-0.36937272548675537,0.6353193521499634,0.2074137032032013,0.09094160795211792,0.9855340123176575,0.7089013457298279,0.24964414536952972,1.0540719032287598,0.5625177621841431,0.41468483209609985,1.015095829963684,0.3416418135166168,-0.12762056291103363,0.6306005716323853,0.1697320193052292,-0.06833691895008087,0.9181839227676392,0.7884554862976074,0.08654351532459259,0.8913881182670593,0.8829566240310669,-0.23869574069976807,0.8366658091545105,0.747473955154419,-0.4183986186981201,0.7874295115470886,0.5634217262268066,-0.4250112473964691,0.7273659110069275,0.30668720602989197,0.10202189534902573,0.9997020363807678,0.8294370174407959,0.2967657446861267,1.166914463043213,0.7382948398590088,0.5249658226966858,1.1712876558303833,0.5630645155906677,0.022832920774817467,1.1400325298309326,0.22423027455806732,-0.08370114117860794,0.9198014140129089,0.708137035369873,0.06711849570274353,0.8953014612197876,0.8016752004623413,-0.23819312453269958,0.8444856405258179,0.6706943511962891,-0.4231681823730469,0.7976379990577698,0.4841104745864868,-0.382144033908844,0.631123960018158,0.18457341194152832,0.0707908347249031,0.9951172471046448,0.7455796599388123,0.2629750967025757,1.1606751680374146,0.6570487022399902,0.4700232446193695,1.1117786169052124,0.37995365262031555,0.0,0.0,0.0,0.0,0.0,0.3370000123977661,-0.10066039860248566,0.18487213551998138,0.33717241883277893,-0.22881710529327393,0.4202437698841095,0.33739861845970154,-0.3122624456882477,0.5734987854957581,0.3375340402126312,-0.379209965467453,0.6964541673660278,0.33764269948005676,2.069396767425537,1.5699771869659425,-2.4897587526356802e-05,-1.8552719213766977e-05,6.802663508569821e-05,7.421087685506791e-05
1636986673.9477975,5.0,0.0,0.030449677258729935,1.1395599842071533,0.2134087234735489,-0.08652527630329132,0.9296412467956543,0.6893253326416016,0.024168716743588448,0.8072773814201355,0.7006136775016785,-0.2603452503681183,0.866948127746582,0.6667468547821045,-0.41476476192474365,0.8077490925788879,0.5110009908676147,-0.3884034752845764,0.6475968360900879,0.22033719718456268,0.08729469776153564,0.9923344254493713,0.7119038105010986,0.2468613237142563,1.060404658317566,0.5647595524787903,0.4094894230365753,1.029341220855713,0.34519433975219727,-0.12762056291103363,0.6306005716323853,0.1697320193052292,-0.06833691895008087,0.9181839227676392,0.7884554862976074,0.08654351532459259,0.8913881182670593,0.8829566240310669,-0.23869574069976807,0.8366658091545105,0.747473955154419,-0.4183986186981201,0.7874295115470886,0.5634217262268066,-0.4250112473964691,0.7273659110069275,0.30668720602989197,0.10202189534902573,0.9997020363807678,0.8294370174407959,0.2967657446861267,1.166914463043213,0.7382948398590088,0.5249658226966858,1.1712876558303833,0.5630645155906677,0.030449677258729935,1.1395599842071533,0.2134087234735489,-0.08724446594715118,0.9253687858581543,0.6974409818649292,0.0640483945608139,0.8991937041282654,0.7897531390190125,-0.2423093020915985,0.8511689305305481,0.6601385474205017,-0.42542675137519836,0.8009971380233765,0.47258907556533813,-0.3966993987560272,0.6348117589950562,0.17144209146499634,0.06782037764787674,0.9995685815811157,0.7347433567047119,0.2599080204963684,1.1645002365112305,0.6448443531990051,0.4665870666503906,1.1240739822387695,0.3661133348941803,0.0,0.0,0.0,0.0,0.0,0.3370000123977661,-0.10066039860248566,0.18487213551998138,0.33717241883277893,-0.22881710529327393,0.4202437698841095,0.33739861845970154,-0.3122624456882477,0.5734987854957581,0.3375340402126312,-0.379209965467453,0.6964541673660278,0.33764269948005676,2.0694015602111815,1.5699771869659425,-2.4897587526356802e-05,-1.8552719213766977e-05,6.802663508569821e-05,7.421087685506791e-05
1636986673.9504094,5.0,0.0,0.030449677258729935,1.1395599842071533,0.2134087234735489,-0.08652527630329132,0.9296412467956543,0.6893253326416016,0.024168716743588448,0.8072773814201355,0.7006136775016785,-0.2603452503681183,0.866948127746582,0.6667468547821045,-0.41476476192474365,0.8077490925788879,0.5110009908676147,-0.3884034752845764,0.6475968360900879,0.22033719718456268,0.08729469776153564,0.9923344254493713,0.7119038105010986,0.2468613237142563,1.060404658317566,0.5647595524787903,0.4094894230365753,1.029341220855713,0.34519433975219727,-0.12762056291103363,0.6306005716323853,0.1697320193052292,-0.06833691895008087,0.9181839227676392,0.7884554862976074,0.08654351532459259,0.8913881182670593,0.8829566240310669,-0.23869574069976807,0.8366658091545105,0.747473955154419,-0.4183986186981201,0.7874295115470886,0.5634217262268066,-0.4250112473964691,0.7273659110069275,0.30668720602989197,0.10202189534902573,0.9997020363807678,0.8294370174407959,0.2967657446861267,1.166914463043213,0.7382948398590088,0.5249658226966858,1.1712876558303833,0.5630645155906677,0.030449677258729935,1.1395599842071533,0.2134087234735489,-0.09032034873962402,0.927047610282898,0.6974232792854309,0.060972508043050766,0.900872528553009,0.7897354960441589,-0.24538518488407135,0.8528478145599365,0.6601209044456482,-0.4285026490688324,0.8026759624481201,0.47257140278816223,-0.40313979983329773,0.6368702054023743,0.170913428068161,0.0647444948554039,1.0012474060058594,0.7347257137298584,0.2568321228027344,1.1661791801452637,0.6448267102241516,0.46330198645591736,1.1280783414840698,0.36561349034309387,0.0,0.0,0.0,0.0,0.0,0.3370000123977661,-0.10066039860248566,0.18487213551998138,0.33717241883277893,-0.22881710529327393,0.4202437698841095,0.33739861845970154,-0.3122624456882477,0.5734987854957581,0.3375340402126312,-0.379209965467453,0.6964541673660278,0.33764269948005676,2.0694015602111815,1.5699771869659425,-2.4897587526356802e-05,-1.8552719213766977e-05,6.802663508569821e-05,7.421087685506791e-05
1636986673.9807634,5.0,0.0,0.030449677258729935,1.1395599842071533,0.2134087234735489,-0.08652527630329132,0.9296412467956543,0.6893253326416016,0.024168716743588448,0.8072773814201355,0.7006136775016785,-0.2603452503681183,0.866948127746582,0.6667468547821045,-0.41476476192474365,0.8077490925788879,0.5110009908676147,-0.3884034752845764,0.6475968360900879,0.22033719718456268,0.08729469776153564,0.9923344254493713,0.7119038105010986,0.2468613237142563,1.060404658317566,0.5647595524787903,0.4094894230365753,1.029341220855713,0.34519433975219727,-0.11799858510494232,0.6458179950714111,0.17090877890586853,-0.05293745920062065,0.9304642677307129,0.7927778363227844,0.0933961421251297,0.8881336450576782,0.8823896646499634,-0.22322435677051544,0.8413143754005432,0.7525623440742493,-0.41108042001724243,0.7931788563728333,0.5672034025192261,-0.42558130621910095,0.7216953039169312,0.30471646785736084,0.11734943836927414,1.0196142196655273,0.8329933881759644,0.3132202923297882,1.1854554414749146,0.7483640313148499,0.5303115248680115,1.181779146194458,0.5762209296226501,0.030449677258729935,1.1395599842071533,0.2134087234735489,-0.08851888030767441,0.926063597202301,0.6974363923072815,0.05931508541107178,0.8807548880577087,0.7879263758659363,-0.24067597091197968,0.8453953862190247,0.6616167426109314,-0.4281008839607239,0.7978528141975403,0.47767210006713867,-0.400769978761673,0.631809651851654,0.1763167679309845,0.06363821774721146,1.0067318677902222,0.7332560420036316,0.258744478225708,1.1715866327285767,0.6499592065811157,0.4653424918651581,1.132124662399292,0.37102997303009033,0.0,0.0,0.0,0.0,0.0,0.3370000123977661,-0.10066128522157669,0.184871643781662,0.33717241883277893,-0.2288191169500351,0.42024266719818115,0.33739861845970154,-0.31226518750190735,0.5734972953796387,0.3375340402126312,-0.3792133033275604,0.6964523196220398,0.33764269948005676,2.0694015602111815,1.5699721279144288,-2.4897587526356802e-05,-1.8552719213766977e-05,6.802663508569821e-05,7.421087685506791e-05
1636986673.9834,5.0,0.0,0.030449677258729935,1.1395599842071533,0.2134087234735489,-0.08652527630329132,0.9296412467956543,0.6893253326416016,0.024168716743588448,0.8072773814201355,0.7006136775016785,-0.2603452503681183,0.866948127746582,0.6667468547821045,-0.41476476192474365,0.8077490925788879,0.5110009908676147,-0.3884034752845764,0.6475968360900879,0.22033719718456268,0.08729469776153564,0.9923344254493713,0.7119038105010986,0.2468613237142563,1.060404658317566,0.5647595524787903,0.4094894230365753,1.029341220855713,0.34519433975219727,-0.11799858510494232,0.6458179950714111,0.17090877890586853,-0.05293745920062065,0.9304642677307129,0.7927778363227844,0.0933961421251297,0.8881336450576782,0.8823896646499634,-0.22322435677051544,0.8413143754005432,0.7525623440742493,-0.41108042001724243,0.7931788563728333,0.5672034025192261,-0.42558130621910095,0.7216953039169312,0.30471646785736084,0.11734943836927414,1.0196142196655273,0.8329933881759644,0.3132202923297882,1.1854554414749146,0.7483640313148499,0.5303115248680115,1.181779146194458,0.5762209296226501,0.030449677258729935,1.1395599842071533,0.2134087234735489,-0.08851888030767441,0.926063597202301,0.6974363923072815,0.05967165157198906,0.8824502229690552,0.7881758213043213,-0.240944504737854,0.8459687232971191,0.6614720821380615,-0.42798900604248047,0.7981821894645691,0.4772037863731384,-0.40065810084342957,0.6321390271186829,0.17584845423698425,0.06390674412250519,1.006158471107483,0.7334006428718567,0.25874650478363037,1.171027660369873,0.6495103240013123,0.46534451842308044,1.1315655708312988,0.37058112025260925,0.0,0.0,0.0,0.0,0.0,0.3370000123977661,-0.10066128522157669,0.184871643781662,0.33717241883277893,-0.2288191169500351,0.42024266719818115,0.33739861845970154,-0.31226518750190735,0.5734972953796387,0.3375340402126312,-0.3792133033275604,0.6964523196220398,0.33764269948005676,2.0694015602111815,1.5699721279144288,-2.4897587526356802e-05,-1.8552719213766977e-05,6.802663508569821e-05,7.421087685506791e-05
1636986674.013826,5.0,0.0,0.026125146076083183,1.1334425210952759,0.22298994660377502,-0.07222796231508255,0.9306861162185669,0.6874173283576965,0.024168716743588448,0.8072773814201355,0.7006136775016785,-0.24323375523090363,0.8704392313957214,0.6604518890380859,-0.4121665358543396,0.8047812581062317,0.509890615940094,-0.3668491840362549,0.6326388120651245,0.20681142807006836,0.09877784550189972,0.9909330010414124,0.7143828272819519,0.2548874020576477,1.0652391910552979,0.5700689554214478,0.416738897562027,1.009463906288147,0.3402373194694519,-0.11799858510494232,0.6458179950714111,0.17090877890586853,-0.05293745920062065,0.9304642677307129,0.7927778363227844,0.0933961421251297,0.8881336450576782,0.8823896646499634,-0.22322435677051544,0.8413143754005432,0.7525623440742493,-0.41108042001724243,0.7931788563728333,0.5672034025192261,-0.42558130621910095,0.7216953039169312,0.30471646785736084,0.11734943836927414,1.0196142196655273,0.8329933881759644,0.3132202923297882,1.1854554414749146,0.7483640313148499,0.5303115248680115,1.181779146194458,0.5762209296226501,0.026125146076083183,1.1334425210952759,0.22298994660377502,-0.07490388303995132,0.9205499887466431,0.711341142654419,0.07343172281980515,0.8776402473449707,0.8021789789199829,-0.22744028270244598,0.8406929969787598,0.675317645072937,-0.41432690620422363,0.7928059101104736,0.49091529846191406,-0.3672925531864166,0.6235923767089844,0.19378414750099182,0.07763251662254333,1.0004069805145264,0.7473646998405457,0.2723616659641266,1.1652816534042358,0.6632286310195923,0.46772193908691406,1.0934131145477295,0.3826742172241211,0.0,0.0,0.0,0.0,0.0,0.3370000123977661,-0.10066128522157669,0.184871643781662,0.3371734917163849,-0.2288191169500351,0.42024266719818115,0.33740106225013733,-0.31226518750190735,0.5734972953796387,0.33753734827041626,-0.3792133033275604,0.6964523196220398,0.3376466929912567,2.0694064861297607,1.5699721279144288,-2.4897587526356802e-05,-1.8552719213766977e-05,6.802663508569821e-05,7.421087685506791e-05
1636986674.0164194,5.0,0.0,0.026125146076083183,1.1334425210952759,0.22298994660377502,-0.07222796231508255,0.9306861162185669,0.6874173283576965,0.024168716743588448,0.8072773814201355,0.7006136775016785,-0.24323375523090363,0.8704392313957214,0.6604518890380859,-0.4121665358543396,0.8047812581062317,0.509890615940094,-0.3668491840362549,0.6326388120651245,0.20681142807006836,0.09877784550189972,0.9909330010414124,0.7143828272819519,0.2548874020576477,1.0652391910552979,0.5700689554214478,0.416738897562027,1.009463906288147,0.3402373194694519,-0.11799858510494232,0.6458179950714111,0.17090877890586853,-0.05293745920062065,0.9304642677307129,0.7927778363227844,0.0933961421251297,0.8881336450576782,0.8823896646499634,-0.22322435677051544,0.8413143754005432,0.7525623440742493,-0.41108042001724243,0.7931788563728333,0.5672034025192261,-0.42558130621910095,0.7216953039169312,0.30471646785736084,0.11734943836927414,1.0196142196655273,0.8329933881759644,0.3132202923297882,1.1854554414749146,0.7483640313148499,0.5303115248680115,1.181779146194458,0.5762209296226501,0.026125146076083183,1.1334425210952759,0.22298994660377502,-0.07651743292808533,0.9204904437065125,0.710978627204895,0.07181817293167114,0.8775807023048401,0.8018164038658142,-0.2290538251399994,0.8406334519386292,0.6749550700187683,-0.41594043374061584,0.792746365070343,0.49055272340774536,-0.37069791555404663,0.6236477494239807,0.19307813048362732,0.07601896673440933,1.0003474950790405,0.747002124786377,0.270748108625412,1.1652220487594604,0.6628660559654236,0.46749237179756165,1.096086859703064,0.3825920820236206,0.0,0.0,0.0,0.0,0.0,0.3370000123977661,-0.10066128522157669,0.184871643781662,0.3371734917163849,-0.2288191169500351,0.42024266719818115,0.33740106225013733,-0.31226518750190735,0.5734972953796387,0.33753734827041626,-0.3792133033275604,0.6964523196220398,0.3376466929912567,2.0694064861297607,1.5699721279144288,-2.4897587526356802e-05,-1.8552719213766977e-05,6.802663508569821e-05,7.421087685506791e-05
1636986674.0467663,5.0,0.0,0.026125146076083183,1.1334425210952759,0.22298994660377502,-0.07222796231508255,0.9306861162185669,0.6874173283576965,0.024168716743588448,0.8072773814201355,0.7006136775016785,-0.24323375523090363,0.8704392313957214,0.6604518890380859,-0.4121665358543396,0.8047812581062317,0.509890615940094,-0.3668491840362549,0.6326388120651245,0.20681142807006836,0.09877784550189972,0.9909330010414124,0.7143828272819519,0.2548874020576477,1.0652391910552979,0.5700689554214478,0.416738897562027,1.009463906288147,0.3402373194694519,-0.11698506772518158,0.6793205738067627,0.17033658921718597,-0.05666450038552284,0.929660439491272,0.7916994690895081,0.09880892187356949,0.9034631848335266,0.8917245268821716,-0.23104065656661987,0.8386490941047668,0.7498260736465454,-0.41143208742141724,0.7842046022415161,0.555691659450531,-0.4248664975166321,0.7232903242111206,0.29866185784339905,0.11771165579557419,1.0206717252731323,0.8335728049278259,0.3119297921657562,1.1822558641433716,0.7468566298484802,0.5715823173522949,1.264011025428772,0.6276029348373413,0.026125146076083183,1.1334425210952759,0.22298994660377502,-0.0771854817867279,0.9204661250114441,0.7108269929885864,0.07202666252851486,0.897951066493988,0.8073930740356445,-0.22970759868621826,0.840896487236023,0.6741136312484741,-0.40630847215652466,0.7864223122596741,0.4815812408924103,-0.36180755496025085,0.6173811554908752,0.18396221101284027,0.07533663511276245,1.0000357627868652,0.7475403547286987,0.2707678973674774,1.162217140197754,0.6598717570304871,0.4680652320384979,1.0942269563674927,0.3797065019607544,0.0,0.0,0.0,0.0,0.0,0.3370000123977661,-0.10066219419240952,0.1848711520433426,0.3371734917163849,-0.22882118821144104,0.4202415347099304,0.33740106225013733,-0.3122680187225342,0.5734957456588745,0.33753734827041626,-0.379216730594635,0.6964504718780518,0.3376466929912567,2.0694064861297607,1.5699721279144288,-2.4897587526356802e-05,-1.8552719213766977e-05,6.802663508569821e-05,7.421087685506791e-05
1636986674.049412,5.0,0.0,0.026125146076083183,1.1334425210952759,0.22298994660377502,-0.07222796231508255,0.9306861162185669,0.6874173283576965,0.024168716743588448,0.8072773814201355,0.7006136775016785,-0.24323375523090363,0.8704392313957214,0.6604518890380859,-0.4121665358543396,0.8047812581062317,0.509890615940094,-0.3668491840362549,0.6326388120651245,0.20681142807006836,0.09877784550189972,0.9909330010414124,0.7143828272819519,0.2548874020576477,1.0652391910552979,0.5700689554214478,0.416738897562027,1.009463906288147,0.3402373194694519,-0.11698506772518158,0.6793205738067627,0.17033658921718597,-0.05666450038552284,0.929660439491272,0.7916994690895081,0.09880892187356949,0.9034631848335266,0.8917245268821716,-0.23104065656661987,0.8386490941047668,0.7498260736465454,-0.41143208742141724,0.7842046022415161,0.555691659450531,-0.4248664975166321,0.7232903242111206,0.29866185784339905,0.11771165579557419,1.0206717252731323,0.8335728049278259,0.3119297921657562,1.1822558641433716,0.7468566298484802,0.5715823173522949,1.264011025428772,0.6276029348373413,0.026125146076083183,1.1334425210952759,0.22298994660377502,-0.0771854817867279,0.9204661250114441,0.7108269929885864,0.0720033198595047,0.8960968852043152,0.8069781064987183,-0.2297089695930481,0.8408706784248352,0.6741753816604614,-0.4072636067867279,0.7869368195533752,0.48236948251724243,-0.3627626895904541,0.6178956627845764,0.18475043773651123,0.07533801347017288,1.0000616312026978,0.7474785447120667,0.27071017026901245,1.1624850034713745,0.6601268649101257,0.46800750494003296,1.0944948196411133,0.37996160984039307,0.0,0.0,0.0,0.0,0.0,0.3370000123977661,-0.10066219419240952,0.1848711520433426,0.3371734917163849,-0.22882118821144104,0.4202415347099304,0.33740106225013733,-0.3122680187225342,0.5734957456588745,0.33753734827041626,-0.379216730594635,0.6964504718780518,0.3376466929912567,2.0694064861297607,1.5699721279144288,-2.4897587526356802e-05,-1.8552719213766977e-05,6.802663508569821e-05,7.421087685506791e-05
1636986674.0797791,5.0,0.0,0.03217586874961853,1.1355232000350952,0.21258053183555603,-0.06894420087337494,0.9305148124694824,0.6820893883705139,0.026278827339410782,0.803916871547699,0.6989964842796326,-0.24323375523090363,0.8704392313957214,0.6604518890380859,-0.4181272089481354,0.8115900158882141,0.5124379992485046,-0.38745391368865967,0.6465931534767151,0.2201053500175476,0.10534535348415375,0.9905903935432434,0.7037268280982971,0.2560097277164459,1.0626556873321533,0.5691498517990112,0.4248069226741791,1.0224549770355225,0.36092105507850647,-0.11698506772518158,0.6793205738067627,0.17033658921718597,-0.05666450038552284,0.929660439491272,0.7916994690895081,0.09880892187356949,0.9034631848335266,0.8917245268821716,-0.23104065656661987,0.8386490941047668,0.7498260736465454,-0.41143208742141724,0.7842046022415161,0.555691659450531,-0.4248664975166321,0.7232903242111206,0.29866185784339905,0.11771165579557419,1.0206717252731323,0.8335728049278259,0.3119297921657562,1.1822558641433716,0.7468566298484802,0.5715823173522949,1.264011025428772,0.6276029348373413,0.03217586874961853,1.1355232000350952,0.21258053183555603,-0.07289539277553558,0.9226541519165039,0.7000882625579834,0.07628055661916733,0.8975180387496948,0.7960617542266846,-0.22541944682598114,0.8430480360984802,0.6634622812271118,-0.40336742997169495,0.7893409729003906,0.4719575047492981,-0.3725127875804901,0.6204357743263245,0.1725391149520874,0.07962866127490997,1.0022603273391724,0.736714243888855,0.27497613430023193,1.1647839546203613,0.6494938135147095,0.4933166801929474,1.1137526035308838,0.38160449266433716,0.0,0.0,0.0,0.0,0.0,0.3370000123977661,-0.10066219419240952,0.1848711520433426,0.3371734917163849,-0.22882118821144104,0.4202415347099304,0.33740106225013733,-0.3122680187225342,0.5734957456588745,0.33753734827041626,-0.379216730594635,0.6964504718780518,0.3376466929912567,2.0694064861297607,1.5699721279144288,-2.4897587526356802e-05,-1.8552719213766977e-05,6.802663508569821e-05,7.421087685506791e-05
1636986674.0824502,5.0,0.0,0.03217586874961853,1.1355232000350952,0.21258053183555603,-0.06894420087337494,0.9305148124694824,0.6820893883705139,0.026278827339410782,0.803916871547699,0.6989964842796326,-0.24323375523090363,0.8704392313957214,0.6604518890380859,-0.4181272089481354,0.8115900158882141,0.5124379992485046,-0.38745391368865967,0.6465931534767151,0.2201053500175476,0.10534535348415375,0.9905903935432434,0.7037268280982971,0.2560097277164459,1.0626556873321533,0.5691498517990112,0.4248069226741791,1.0224549770355225,0.36092105507850647,-0.11698506772518158,0.6793205738067627,0.17033658921718597,-0.05666450038552284,0.929660439491272,0.7916994690895081,0.09880892187356949,0.9034631848335266,0.8917245268821716,-0.23104065656661987,0.8386490941047668,0.7498260736465454,-0.41143208742141724,0.7842046022415161,0.555691659450531,-0.4248664975166321,0.7232903242111206,0.29866185784339905,0.11771165579557419,1.0206717252731323,0.8335728049278259,0.3119297921657562,1.1822558641433716,0.7468566298484802,0.5715823173522949,1.264011025428772,0.6276029348373413,0.03217586874961853,1.1355232000350952,0.21258053183555603,-0.07282361388206482,0.9226498007774353,0.7001017928123474,0.07635233551263809,0.8975136280059814,0.7960753440856934,-0.22534766793251038,0.8430436253547668,0.6634758114814758,-0.403295636177063,0.7893365621566772,0.4719710350036621,-0.37188753485679626,0.6203870177268982,0.17263522744178772,0.07970044016838074,1.002255916595459,0.736727774143219,0.2750478982925415,1.164779543876648,0.6495073437690735,0.4926035702228546,1.1129664182662964,0.3811299800872803,0.0,0.0,0.0,0.0,0.0,0.3370000123977661,-0.10066219419240952,0.1848711520433426,0.3371734917163849,-0.22882118821144104,0.4202415347099304,0.33740106225013733,-0.3122680187225342,0.5734957456588745,0.33753734827041626,-0.379216730594635,0.6964504718780518,0.3376466929912567,2.0694064861297607,1.5699721279144288,-2.4897587526356802e-05,-1.8552719213766977e-05,6.802663508569821e-05,7.421087685506791e-05
1636986674.1127825,5.0,0.0,0.03217586874961853,1.1355232000350952,0.21258053183555603,-0.06894420087337494,0.9305148124694824,0.6820893883705139,0.026278827339410782,0.803916871547699,0.6989964842796326,-0.24323375523090363,0.8704392313957214,0.6604518890380859,-0.4181272089481354,0.8115900158882141,0.5124379992485046,-0.38745391368865967,0.6465931534767151,0.2201053500175476,0.10534535348415375,0.9905903935432434,0.7037268280982971,0.2560097277164459,1.0626556873321533,0.5691498517990112,0.4248069226741791,1.0224549770355225,0.36092105507850647,-0.12147724628448486,0.6576307415962219,0.17339469492435455,-0.05581161007285118,0.9398024082183838,0.7930419445037842,0.09880892187356949,0.9034631848335266,0.8917245268821716,-0.22384823858737946,0.8755728602409363,0.7703601717948914,-0.41278934478759766,0.7768082618713379,0.5594595670700073,-0.42359477281570435,0.7359024882316589,0.302999347448349,0.1122250109910965,1.0040318965911865,0.815723717212677,0.31202611327171326,1.1602706909179688,0.737831711769104,0.5498188734054565,1.201566457748413,0.6127676367759705,0.03217586874961853,1.1355232000350952,0.21258053183555603,-0.07282361388206482,0.9226498007774353,0.7001017928123474,0.07526487857103348,0.8874250054359436,0.7945751547813416,-0.2362101823091507,0.8610701560974121,0.6787717342376709,-0.43425947427749634,0.7941257953643799,0.5128834247589111,-0.4028513729572296,0.625176191329956,0.21354760229587555,0.09056295454502106,0.9842293858528137,0.7214318513870239,0.2931704819202423,1.142237663269043,0.6429109573364258,0.5107261538505554,1.0904245376586914,0.3745335638523102,0.0,0.0,0.0,0.0,0.0,0.3370000123977661,-0.10066219419240952,0.1848711520433426,0.3371734917163849,-0.22882118821144104,0.4202415347099304,0.33740106225013733,-0.3122680187225342,0.5734957456588745,0.33753734827041626,-0.379216730594635,0.6964504718780518,0.3376466929912567,2.0694064861297607,1.5699721279144288,-2.4897587526356802e-05,-1.8552719213766977e-05,6.802663508569821e-05,7.421087685506791e-05
1636986674.115417,5.0,0.0,0.03217586874961853,1.1355232000350952,0.21258053183555603,-0.06894420087337494,0.9305148124694824,0.6820893883705139,0.026278827339410782,0.803916871547699,0.6989964842796326,-0.24323375523090363,0.8704392313957214,0.6604518890380859,-0.4181272089481354,0.8115900158882141,0.5124379992485046,-0.38745391368865967,0.6465931534767151,0.2201053500175476,0.10534535348415375,0.9905903935432434,0.7037268280982971,0.2560097277164459,1.0626556873321533,0.5691498517990112,0.4248069226741791,1.0224549770355225,0.36092105507850647,-0.12147724628448486,0.6576307415962219,0.17339469492435455,-0.05581161007285118,0.9398024082183838,0.7930419445037842,0.09880892187356949,0.9034631848335266,0.8917245268821716,-0.22384823858737946,0.8755728602409363,0.7703601717948914,-0.41278934478759766,0.7768082618713379,0.5594595670700073,-0.42359477281570435,0.7359024882316589,0.302999347448349,0.1122250109910965,1.0040318965911865,0.815723717212677,0.31202611327171326,1.1602706909179688,0.737831711769104,0.5498188734054565,1.201566457748413,0.6127676367759705,0.03217586874961853,1.1355232000350952,0.21258053183555603,-0.07282361388206482,0.9226498007774353,0.7001017928123474,0.07531531155109406,0.8878338932991028,0.7946476340293884,-0.2358427792787552,0.8603380918502808,0.6780973076820374,-0.43315389752388,0.7939457297325134,0.5111110806465149,-0.4017457962036133,0.6249961256980896,0.2117752879858017,0.09019554406404495,0.9849614500999451,0.7221063375473022,0.29251208901405334,1.14316725730896,0.6432336568832397,0.5100677609443665,1.0913541316986084,0.37485626339912415,0.0,0.0,0.0,0.0,0.0,0.3370000123977661,-0.10066219419240952,0.1848711520433426,0.3371734917163849,-0.22882118821144104,0.4202415347099304,0.33740106225013733,-0.3122680187225342,0.5734957456588745,0.33753734827041626,-0.379216730594635,0.6964504718780518,0.3376466929912567,2.0694064861297607,1.5699721279144288,-2.4897587526356802e-05,-1.8552719213766977e-05,6.802663508569821e-05,7.421087685506791e-05
1636986674.1457708,5.0,0.0,0.028424063697457314,1.1357494592666626,0.21813079714775085,-0.07153987139463425,0.9294670820236206,0.6868772506713867,0.026464994996786118,0.8036203980445862,0.6988537311553955,-0.2429545670747757,0.8700678944587708,0.6602874994277954,-0.41537603735923767,0.8084474205970764,0.5112622380256653,-0.3687417507171631,0.6346490979194641,0.20726312696933746,0.0998748242855072,0.9888662695884705,0.713467001914978,0.2607327699661255,1.0517840385437012,0.5652819871902466,0.42161670327186584,1.0155593156814575,0.36861979961395264,-0.12147724628448486,0.6576307415962219,0.17339469492435455,-0.05581161007285118,0.9398024082183838,0.7930419445037842,0.09880892187356949,0.9034631848335266,0.8917245268821716,-0.22384823858737946,0.8755728602409363,0.7703601717948914,-0.41278934478759766,0.7768082618713379,0.5594595670700073,-0.42359477281570435,0.7359024882316589,0.302999347448349,0.1122250109910965,1.0040318965911865,0.815723717212677,0.31202611327171326,1.1602706909179688,0.737831711769104,0.5498188734054565,1.201566457748413,0.6127676367759705,0.028424063697457314,1.1357494592666626,0.21813079714775085,-0.07540807873010635,0.9213232398033142,0.70522141456604,0.07273085415363312,0.8865073919296265,0.799767255783081,-0.23842723667621613,0.8590115904808044,0.6832168698310852,-0.43323633074760437,0.789216160774231,0.5146878957748413,-0.38706809282302856,0.6194179058074951,0.2177545428276062,0.08761108666658401,0.9836349487304688,0.7272259593009949,0.2899276316165924,1.1418406963348389,0.6483532786369324,0.508973240852356,1.0926411151885986,0.3806969225406647,0.0,0.0,0.0,0.0,0.0,0.3370000123977661,-0.10066219419240952,0.1848711520433426,0.3371734917163849,-0.22882118821144104,0.4202415347099304,0.33740106225013733,-0.3122680187225342,0.5734957456588745,0.33753734827041626,-0.379216730594635,0.6964504718780518,0.3376466929912567,2.0694064861297607,1.5699721279144288,-2.4897587526356802e-05,-1.8552719213766977e-05,6.802663508569821e-05,7.421087685506791e-05
1636986674.1484554,5.0,0.0,0.028424063697457314,1.1357494592666626,0.21813079714775085,-0.07153987139463425,0.9294670820236206,0.6868772506713867,0.026464994996786118,0.8036203980445862,0.6988537311553955,-0.2429545670747757,0.8700678944587708,0.6602874994277954,-0.41537603735923767,0.8084474205970764,0.5112622380256653,-0.3687417507171631,0.6346490979194641,0.20726312696933746,0.0998748242855072,0.9888662695884705,0.713467001914978,0.2607327699661255,1.0517840385437012,0.5652819871902466,0.42161670327186584,1.0155593156814575,0.36861979961395264,-0.12147724628448486,0.6576307415962219,0.17339469492435455,-0.05581161007285118,0.9398024082183838,0.7930419445037842,0.09880892187356949,0.9034631848335266,0.8917245268821716,-0.22384823858737946,0.8755728602409363,0.7703601717948914,-0.41278934478759766,0.7768082618713379,0.5594595670700073,-0.42359477281570435,0.7359024882316589,0.302999347448349,0.1122250109910965,1.0040318965911865,0.815723717212677,0.31202611327171326,1.1602706909179688,0.737831711769104,0.5498188734054565,1.201566457748413,0.6127676367759705,0.028424063697457314,1.1357494592666626,0.21813079714775085,-0.0754556879401207,0.9213865399360657,0.7052391171455383,0.07268324494361877,0.8865706324577332,0.7997849583625793,-0.23847484588623047,0.8590748906135559,0.6832345724105835,-0.4333881437778473,0.7894161343574524,0.5147694945335388,-0.3878243565559387,0.6196074485778809,0.21774879097938538,0.08756347745656967,0.9836981892585754,0.7272436618804932,0.28988000750541687,1.1419039964675903,0.6483709812164307,0.508866012096405,1.0925971269607544,0.38068562746047974,0.0,0.0,0.0,0.0,0.0,0.3370000123977661,-0.10066219419240952,0.1848711520433426,0.3371734917163849,-0.22882118821144104,0.4202415347099304,0.33740106225013733,-0.3122680187225342,0.5734957456588745,0.33753734827041626,-0.379216730594635,0.6964504718780518,0.3376466929912567,2.0694064861297607,1.5699721279144288,-2.4897587526356802e-05,-1.8552719213766977e-05,6.184239737922326e-05,7.421087685506791e-05
1636986674.178782,5.0,0.0,0.028424063697457314,1.1357494592666626,0.21813079714775085,-0.07153987139463425,0.9294670820236206,0.6868772506713867,0.026464994996786118,0.8036203980445862,0.6988537311553955,-0.2429545670747757,0.8700678944587708,0.6602874994277954,-0.41537603735923767,0.8084474205970764,0.5112622380256653,-0.3687417507171631,0.6346490979194641,0.20726312696933746,0.0998748242855072,0.9888662695884705,0.713467001914978,0.2607327699661255,1.0517840385437012,0.5652819871902466,0.42161670327186584,1.0155593156814575,0.36861979961395264,-0.09574279934167862,0.7304427623748779,0.17315234243869781,-0.059655286371707916,0.9172224402427673,0.7848141193389893,0.0933961421251297,0.8881336450576782,0.8823896646499634,-0.23438818752765656,0.8214638829231262,0.7402690052986145,-0.41372308135032654,0.7623233795166016,0.5454254746437073,-0.42346760630607605,0.737163782119751,0.3034330904483795,0.11507761478424072,1.0129809379577637,0.8293591737747192,0.3381979763507843,1.1801984310150146,0.7591858506202698,0.5690810680389404,1.1843725442886353,0.6186121106147766,0.028424063697457314,1.1357494592666626,0.21813079714775085,-0.0754556879401207,0.9213865399360657,0.7052391171455383,0.07370625436306,0.8930370211601257,0.8003349900245667,-0.239906445145607,0.8644005656242371,0.6797295808792114,-0.4348197281360626,0.7947418093681335,0.5112645030021667,-0.38925597071647644,0.624933123588562,0.2142437994480133,0.088995061814785,0.9783725738525391,0.7307486534118652,0.29748398065567017,1.1346244812011719,0.6651769876480103,0.5164700150489807,1.085317611694336,0.3974916636943817,0.0,0.0,0.0,0.0,0.0,0.3370000123977661,-0.10066219419240952,0.1848711520433426,0.3371734917163849,-0.22882118821144104,0.4202415347099304,0.33740106225013733,-0.3122680187225342,0.5734957456588745,0.3375384211540222,-0.379216730594635,0.6964504718780518,0.3376486301422119,2.06941141204834,1.5699721279144288,-2.4897587526356802e-05,-1.8552719213766977e-05,6.184239737922326e-05,7.421087685506791e-05
1636986674.1814103,5.0,0.0,0.028424063697457314,1.1357494592666626,0.21813079714775085,-0.07153987139463425,0.9294670820236206,0.6868772506713867,0.026464994996786118,0.8036203980445862,0.6988537311553955,-0.2429545670747757,0.8700678944587708,0.6602874994277954,-0.41537603735923767,0.8084474205970764,0.5112622380256653,-0.3687417507171631,0.6346490979194641,0.20726312696933746,0.0998748242855072,0.9888662695884705,0.713467001914978,0.2607327699661255,1.0517840385437012,0.5652819871902466,0.42161670327186584,1.0155593156814575,0.36861979961395264,-0.09574279934167862,0.7304427623748779,0.17315234243869781,-0.059655286371707916,0.9172224402427673,0.7848141193389893,0.0933961421251297,0.8881336450576782,0.8823896646499634,-0.23438818752765656,0.8214638829231262,0.7402690052986145,-0.41372308135032654,0.7623233795166016,0.5454254746437073,-0.42346760630607605,0.737163782119751,0.3034330904483795,0.11507761478424072,1.0129809379577637,0.8293591737747192,0.3381979763507843,1.1801984310150146,0.7591858506202698,0.5690810680389404,1.1843725442886353,0.6186121106147766,0.028424063697457314,1.1357494592666626,0.21813079714775085,-0.0754556879401207,0.9213865399360657,0.7052391171455383,0.07370625436306,0.8930370211601257,0.8003349900245667,-0.239906445145607,0.8644005656242371,0.6797295808792114,-0.4348197281360626,0.7947418093681335,0.5112645030021667,-0.38925597071647644,0.624933123588562,0.2142437994480133,0.088995061814785,0.9783725738525391,0.7307486534118652,0.29748398065567017,1.1346244812011719,0.6651769876480103,0.5164700150489807,1.085317611694336,0.3974916636943817,0.0,0.0,0.0,0.0,0.0,0.3370000123977661,-0.10066219419240952,0.1848711520433426,0.3371734917163849,-0.22882118821144104,0.4202415347099304,0.33740106225013733,-0.3122680187225342,0.5734957456588745,0.3375384211540222,-0.379216730594635,0.6964504718780518,0.3376486301422119,2.06941141204834,1.5699721279144288,-2.4897587526356802e-05,-1.8552719213766977e-05,6.184239737922326e-05,7.421087685506791e-05
1636986674.2117732,5.0,0.0,0.02303457073867321,1.1402151584625244,0.22458766400814056,-0.06742841005325317,0.9224950075149536,0.6837884783744812,0.019025947898626328,0.7985290884971619,0.6937029957771301,-0.24016226828098297,0.8663549423217773,0.6586434245109558,-0.41454827785491943,0.8230495452880859,0.5204098224639893,-0.3684263527393341,0.6343140602111816,0.20718781650066376,0.10530544817447662,0.9786350131034851,0.7089335918426514,0.2757960557937622,1.0400599241256714,0.5646446347236633,0.4282805919647217,1.0226209163665771,0.37437954545021057,-0.09574279934167862,0.7304427623748779,0.17315234243869781,-0.059655286371707916,0.9172224402427673,0.7848141193389893,0.0933961421251297,0.8881336450576782,0.8823896646499634,-0.23438818752765656,0.8214638829231262,0.7402690052986145,-0.41372308135032654,0.7623233795166016,0.5454254746437073,-0.42346760630607605,0.737163782119751,0.3034330904483795,0.11507761478424072,1.0129809379577637,0.8293591737747192,0.3381979763507843,1.1801984310150146,0.7591858506202698,0.5690810680389404,1.1843725442886353,0.6186121106147766,0.02303457073867321,1.1402151584625244,0.22458766400814056,-0.07199274003505707,0.9115098714828491,0.7069575786590576,0.07716920226812363,0.8831603527069092,0.8020533919334412,-0.23770244419574738,0.8576527833938599,0.6828349828720093,-0.44299209117889404,0.8066730499267578,0.5201044082641602,-0.39980217814445496,0.629935622215271,0.22679422795772552,0.09371696412563324,0.9653669595718384,0.7310801148414612,0.302205890417099,1.1216189861297607,0.6655084490776062,0.5201208591461182,1.0966970920562744,0.3936014175415039,0.0,0.0,0.0,0.0,0.0,0.3370000123977661,-0.10066311061382294,0.1848706603050232,0.3371734917163849,-0.22882325947284698,0.4202404022216797,0.33740106225013733,-0.3122708201408386,0.5734942555427551,0.3375384211540222,-0.3792201578617096,0.696448564529419,0.3376486301422119,2.0694211307525636,1.5699721279144288,-2.4897587526356802e-05,-1.8552719213766977e-05,6.184239737922326e-05,7.421087685506791e-05
1636986674.214412,5.0,0.0,0.02303457073867321,1.1402151584625244,0.22458766400814056,-0.06742841005325317,0.9224950075149536,0.6837884783744812,0.019025947898626328,0.7985290884971619,0.6937029957771301,-0.24016226828098297,0.8663549423217773,0.6586434245109558,-0.41454827785491943,0.8230495452880859,0.5204098224639893,-0.3684263527393341,0.6343140602111816,0.20718781650066376,0.10530544817447662,0.9786350131034851,0.7089335918426514,0.2757960557937622,1.0400599241256714,0.5646446347236633,0.4282805919647217,1.0226209163665771,0.37437954545021057,-0.09574279934167862,0.7304427623748779,0.17315234243869781,-0.059655286371707916,0.9172224402427673,0.7848141193389893,0.0933961421251297,0.8881336450576782,0.8823896646499634,-0.23438818752765656,0.8214638829231262,0.7402690052986145,-0.41372308135032654,0.7623233795166016,0.5454254746437073,-0.42346760630607605,0.737163782119751,0.3034330904483795,0.11507761478424072,1.0129809379577637,0.8293591737747192,0.3381979763507843,1.1801984310150146,0.7591858506202698,0.5690810680389404,1.1843725442886353,0.6186121106147766,0.02303457073867321,1.1402151584625244,0.22458766400814056,-0.07199274003505707,0.9115098714828491,0.7069575786590576,0.07716920226812363,0.8831603527069092,0.8020533919334412,-0.23770244419574738,0.8576527833938599,0.6828349828720093,-0.44299209117889404,0.8066730499267578,0.5201044082641602,-0.39980217814445496,0.629935622215271,0.22679422795772552,0.09371696412563324,0.9653669595718384,0.7310801148414612,0.302205890417099,1.1216189861297607,0.6655084490776062,0.5201208591461182,1.0966970920562744,0.3936014175415039,0.0,0.0,0.0,0.0,0.0,0.3370000123977661,-0.10066311061382294,0.1848706603050232,0.3371734917163849,-0.22882325947284698,0.4202404022216797,0.33740106225013733,-0.3122708201408386,0.5734942555427551,0.3375384211540222,-0.3792201578617096,0.696448564529419,0.3376486301422119,2.0694211307525636,1.5699721279144288,-2.4897587526356802e-05,-1.8552719213766977e-05,6.184239737922326e-05,7.421087685506791e-05
1636986674.244785,5.0,0.0,0.02303457073867321,1.1402151584625244,0.22458766400814056,-0.06742841005325317,0.9224950075149536,0.6837884783744812,0.019025947898626328,0.7985290884971619,0.6937029957771301,-0.24016226828098297,0.8663549423217773,0.6586434245109558,-0.41454827785491943,0.8230495452880859,0.5204098224639893,-0.3684263527393341,0.6343140602111816,0.20718781650066376,0.10530544817447662,0.9786350131034851,0.7089335918426514,0.2757960557937622,1.0400599241256714,0.5646446347236633,0.4282805919647217,1.0226209163665771,0.37437954545021057,-0.12209390848875046,0.6437839865684509,0.17355675995349884,-0.05313069373369217,0.9258464574813843,0.7946802973747253,0.09910960495471954,0.9043147563934326,0.8922430872917175,-0.2330108880996704,0.8285344839096069,0.744201123714447,-0.41271504759788513,0.7775200009346008,0.5597962141036987,-0.4245678782463074,0.731776237487793,0.30821993947029114,0.12674950063228607,1.0231584310531616,0.8451595306396484,0.33802634477615356,1.1582472324371338,0.7592584490776062,0.5997272729873657,1.243236780166626,0.6618399024009705,0.02303457073867321,1.1402151584625244,0.22458766400814056,-0.07199274003505707,0.9115098714828491,0.7069575786590576,0.07778745144605637,0.8903261423110962,0.802943766117096,-0.23770244419574738,0.8576527833938599,0.6828349828720093,-0.44299209117889404,0.8066730499267578,0.5201044082641602,-0.39980217814445496,0.629935622215271,0.22679422795772552,0.09371696412563324,0.9653669595718384,0.7310801148414612,0.3078550696372986,1.1022852659225464,0.6440157294273376,0.5257700681686401,1.07736337184906,0.37210866808891296,0.0,0.0,0.0,0.0,0.0,0.3370000123977661,-0.10066579282283783,0.1848691999912262,0.3371734917163849,-0.22882935404777527,0.42023709416389465,0.33740106225013733,-0.3122791647911072,0.5734897255897522,0.3375384211540222,-0.379230260848999,0.6964430809020996,0.3376486301422119,2.069425923538208,1.5699721279144288,-2.4897587526356802e-05,-1.8552719213766977e-05,6.184239737922326e-05,7.421087685506791e-05
1636986674.24741,5.0,0.0,0.02303457073867321,1.1402151584625244,0.22458766400814056,-0.06742841005325317,0.9224950075149536,0.6837884783744812,0.019025947898626328,0.7985290884971619,0.6937029957771301,-0.24016226828098297,0.8663549423217773,0.6586434245109558,-0.41454827785491943,0.8230495452880859,0.5204098224639893,-0.3684263527393341,0.6343140602111816,0.20718781650066376,0.10530544817447662,0.9786350131034851,0.7089335918426514,0.2757960557937622,1.0400599241256714,0.5646446347236633,0.4282805919647217,1.0226209163665771,0.37437954545021057,-0.12209390848875046,0.6437839865684509,0.17355675995349884,-0.05313069373369217,0.9258464574813843,0.7946802973747253,0.09910960495471954,0.9043147563934326,0.8922430872917175,-0.2330108880996704,0.8285344839096069,0.744201123714447,-0.41271504759788513,0.7775200009346008,0.5597962141036987,-0.4245678782463074,0.731776237487793,0.30821993947029114,0.12674950063228607,1.0231584310531616,0.8451595306396484,0.33802634477615356,1.1582472324371338,0.7592584490776062,0.5997272729873657,1.243236780166626,0.6618399024009705,0.02303457073867321,1.1402151584625244,0.22458766400814056,-0.07199274003505707,0.9115098714828491,0.7069575786590576,0.07778745144605637,0.8903261423110962,0.802943766117096,-0.23770244419574738,0.8576527833938599,0.6828349828720093,-0.44299209117889404,0.8066730499267578,0.5201044082641602,-0.39980217814445496,0.629935622215271,0.22679422795772552,0.09371696412563324,0.9653669595718384,0.7310801148414612,0.3078550696372986,1.1022852659225464,0.6440157294273376,0.5257700681686401,1.07736337184906,0.37210866808891296,0.0,0.0,0.0,0.0,0.0,0.3370000123977661,-0.10066579282283783,0.1848691999912262,0.3371734917163849,-0.22882935404777527,0.42023709416389465,0.33740106225013733,-0.3122791647911072,0.5734897255897522,0.3375384211540222,-0.379230260848999,0.6964430809020996,0.3376486301422119,2.069425923538208,1.5699721279144288,-2.4897587526356802e-05,-1.8552719213766977e-05,6.184239737922326e-05,7.421087685506791e-05
1636986674.2777739,5.0,0.0,0.022543758153915405,1.1268606185913086,0.23288752138614655,-0.06966553628444672,0.9203162789344788,0.6883179545402527,0.01808890700340271,0.8000071048736572,0.6944119930267334,-0.24595288932323456,0.8644776344299316,0.6688013076782227,-0.40937888622283936,0.8170928955078125,0.5181689262390137,-0.38745391368865967,0.6465931534767151,0.2201053500175476,0.10662183165550232,0.9761549234390259,0.7078346610069275,0.2709794044494629,1.0372109413146973,0.5737289190292358,0.4392499625682831,1.0016248226165771,0.38204967975616455,-0.12209390848875046,0.6437839865684509,0.17355675995349884,-0.05313069373369217,0.9258464574813843,0.7946802973747253,0.09910960495471954,0.9043147563934326,0.8922430872917175,-0.2330108880996704,0.8285344839096069,0.744201123714447,-0.41271504759788513,0.7775200009346008,0.5597962141036987,-0.4245678782463074,0.731776237487793,0.30821993947029114,0.12674950063228607,1.0231584310531616,0.8451595306396484,0.33802634477615356,1.1582472324371338,0.7592584490776062,0.5997272729873657,1.243236780166626,0.6618399024009705,0.022543758153915405,1.1268606185913086,0.23288752138614655,-0.07578112185001373,0.9066176414489746,0.7185234427452087,0.0739990696310997,0.8854339122772217,0.8145096302032471,-0.24254760146141052,0.8537947535514832,0.7000607848167419,-0.43447041511535645,0.798147439956665,0.5231624245643616,-0.4124770760536194,0.6271159648895264,0.22416932880878448,0.09098537266254425,0.9594405889511108,0.7369860410690308,0.3051234781742096,1.0963588953018188,0.6499216556549072,0.5333846807479858,1.0480858087539673,0.3899061977863312,0.0,0.0,0.0,0.0,0.0,0.3370000123977661,-0.10066579282283783,0.1848691999912262,0.3371734917163849,-0.22882935404777527,0.42023709416389465,0.33740106225013733,-0.3122791647911072,0.5734897255897522,0.3375384211540222,-0.379230260848999,0.6964430809020996,0.3376486301422119,2.069425923538208,1.5699721279144288,-2.4897587526356802e-05,-1.8552719213766977e-05,6.184239737922326e-05,7.421087685506791e-05
1636986674.2804117,5.0,0.0,0.022543758153915405,1.1268606185913086,0.23288752138614655,-0.06966553628444672,0.9203162789344788,0.6883179545402527,0.01808890700340271,0.8000071048736572,0.6944119930267334,-0.24595288932323456,0.8644776344299316,0.6688013076782227,-0.40937888622283936,0.8170928955078125,0.5181689262390137,-0.38745391368865967,0.6465931534767151,0.2201053500175476,0.10662183165550232,0.9761549234390259,0.7078346610069275,0.2709794044494629,1.0372109413146973,0.5737289190292358,0.4392499625682831,1.0016248226165771,0.38204967975616455,-0.12209390848875046,0.6437839865684509,0.17355675995349884,-0.05313069373369217,0.9258464574813843,0.7946802973747253,0.09910960495471954,0.9043147563934326,0.8922430872917175,-0.2330108880996704,0.8285344839096069,0.744201123714447,-0.41271504759788513,0.7775200009346008,0.5597962141036987,-0.4245678782463074,0.731776237487793,0.30821993947029114,0.12674950063228607,1.0231584310531616,0.8451595306396484,0.33802634477615356,1.1582472324371338,0.7592584490776062,0.5997272729873657,1.243236780166626,0.6618399024009705,0.022543758153915405,1.1268606185913086,0.23288752138614655,-0.07578112185001373,0.9066176414489746,0.7185234427452087,0.0739990696310997,0.8854339122772217,0.8145096302032471,-0.24254760146141052,0.8537947535514832,0.7000607848167419,-0.43447041511535645,0.798147439956665,0.5231624245643616,-0.4124770760536194,0.6271159648895264,0.22416932880878448,0.09098537266254425,0.9594405889511108,0.7369860410690308,0.3051234781742096,1.0963588953018188,0.6499216556549072,0.5333846807479858,1.0480858087539673,0.3899061977863312,0.0,0.0,0.0,0.0,0.0,0.3370000123977661,-0.10066579282283783,0.1848691999912262,0.3371734917163849,-0.22882935404777527,0.42023709416389465,0.33740106225013733,-0.3122791647911072,0.5734897255897522,0.3375384211540222,-0.379230260848999,0.6964430809020996,0.3376486301422119,2.069425923538208,1.5699721279144288,-2.4897587526356802e-05,-1.8552719213766977e-05,6.184239737922326e-05,7.421087685506791e-05
1636986674.3107812,5.0,0.0,0.022543758153915405,1.1268606185913086,0.23288752138614655,-0.06966553628444672,0.9203162789344788,0.6883179545402527,0.01808890700340271,0.8000071048736572,0.6944119930267334,-0.24595288932323456,0.8644776344299316,0.6688013076782227,-0.40937888622283936,0.8170928955078125,0.5181689262390137,-0.38745391368865967,0.6465931534767151,0.2201053500175476,0.10662183165550232,0.9761549234390259,0.7078346610069275,0.2709794044494629,1.0372109413146973,0.5737289190292358,0.4392499625682831,1.0016248226165771,0.38204967975616455,-0.12536156177520752,0.6295158267021179,0.16688956320285797,-0.052472472190856934,0.918836236000061,0.7914435267448425,0.09700468182563782,0.8983533382415771,0.8886128664016724,-0.22431540489196777,0.8358191847801208,0.7495027780532837,-0.40911978483200073,0.8062893748283386,0.5660533308982849,-0.4231496751308441,0.7403168082237244,0.3045174777507782,0.1193704605102539,1.001853346824646,0.8333843350410461,0.35305461287498474,1.172427773475647,0.7674523591995239,0.6450234055519104,1.2746785879135132,0.6790931224822998,0.022543758153915405,1.1268606185913086,0.23288752138614655,-0.07578112185001373,0.9066176414489746,0.7185234427452087,0.07344368100166321,0.8861693143844604,0.8155287504196167,-0.24254760146141052,0.8537947535514832,0.7000607848167419,-0.43447041511535645,0.798147439956665,0.5231624245643616,-0.4124770760536194,0.6271159648895264,0.22416932880878448,0.09098537266254425,0.9594405889511108,0.7369860410690308,0.3025663197040558,1.1138811111450195,0.6772903203964233,0.530827522277832,1.065608024597168,0.41727492213249207,0.0,0.0,0.0,0.0,0.0,0.3370000123977661,-0.10066579282283783,0.1848691999912262,0.3371734917163849,-0.22882935404777527,0.42023709416389465,0.33740106225013733,-0.3122791647911072,0.5734897255897522,0.3375384211540222,-0.379230260848999,0.6964430809020996,0.3376486301422119,2.0694308494567872,1.5699721279144288,-2.4897587526356802e-05,-1.8552719213766977e-05,6.184239737922326e-05,7.421087685506791e-05
1636986674.3138683,5.0,0.0,0.022543758153915405,1.1268606185913086,0.23288752138614655,-0.06966553628444672,0.9203162789344788,0.6883179545402527,0.01808890700340271,0.8000071048736572,0.6944119930267334,-0.24595288932323456,0.8644776344299316,0.6688013076782227,-0.40937888622283936,0.8170928955078125,0.5181689262390137,-0.38745391368865967,0.6465931534767151,0.2201053500175476,0.10662183165550232,0.9761549234390259,0.7078346610069275,0.2709794044494629,1.0372109413146973,0.5737289190292358,0.4392499625682831,1.0016248226165771,0.38204967975616455,-0.12536156177520752,0.6295158267021179,0.16688956320285797,-0.052472472190856934,0.918836236000061,0.7914435267448425,0.09700468182563782,0.8983533382415771,0.8886128664016724,-0.22431540489196777,0.8358191847801208,0.7495027780532837,-0.40911978483200073,0.8062893748283386,0.5660533308982849,-0.4231496751308441,0.7403168082237244,0.3045174777507782,0.1193704605102539,1.001853346824646,0.8333843350410461,0.35305461287498474,1.172427773475647,0.7674523591995239,0.6450234055519104,1.2746785879135132,0.6790931224822998,0.022543758153915405,1.1268606185913086,0.23288752138614655,-0.07578112185001373,0.9066176414489746,0.7185234427452087,0.07344368100166321,0.8861693143844604,0.8155287504196167,-0.24254760146141052,0.8537947535514832,0.7000607848167419,-0.43447041511535645,0.798147439956665,0.5231624245643616,-0.4124770760536194,0.6271159648895264,0.22416932880878448,0.09098537266254425,0.9594405889511108,0.7369860410690308,0.3025663197040558,1.1138811111450195,0.6772903203964233,0.530827522277832,1.065608024597168,0.41727492213249207,0.0,0.0,0.0,0.0,0.0,0.3370000123977661,-0.10066579282283783,0.1848691999912262,0.3371734917163849,-0.22882935404777527,0.42023709416389465,0.33740106225013733,-0.3122791647911072,0.5734897255897522,0.3375384211540222,-0.379230260848999,0.6964430809020996,0.3376486301422119,2.0694308494567872,1.5699721279144288,-2.4897587526356802e-05,-1.8552719213766977e-05,6.184239737922326e-05,7.421087685506791e-05
1636986674.3437712,5.0,0.0,0.025387432426214218,1.129108190536499,0.2278892546892166,-0.07057211548089981,0.9186384677886963,0.6805459260940552,0.01890094205737114,0.7987262010574341,0.6937975287437439,-0.23932446539402008,0.8652409315109253,0.6581501364707947,-0.4144590497016907,0.8073999881744385,0.5108703374862671,-0.38535135984420776,0.6584110856056213,0.22712448239326477,0.09818023443222046,0.9720359444618225,0.7029417753219604,0.26818305253982544,1.0297316312789917,0.5811055898666382,0.44646668434143066,1.00684654712677,0.3872779905796051,-0.12536156177520752,0.6295158267021179,0.16688956320285797,-0.052472472190856934,0.918836236000061,0.7914435267448425,0.09700468182563782,0.8983533382415771,0.8886128664016724,-0.22431540489196777,0.8358191847801208,0.7495027780532837,-0.40911978483200073,0.8062893748283386,0.5660533308982849,-0.4231496751308441,0.7403168082237244,0.3045174777507782,0.1193704605102539,1.001853346824646,0.8333843350410461,0.35305461287498474,1.172427773475647,0.7674523591995239,0.6450234055519104,1.2746785879135132,0.6790931224822998,0.025387432426214218,1.129108190536499,0.2278892546892166,-0.07697130739688873,0.9046029448509216,0.7107319831848145,0.07225349545478821,0.8841546177864075,0.8077372908592224,-0.2433529943227768,0.8519556522369385,0.6886507868766785,-0.4413790702819824,0.7865543961524963,0.5221204161643982,-0.41015902161598206,0.6267532706260681,0.21778297424316406,0.08941038697957993,0.9572502970695496,0.7328131794929504,0.30099132657051086,1.111690878868103,0.673117458820343,0.5366021394729614,1.0814471244812012,0.4169645309448242,0.0,0.0,0.0,0.0,0.0,0.3370000123977661,-0.10066670179367065,0.1848686933517456,0.3371734917163849,-0.2288314253091812,0.4202359616756439,0.33740106225013733,-0.3122819662094116,0.573488175868988,0.3375384211540222,-0.379233717918396,0.6964412331581116,0.3376486301422119,2.0694308494567872,1.5699721279144288,-2.4897587526356802e-05,-1.8552719213766977e-05,6.184239737922326e-05,7.421087685506791e-05
1636986674.3464072,5.0,0.0,0.025387432426214218,1.129108190536499,0.2278892546892166,-0.07057211548089981,0.9186384677886963,0.6805459260940552,0.01890094205737114,0.7987262010574341,0.6937975287437439,-0.23932446539402008,0.8652409315109253,0.6581501364707947,-0.4144590497016907,0.8073999881744385,0.5108703374862671,-0.38535135984420776,0.6584110856056213,0.22712448239326477,0.09818023443222046,0.9720359444618225,0.7029417753219604,0.26818305253982544,1.0297316312789917,0.5811055898666382,0.44646668434143066,1.00684654712677,0.3872779905796051,-0.12536156177520752,0.6295158267021179,0.16688956320285797,-0.052472472190856934,0.918836236000061,0.7914435267448425,0.09700468182563782,0.8983533382415771,0.8886128664016724,-0.22431540489196777,0.8358191847801208,0.7495027780532837,-0.40911978483200073,0.8062893748283386,0.5660533308982849,-0.4231496751308441,0.7403168082237244,0.3045174777507782,0.1193704605102539,1.001853346824646,0.8333843350410461,0.35305461287498474,1.172427773475647,0.7674523591995239,0.6450234055519104,1.2746785879135132,0.6790931224822998,0.025387432426214218,1.129108190536499,0.2278892546892166,-0.07697130739688873,0.9046029448509216,0.7107319831848145,0.07225349545478821,0.8841546177864075,0.8077372908592224,-0.2433529943227768,0.8519556522369385,0.6886507868766785,-0.4413790702819824,0.7865543961524963,0.5221204161643982,-0.41015902161598206,0.6267532706260681,0.21778297424316406,0.08941038697957993,0.9572502970695496,0.7328131794929504,0.30099132657051086,1.111690878868103,0.673117458820343,0.5366021394729614,1.0814471244812012,0.4169645309448242,0.0,0.0,0.0,0.0,0.0,0.3370000123977661,-0.10066670179367065,0.1848686933517456,0.3371734917163849,-0.2288314253091812,0.4202359616756439,0.33740106225013733,-0.3122819662094116,0.573488175868988,0.3375384211540222,-0.379233717918396,0.6964412331581116,0.3376486301422119,2.0694308494567872,1.5699721279144288,-2.4897587526356802e-05,-1.8552719213766977e-05,6.184239737922326e-05,7.421087685506791e-05
