UF-SAMM-Lab/NSF_project_archive_data/MSEC_2022/skeleton_fusion_data/data_files/reject/dynamic/location_test_2021_11_15_09_32_15_OpenPose.csv
Time,Test Joint,Touch Active,H1-Pelvis-x,H1-Pelvis-y,H1-Pelvis-z,H1-Spine-x,H1-Spine-y,H1-Spine-z,H1-Head-x,H1-Head-y,H1-Head-z,H1-R-Shoulder-x,H1-R-Shoulder-y,H1-R-Shoulder-z,H1-R-Elbow-x,H1-R-Elbow-y,H1-R-Elbow-z,H1-R-Wrist-x,H1-R-Wrist-y,H1-R-Wrist-z,H1-L-Shoulder-x,H1-L-Shoulder-y,H1-L-Shoulder-z,H1-L-Elbow-x,H1-L-Elbow-y,H1-L-Elbow-z,H1-L-Wrist-x,H1-L-Wrist-y,H1-L-Wrist-z,H2-Pelvis-x,H2-Pelvis-y,H2-Pelvis-z,H2-Spine-x,H2-Spine-y,H2-Spine-z,H2-Head-x,H2-Head-y,H2-Head-z,H2-R-Shoulder-x,H2-R-Shoulder-y,H2-R-Shoulder-z,H2-R-Elbow-x,H2-R-Elbow-y,H2-R-Elbow-z,H2-R-Wrist-x,H2-R-Wrist-y,H2-R-Wrist-z,H2-L-Shoulder-x,H2-L-Shoulder-y,H2-L-Shoulder-z,H2-L-Elbow-x,H2-L-Elbow-y,H2-L-Elbow-z,H2-L-Wrist-x,H2-L-Wrist-y,H2-L-Wrist-z,HC-Pelvis-x,HC-Pelvis-y,HC-Pelvis-z,HC-Spine-x,HC-Spine-y,HC-Spine-z,HC-Head-x,HC-Head-y,HC-Head-z,HC-R-Shoulder-x,HC-R-Shoulder-y,HC-R-Shoulder-z,HC-R-Elbow-x,HC-R-Elbow-y,HC-R-Elbow-z,HC-R-Wrist-x,HC-R-Wrist-y,HC-R-Wrist-z,HC-L-Shoulder-x,HC-L-Shoulder-y,HC-L-Shoulder-z,HC-L-Elbow-x,HC-L-Elbow-y,HC-L-Elbow-z,HC-L-Wrist-x,HC-L-Wrist-y,HC-L-Wrist-z,Robot-Base(x),Robot-Base(y),Robot-Base(z),Robot-J2(x),Robot-J2(y),Robot-J2(z),Robot-J3(x),Robot-J3(y),Robot-J3(z),Robot-J5(x),Robot-J5(y),Robot-J5(z),Robot-J6(x),Robot-J6(y),Robot-J6(z),Robot-EE(x),Robot-EE(y),Robot-EE(z),Robot-J1-angle,Robot-J2-angle,Robot-J3-angle,Robot-J4-angle,Robot-J5-angle,Robot-J6-angle
1636986735.3304207,5.0,0.0,-0.001981159672141075,1.1179367303848267,0.21850745379924774,-0.08886177092790604,0.8971720337867737,0.6565098762512207,0.002916250843554735,0.7765591144561768,0.6523282527923584,-0.26557865738868713,0.8504760265350342,0.6420532464981079,-0.4477764964103699,0.8297426700592041,0.5155075192451477,-0.36692801117897034,0.6327225565910339,0.206830233335495,0.08785513043403625,0.943868100643158,0.6709665060043335,0.26662975549697876,1.0202443599700928,0.5268927812576294,0.43997180461883545,1.0016911029815674,0.32348382472991943,-0.04163012281060219,1.0098451375961304,0.2564098536968231,-0.05488582327961922,0.9371898770332336,0.7875967025756836,0.08188698440790176,0.8320682644844055,0.824865460395813,-0.23361261188983917,0.8608070015907288,0.7529088854789734,-0.4389432966709137,0.7690986394882202,0.5372601747512817,-0.4245678782463074,0.731776237487793,0.30821993947029114,0.12384096533060074,1.0135726928710938,0.8222845792770386,0.3202233612537384,1.1364037990570068,0.7111043930053711,0.5420589447021484,1.1512629985809326,0.5498504042625427,-0.001981159672141075,1.1179367303848267,0.21850745379924774,-0.09655438363552094,0.877625048160553,0.6952916979789734,0.011891539208590984,0.735107421875,0.6903505921363831,-0.2660916745662689,0.8328261375427246,0.6814224123954773,-0.4413962960243225,0.7530823945999146,0.49667057394981384,-0.4199688732624054,0.6989525556564331,0.15646006166934967,0.07298289984464645,0.9224239587783813,0.7091609835624695,0.27147960662841797,1.0072258710861206,0.5491933226585388,0.4975249469280243,0.9830315709114075,0.2839394211769104,0.0,0.0,0.0,0.0,0.0,0.3370000123977661,-0.10088430345058441,0.184750035405159,0.33717241883277893,-0.229326069355011,0.4199662506580353,0.33738261461257935,-0.3129570186138153,0.5731201171875,0.33751407265663147,-0.38005346059799194,0.6959942579269409,0.3376195430755615,2.070608277130127,1.5699771869659425,3.485662213061005e-05,3.7105438427533954e-05,3.092119868961163e-05,9.27635899744928e-05
1636986735.356703,5.0,0.0,-0.008597961626946926,1.1310651302337646,0.22125054895877838,-0.07583685964345932,0.8962925672531128,0.659256100654602,0.004250086843967438,0.77451092004776,0.6513819098472595,-0.24636808037757874,0.8417565822601318,0.6414286494255066,-0.437002569437027,0.8331509232521057,0.5205045938491821,-0.3668491840362549,0.6326388120651245,0.20681142807006836,0.0946943536400795,0.9508285522460938,0.6770835518836975,0.2677110433578491,1.017777681350708,0.526049017906189,0.43961796164512634,1.0026895999908447,0.32372531294822693,-0.04163012281060219,1.0098451375961304,0.2564098536968231,-0.05488582327961922,0.9371898770332336,0.7875967025756836,0.08188698440790176,0.8320682644844055,0.824865460395813,-0.23361261188983917,0.8608070015907288,0.7529088854789734,-0.4389432966709137,0.7690986394882202,0.5372601747512817,-0.4245678782463074,0.731776237487793,0.30821993947029114,0.12384096533060074,1.0135726928710938,0.8222845792770386,0.3202233612537384,1.1364037990570068,0.7111043930053711,0.5420589447021484,1.1512629985809326,0.5498504042625427,-0.008597961626946926,1.1310651302337646,0.22125054895877838,-0.07812419533729553,0.8752809166908264,0.694280743598938,0.018674703314900398,0.72488933801651,0.6838623285293579,-0.24439309537410736,0.8207264542579651,0.6763739585876465,-0.4202714264392853,0.7421725988388062,0.4916576147079468,-0.3989311158657074,0.6867674589157104,0.15164701640605927,0.0881447046995163,0.9298354387283325,0.7121875286102295,0.2817617654800415,1.003656268119812,0.5411761999130249,0.5075547695159912,0.984468400478363,0.2752987742424011,0.0,0.0,0.0,0.0,0.0,0.3370000123977661,-0.10088430345058441,0.184750035405159,0.33717241883277893,-0.229326069355011,0.4199662506580353,0.33738261461257935,-0.3129570186138153,0.5731201171875,0.33751407265663147,-0.38005346059799194,0.6959942579269409,0.3376195430755615,2.070608277130127,1.5699771869659425,3.485662213061005e-05,3.7105438427533954e-05,3.092119868961163e-05,9.27635899744928e-05
1636986735.3634179,5.0,0.0,-0.008597961626946926,1.1310651302337646,0.22125054895877838,-0.07583685964345932,0.8962925672531128,0.659256100654602,0.004250086843967438,0.77451092004776,0.6513819098472595,-0.24636808037757874,0.8417565822601318,0.6414286494255066,-0.437002569437027,0.8331509232521057,0.5205045938491821,-0.3668491840362549,0.6326388120651245,0.20681142807006836,0.0946943536400795,0.9508285522460938,0.6770835518836975,0.2677110433578491,1.017777681350708,0.526049017906189,0.43961796164512634,1.0026895999908447,0.32372531294822693,-0.04163012281060219,1.0098451375961304,0.2564098536968231,-0.05488582327961922,0.9371898770332336,0.7875967025756836,0.08188698440790176,0.8320682644844055,0.824865460395813,-0.23361261188983917,0.8608070015907288,0.7529088854789734,-0.4389432966709137,0.7690986394882202,0.5372601747512817,-0.4245678782463074,0.731776237487793,0.30821993947029114,0.12384096533060074,1.0135726928710938,0.8222845792770386,0.3202233612537384,1.1364037990570068,0.7111043930053711,0.5420589447021484,1.1512629985809326,0.5498504042625427,-0.008597961626946926,1.1310651302337646,0.22125054895877838,-0.08130025863647461,0.8772165179252625,0.6948455572128296,0.016994548961520195,0.7277476787567139,0.685181200504303,-0.24802063405513763,0.8238992094993591,0.6774165034294128,-0.42389896512031555,0.7453453540802002,0.4927001893520355,-0.40255865454673767,0.6899402141571045,0.15268957614898682,0.08542012423276901,0.930533766746521,0.7122746706008911,0.27973073720932007,1.0057226419448853,0.5426515936851501,0.5055665373802185,0.9859012961387634,0.2768569886684418,0.0,0.0,0.0,0.0,0.0,0.3370000123977661,-0.10088430345058441,0.184750035405159,0.33717241883277893,-0.229326069355011,0.4199662506580353,0.33738261461257935,-0.3129570186138153,0.5731201171875,0.33751407265663147,-0.38005346059799194,0.6959942579269409,0.3376195430755615,2.070608277130127,1.5699771869659425,3.485662213061005e-05,3.7105438427533954e-05,3.092119868961163e-05,9.27635899744928e-05
1636986735.3897212,5.0,0.0,-0.008597961626946926,1.1310651302337646,0.22125054895877838,-0.07583685964345932,0.8962925672531128,0.659256100654602,0.004250086843967438,0.77451092004776,0.6513819098472595,-0.24636808037757874,0.8417565822601318,0.6414286494255066,-0.437002569437027,0.8331509232521057,0.5205045938491821,-0.3668491840362549,0.6326388120651245,0.20681142807006836,0.0946943536400795,0.9508285522460938,0.6770835518836975,0.2677110433578491,1.017777681350708,0.526049017906189,0.43961796164512634,1.0026895999908447,0.32372531294822693,-0.1571831852197647,0.6197636127471924,0.17203636467456818,-0.05076243355870247,0.9405648708343506,0.7900993824005127,0.07782020419836044,0.8206889033317566,0.8180736899375916,-0.22439953684806824,0.8703454732894897,0.7594321370124817,-0.43633580207824707,0.7978055477142334,0.550554633140564,-0.4300781190395355,0.7399985790252686,0.31023699045181274,0.1228746771812439,1.0107842683792114,0.8207666277885437,0.3093397915363312,1.131720781326294,0.716644823551178,0.5649765133857727,1.1781013011932373,0.5615198016166687,-0.008597961626946926,1.1310651302337646,0.22125054895877838,-0.08130025863647461,0.8772165179252625,0.6948455572128296,0.016994548961520195,0.7277476787567139,0.685181200504303,-0.24802063405513763,0.8238992094993591,0.6774165034294128,-0.43189677596092224,0.7590505480766296,0.4951852560043335,-0.37154361605644226,0.5883647799491882,0.20132099092006683,0.08542012423276901,0.930533766746521,0.7122746706008911,0.27973073720932007,1.0057226419448853,0.5426515936851501,0.5055665373802185,0.9859012961387634,0.2768569886684418,0.0,0.0,0.0,0.0,0.0,0.3370000123977661,-0.10088430345058441,0.184750035405159,0.33717241883277893,-0.229326069355011,0.4199662506580353,0.33738261461257935,-0.3129570186138153,0.5731201171875,0.33751407265663147,-0.38005346059799194,0.6959942579269409,0.3376195430755615,2.070608277130127,1.5699771869659425,3.485662213061005e-05,3.7105438427533954e-05,3.092119868961163e-05,9.27635899744928e-05
1636986735.3964138,5.0,0.0,-0.008597961626946926,1.1310651302337646,0.22125054895877838,-0.07583685964345932,0.8962925672531128,0.659256100654602,0.004250086843967438,0.77451092004776,0.6513819098472595,-0.24636808037757874,0.8417565822601318,0.6414286494255066,-0.437002569437027,0.8331509232521057,0.5205045938491821,-0.3668491840362549,0.6326388120651245,0.20681142807006836,0.0946943536400795,0.9508285522460938,0.6770835518836975,0.2677110433578491,1.017777681350708,0.526049017906189,0.43961796164512634,1.0026895999908447,0.32372531294822693,-0.1571831852197647,0.6197636127471924,0.17203636467456818,-0.05076243355870247,0.9405648708343506,0.7900993824005127,0.07782020419836044,0.8206889033317566,0.8180736899375916,-0.22439953684806824,0.8703454732894897,0.7594321370124817,-0.43633580207824707,0.7978055477142334,0.550554633140564,-0.4300781190395355,0.7399985790252686,0.31023699045181274,0.1228746771812439,1.0107842683792114,0.8207666277885437,0.3093397915363312,1.131720781326294,0.716644823551178,0.5649765133857727,1.1781013011932373,0.5615198016166687,-0.008597961626946926,1.1310651302337646,0.22125054895877838,-0.08130025863647461,0.8772165179252625,0.6948455572128296,0.016994548961520195,0.7277476787567139,0.685181200504303,-0.24802063405513763,0.8238992094993591,0.6774165034294128,-0.4330120384693146,0.7613752484321594,0.4955018162727356,-0.3676880896091461,0.5738368630409241,0.2131996750831604,0.08542012423276901,0.930533766746521,0.7122746706008911,0.27973073720932007,1.0057226419448853,0.5426515936851501,0.5055665373802185,0.9859012961387634,0.2768569886684418,0.0,0.0,0.0,0.0,0.0,0.3370000123977661,-0.10088430345058441,0.184750035405159,0.33717241883277893,-0.229326069355011,0.4199662506580353,0.33738261461257935,-0.3129570186138153,0.5731201171875,0.33751407265663147,-0.38005346059799194,0.6959942579269409,0.3376195430755615,2.070608277130127,1.5699771869659425,3.485662213061005e-05,3.7105438427533954e-05,3.092119868961163e-05,9.27635899744928e-05
1636986735.4227161,5.0,0.0,0.0016211495967581868,1.128578543663025,0.2176053524017334,-0.07948780804872513,0.9007488489151001,0.6612206697463989,0.003360866801813245,0.7758763432502747,0.6520127654075623,-0.25484132766723633,0.8528223037719727,0.6462898254394531,-0.44222939014434814,0.8323683738708496,0.5051831007003784,-0.38563379645347595,0.644669234752655,0.21966098248958588,0.09586570411920547,0.9486754536628723,0.6761515140533447,0.2637617886066437,1.0267866849899292,0.5291308164596558,0.42908090353012085,1.0066343545913696,0.3206815719604492,-0.1571831852197647,0.6197636127471924,0.17203636467456818,-0.05076243355870247,0.9405648708343506,0.7900993824005127,0.07782020419836044,0.8206889033317566,0.8180736899375916,-0.22439953684806824,0.8703454732894897,0.7594321370124817,-0.43633580207824707,0.7978055477142334,0.550554633140564,-0.4300781190395355,0.7399985790252686,0.31023699045181274,0.1228746771812439,1.0107842683792114,0.8207666277885437,0.3093397915363312,1.131720781326294,0.716644823551178,0.5649765133857727,1.1781013011932373,0.5615198016166687,0.0016211495967581868,1.128578543663025,0.2176053524017334,-0.08603402227163315,0.8844738006591797,0.6937843561172485,0.012849053367972374,0.7354893088340759,0.6827406883239746,-0.2552385628223419,0.8385546207427979,0.6795209050178528,-0.4399086833000183,0.7753471732139587,0.49751603603363037,-0.38383543491363525,0.5881216526031494,0.21302571892738342,0.08317051082849503,0.9303929805755615,0.7080477476119995,0.27376407384872437,1.0197192430496216,0.5410840511322021,0.4898107647895813,0.9930704832077026,0.2678530812263489,0.0,0.0,0.0,0.0,0.0,0.3370000123977661,-0.10088430345058441,0.184750035405159,0.33717241883277893,-0.229326069355011,0.4199662506580353,0.33738261461257935,-0.3129570186138153,0.5731201171875,0.33751407265663147,-0.38005346059799194,0.6959942579269409,0.3376195430755615,2.070608277130127,1.5699771869659425,3.485662213061005e-05,3.7105438427533954e-05,3.092119868961163e-05,9.27635899744928e-05
1636986735.4294124,5.0,0.0,0.0016211495967581868,1.128578543663025,0.2176053524017334,-0.07948780804872513,0.9007488489151001,0.6612206697463989,0.003360866801813245,0.7758763432502747,0.6520127654075623,-0.25484132766723633,0.8528223037719727,0.6462898254394531,-0.44222939014434814,0.8323683738708496,0.5051831007003784,-0.38563379645347595,0.644669234752655,0.21966098248958588,0.09586570411920547,0.9486754536628723,0.6761515140533447,0.2637617886066437,1.0267866849899292,0.5291308164596558,0.42908090353012085,1.0066343545913696,0.3206815719604492,-0.1571831852197647,0.6197636127471924,0.17203636467456818,-0.05076243355870247,0.9405648708343506,0.7900993824005127,0.07782020419836044,0.8206889033317566,0.8180736899375916,-0.22439953684806824,0.8703454732894897,0.7594321370124817,-0.43633580207824707,0.7978055477142334,0.550554633140564,-0.4300781190395355,0.7399985790252686,0.31023699045181274,0.1228746771812439,1.0107842683792114,0.8207666277885437,0.3093397915363312,1.131720781326294,0.716644823551178,0.5649765133857727,1.1781013011932373,0.5615198016166687,0.0016211495967581868,1.128578543663025,0.2176053524017334,-0.08542448282241821,0.8840731382369995,0.6936905980110168,0.013434854336082935,0.7350687384605408,0.6827031970024109,-0.2545354664325714,0.8378527164459229,0.6792912483215332,-0.4392055869102478,0.7746452689170837,0.4972863793373108,-0.382804811000824,0.587592363357544,0.2127472460269928,0.08368650078773499,0.9302935600280762,0.7080898880958557,0.27446413040161133,1.019050121307373,0.541032612323761,0.49092260003089905,0.9926639199256897,0.2681022584438324,0.0,0.0,0.0,0.0,0.0,0.3370000123977661,-0.10088430345058441,0.184750035405159,0.33717241883277893,-0.229326069355011,0.4199662506580353,0.33738261461257935,-0.3129570186138153,0.5731201171875,0.33751407265663147,-0.38005346059799194,0.6959942579269409,0.3376195430755615,2.070608277130127,1.5699771869659425,3.485662213061005e-05,3.7105438427533954e-05,3.092119868961163e-05,9.27635899744928e-05
1636986735.4557002,5.0,0.0,0.0016211495967581868,1.128578543663025,0.2176053524017334,-0.07948780804872513,0.9007488489151001,0.6612206697463989,0.003360866801813245,0.7758763432502747,0.6520127654075623,-0.25484132766723633,0.8528223037719727,0.6462898254394531,-0.44222939014434814,0.8323683738708496,0.5051831007003784,-0.38563379645347595,0.644669234752655,0.21966098248958588,0.09586570411920547,0.9486754536628723,0.6761515140533447,0.2637617886066437,1.0267866849899292,0.5291308164596558,0.42908090353012085,1.0066343545913696,0.3206815719604492,-0.06648121029138565,0.9016774892807007,0.234038308262825,-0.06198880448937416,0.9126606583595276,0.7741802930831909,0.0860554426908493,0.8437321186065674,0.83182692527771,-0.23705585300922394,0.8428058624267578,0.7429828643798828,-0.4294809401035309,0.7992936372756958,0.552295446395874,-0.4250112473964691,0.7273659110069275,0.30668720602989197,0.11307824403047562,0.9825155138969421,0.8053776621818542,0.2926345765590668,1.1122403144836426,0.6972916126251221,0.54893559217453,1.1827296018600464,0.5609251260757446,0.0016211495967581868,1.128578543663025,0.2176053524017334,-0.08542448282241821,0.8840731382369995,0.6936905980110168,0.013434854336082935,0.7350687384605408,0.6827031970024109,-0.2545354664325714,0.8378527164459229,0.6792912483215332,-0.4417208135128021,0.796417236328125,0.4936336278915405,-0.3853200376033783,0.6093643307685852,0.20909449458122253,0.08368650078773499,0.9302935600280762,0.7080898880958557,0.27446413040161133,1.019050121307373,0.541032612323761,0.49092260003089905,0.9926639199256897,0.2681022584438324,0.0,0.0,0.0,0.0,0.0,0.3370000123977661,-0.10088430345058441,0.184750035405159,0.33717241883277893,-0.229326069355011,0.4199662506580353,0.33738261461257935,-0.3129570186138153,0.5731201171875,0.33751407265663147,-0.38005346059799194,0.6959942579269409,0.3376195430755615,2.070608277130127,1.5699771869659425,3.485662213061005e-05,3.7105438427533954e-05,3.092119868961163e-05,9.27635899744928e-05
1636986735.462451,5.0,0.0,0.0016211495967581868,1.128578543663025,0.2176053524017334,-0.07948780804872513,0.9007488489151001,0.6612206697463989,0.003360866801813245,0.7758763432502747,0.6520127654075623,-0.25484132766723633,0.8528223037719727,0.6462898254394531,-0.44222939014434814,0.8323683738708496,0.5051831007003784,-0.38563379645347595,0.644669234752655,0.21966098248958588,0.09586570411920547,0.9486754536628723,0.6761515140533447,0.2637617886066437,1.0267866849899292,0.5291308164596558,0.42908090353012085,1.0066343545913696,0.3206815719604492,-0.06648121029138565,0.9016774892807007,0.234038308262825,-0.06198880448937416,0.9126606583595276,0.7741802930831909,0.0860554426908493,0.8437321186065674,0.83182692527771,-0.23705585300922394,0.8428058624267578,0.7429828643798828,-0.4294809401035309,0.7992936372756958,0.552295446395874,-0.4250112473964691,0.7273659110069275,0.30668720602989197,0.11307824403047562,0.9825155138969421,0.8053776621818542,0.2926345765590668,1.1122403144836426,0.6972916126251221,0.54893559217453,1.1827296018600464,0.5609251260757446,0.0016211495967581868,1.128578543663025,0.2176053524017334,-0.08542448282241821,0.8840731382369995,0.6936905980110168,0.013434854336082935,0.7350687384605408,0.6827031970024109,-0.2545354664325714,0.8378527164459229,0.6792912483215332,-0.4417019486427307,0.7955296635627747,0.4938149154186249,-0.3853011727333069,0.6084767580032349,0.20927578210830688,0.08368650078773499,0.9302935600280762,0.7080898880958557,0.27446413040161133,1.019050121307373,0.541032612323761,0.49092260003089905,0.9926639199256897,0.2681022584438324,0.0,0.0,0.0,0.0,0.0,0.3370000123977661,-0.10088430345058441,0.184750035405159,0.33717241883277893,-0.229326069355011,0.4199662506580353,0.33738261461257935,-0.3129570186138153,0.5731201171875,0.33751407265663147,-0.38005346059799194,0.6959942579269409,0.3376195430755615,2.070608277130127,1.5699771869659425,3.485662213061005e-05,3.7105438427533954e-05,3.092119868961163e-05,9.27635899744928e-05
1636986735.4894254,5.0,0.0,0.005790040362626314,1.1209195852279663,0.22991284728050232,-0.07911595702171326,0.9059098362922668,0.658258318901062,0.005774319171905518,0.7721702456474304,0.6503005027770996,-0.25484132766723633,0.8528223037719727,0.6462898254394531,-0.4503115117549896,0.8326131701469421,0.5165755152702332,-0.3692936897277832,0.6352353692054749,0.20739483833312988,0.09660940617322922,0.9589974284172058,0.6702268123626709,0.2573205828666687,1.0414804220199585,0.5341572165489197,0.42804813385009766,1.0095114707946777,0.32137152552604675,-0.06648121029138565,0.9016774892807007,0.234038308262825,-0.06198880448937416,0.9126606583595276,0.7741802930831909,0.0860554426908493,0.8437321186065674,0.83182692527771,-0.23705585300922394,0.8428058624267578,0.7429828643798828,-0.4294809401035309,0.7992936372756958,0.552295446395874,-0.4250112473964691,0.7273659110069275,0.30668720602989197,0.11307824403047562,0.9825155138969421,0.8053776621818542,0.2926345765590668,1.1122403144836426,0.6972916126251221,0.54893559217453,1.1827296018600464,0.5609251260757446,0.005790040362626314,1.1209195852279663,0.22991284728050232,-0.08879566937685013,0.8813976645469666,0.7070918679237366,0.007092345040291548,0.7303317785263062,0.6981030702590942,-0.2568264305591583,0.8306347131729126,0.6956474184989929,-0.4439929127693176,0.7883116006851196,0.5101710557937622,-0.3695523738861084,0.6069575548171997,0.226090669631958,0.07923509180545807,0.9321606159210205,0.7185362577438354,0.2701556384563446,1.0301481485366821,0.5568892955780029,0.48729294538497925,0.989488959312439,0.2862609326839447,0.0,0.0,0.0,0.0,0.0,0.3370000123977661,-0.10088430345058441,0.184750035405159,0.33717241883277893,-0.229326069355011,0.4199662506580353,0.33738261461257935,-0.3129570186138153,0.5731201171875,0.33751407265663147,-0.38005346059799194,0.6959942579269409,0.3376195430755615,2.070608277130127,1.5699771869659425,3.485662213061005e-05,3.7105438427533954e-05,3.092119868961163e-05,9.27635899744928e-05
1636986735.4957333,5.0,0.0,0.005790040362626314,1.1209195852279663,0.22991284728050232,-0.07911595702171326,0.9059098362922668,0.658258318901062,0.005774319171905518,0.7721702456474304,0.6503005027770996,-0.25484132766723633,0.8528223037719727,0.6462898254394531,-0.4503115117549896,0.8326131701469421,0.5165755152702332,-0.3692936897277832,0.6352353692054749,0.20739483833312988,0.09660940617322922,0.9589974284172058,0.6702268123626709,0.2573205828666687,1.0414804220199585,0.5341572165489197,0.42804813385009766,1.0095114707946777,0.32137152552604675,-0.06648121029138565,0.9016774892807007,0.234038308262825,-0.06198880448937416,0.9126606583595276,0.7741802930831909,0.0860554426908493,0.8437321186065674,0.83182692527771,-0.23705585300922394,0.8428058624267578,0.7429828643798828,-0.4294809401035309,0.7992936372756958,0.552295446395874,-0.4250112473964691,0.7273659110069275,0.30668720602989197,0.11307824403047562,0.9825155138969421,0.8053776621818542,0.2926345765590668,1.1122403144836426,0.6972916126251221,0.54893559217453,1.1827296018600464,0.5609251260757446,0.005790040362626314,1.1209195852279663,0.22991284728050232,-0.08879566937685013,0.8813976645469666,0.7070918679237366,0.007092345040291548,0.7303317785263062,0.6981030702590942,-0.2568264305591583,0.8306347131729126,0.6956474184989929,-0.4439929127693176,0.7883116006851196,0.5101710557937622,-0.3695523738861084,0.6069575548171997,0.226090669631958,0.07923509180545807,0.9321606159210205,0.7185362577438354,0.2701556384563446,1.0301481485366821,0.5568892955780029,0.48729294538497925,0.989488959312439,0.2862609326839447,0.0,0.0,0.0,0.0,0.0,0.3370000123977661,-0.10088430345058441,0.184750035405159,0.33717241883277893,-0.229326069355011,0.4199662506580353,0.33738261461257935,-0.3129570186138153,0.5731201171875,0.33751407265663147,-0.38005346059799194,0.6959942579269409,0.3376195430755615,2.070608277130127,1.5699771869659425,3.485662213061005e-05,3.7105438427533954e-05,3.092119868961163e-05,9.27635899744928e-05
1636986735.521707,5.0,0.0,0.005790040362626314,1.1209195852279663,0.22991284728050232,-0.07911595702171326,0.9059098362922668,0.658258318901062,0.005774319171905518,0.7721702456474304,0.6503005027770996,-0.25484132766723633,0.8528223037719727,0.6462898254394531,-0.4503115117549896,0.8326131701469421,0.5165755152702332,-0.3692936897277832,0.6352353692054749,0.20739483833312988,0.09660940617322922,0.9589974284172058,0.6702268123626709,0.2573205828666687,1.0414804220199585,0.5341572165489197,0.42804813385009766,1.0095114707946777,0.32137152552604675,-0.1293027400970459,0.7158788442611694,0.1819072961807251,-0.061482951045036316,0.9177135229110718,0.7769167423248291,0.08808804303407669,0.8499001860618591,0.8438210487365723,-0.22777344286441803,0.8530458211898804,0.7498818635940552,-0.43705031275749207,0.7899391055107117,0.5469115972518921,-0.42429423332214355,0.7289658784866333,0.30061373114585876,0.104807548224926,0.9823811650276184,0.803951621055603,0.2891019880771637,1.1251899003982544,0.7019996047019958,0.5082155466079712,1.1202812194824219,0.526661217212677,0.005790040362626314,1.1209195852279663,0.22991284728050232,-0.08879566937685013,0.8813976645469666,0.7070918679237366,0.007092345040291548,0.7303317785263062,0.6981030702590942,-0.2568264305591583,0.8306347131729126,0.6956474184989929,-0.44406595826148987,0.7741732597351074,0.5140504240989685,-0.36962541937828064,0.5928192138671875,0.22997000813484192,0.07923509180545807,0.9321606159210205,0.7185362577438354,0.2701556384563446,1.0301481485366821,0.5568892955780029,0.48729294538497925,0.989488959312439,0.2862609326839447,0.0,0.0,0.0,0.0,0.0,0.3370000123977661,-0.10088430345058441,0.184750035405159,0.33717241883277893,-0.229326069355011,0.4199662506580353,0.33738261461257935,-0.3129570186138153,0.5731201171875,0.33751407265663147,-0.38005346059799194,0.6959942579269409,0.3376195430755615,2.070608277130127,1.5699771869659425,3.485662213061005e-05,3.7105438427533954e-05,3.092119868961163e-05,9.27635899744928e-05
1636986735.5284164,5.0,0.0,0.005790040362626314,1.1209195852279663,0.22991284728050232,-0.07911595702171326,0.9059098362922668,0.658258318901062,0.005774319171905518,0.7721702456474304,0.6503005027770996,-0.25484132766723633,0.8528223037719727,0.6462898254394531,-0.4503115117549896,0.8326131701469421,0.5165755152702332,-0.3692936897277832,0.6352353692054749,0.20739483833312988,0.09660940617322922,0.9589974284172058,0.6702268123626709,0.2573205828666687,1.0414804220199585,0.5341572165489197,0.42804813385009766,1.0095114707946777,0.32137152552604675,-0.1293027400970459,0.7158788442611694,0.1819072961807251,-0.061482951045036316,0.9177135229110718,0.7769167423248291,0.08808804303407669,0.8499001860618591,0.8438210487365723,-0.22777344286441803,0.8530458211898804,0.7498818635940552,-0.43705031275749207,0.7899391055107117,0.5469115972518921,-0.42429423332214355,0.7289658784866333,0.30061373114585876,0.104807548224926,0.9823811650276184,0.803951621055603,0.2891019880771637,1.1251899003982544,0.7019996047019958,0.5082155466079712,1.1202812194824219,0.526661217212677,0.005790040362626314,1.1209195852279663,0.22991284728050232,-0.08879566937685013,0.8813976645469666,0.7070918679237366,0.007092345040291548,0.7303317785263062,0.6981030702590942,-0.2568264305591583,0.8306347131729126,0.6956474184989929,-0.44406595826148987,0.7741732597351074,0.5140504240989685,-0.36962541937828064,0.5928192138671875,0.22997000813484192,0.07923509180545807,0.9321606159210205,0.7185362577438354,0.2701556384563446,1.0301481485366821,0.5568892955780029,0.48729294538497925,0.989488959312439,0.2862609326839447,0.0,0.0,0.0,0.0,0.0,0.3370000123977661,-0.10088430345058441,0.184750035405159,0.33717241883277893,-0.229326069355011,0.4199662506580353,0.33738261461257935,-0.3129570186138153,0.5731201171875,0.33751407265663147,-0.38005346059799194,0.6959942579269409,0.3376195430755615,2.070608277130127,1.5699771869659425,3.485662213061005e-05,3.7105438427533954e-05,3.092119868961163e-05,9.27635899744928e-05
1636986735.5547462,5.0,0.0,-0.0022967038676142693,1.122833251953125,0.22745381295681,-0.08287150412797928,0.9065927863121033,0.6637563705444336,0.009103416465222836,0.773845374584198,0.6638054251670837,-0.25625357031822205,0.8546666502952576,0.647100031375885,-0.4355001151561737,0.8404053449630737,0.5119009613990784,-0.3696092665195465,0.6355705857276917,0.20747016370296478,0.09051056206226349,0.958518922328949,0.6804127097129822,0.25181975960731506,1.054028868675232,0.538449764251709,0.4147055149078369,1.0209009647369385,0.3200550079345703,-0.1293027400970459,0.7158788442611694,0.1819072961807251,-0.061482951045036316,0.9177135229110718,0.7769167423248291,0.08808804303407669,0.8499001860618591,0.8438210487365723,-0.22777344286441803,0.8530458211898804,0.7498818635940552,-0.43705031275749207,0.7899391055107117,0.5469115972518921,-0.42429423332214355,0.7289658784866333,0.30061373114585876,0.104807548224926,0.9823811650276184,0.803951621055603,0.2891019880771637,1.1251899003982544,0.7019996047019958,0.5082155466079712,1.1202812194824219,0.526661217212677,-0.0022967038676142693,1.122833251953125,0.22745381295681,-0.09081559628248215,0.8852730393409729,0.7067726254463196,0.011215356178581715,0.7380117774009705,0.7068270444869995,-0.2586155831813812,0.8350186944007874,0.6906525492668152,-0.44585511088371277,0.7785572409629822,0.5090555548667908,-0.3848496675491333,0.5889097452163696,0.22719646990299225,0.07698438316583633,0.9355273842811584,0.722892701625824,0.2612844407558441,1.0446500778198242,0.5606963038444519,0.46861618757247925,1.0024826526641846,0.282709002494812,0.0,0.0,0.0,0.0,0.0,0.3370000123977661,-0.10088430345058441,0.184750035405159,0.33717241883277893,-0.229326069355011,0.4199662506580353,0.33738261461257935,-0.3129570186138153,0.5731201171875,0.33751407265663147,-0.38005346059799194,0.6959942579269409,0.3376195430755615,2.070608277130127,1.5699771869659425,3.485662213061005e-05,3.7105438427533954e-05,3.092119868961163e-05,9.27635899744928e-05
1636986735.561431,5.0,0.0,-0.0022967038676142693,1.122833251953125,0.22745381295681,-0.08287150412797928,0.9065927863121033,0.6637563705444336,0.009103416465222836,0.773845374584198,0.6638054251670837,-0.25625357031822205,0.8546666502952576,0.647100031375885,-0.4355001151561737,0.8404053449630737,0.5119009613990784,-0.3696092665195465,0.6355705857276917,0.20747016370296478,0.09051056206226349,0.958518922328949,0.6804127097129822,0.25181975960731506,1.054028868675232,0.538449764251709,0.4147055149078369,1.0209009647369385,0.3200550079345703,-0.1293027400970459,0.7158788442611694,0.1819072961807251,-0.061482951045036316,0.9177135229110718,0.7769167423248291,0.08808804303407669,0.8499001860618591,0.8438210487365723,-0.22777344286441803,0.8530458211898804,0.7498818635940552,-0.43705031275749207,0.7899391055107117,0.5469115972518921,-0.42429423332214355,0.7289658784866333,0.30061373114585876,0.104807548224926,0.9823811650276184,0.803951621055603,0.2891019880771637,1.1251899003982544,0.7019996047019958,0.5082155466079712,1.1202812194824219,0.526661217212677,-0.0022967038676142693,1.122833251953125,0.22745381295681,-0.09081559628248215,0.8852730393409729,0.7067726254463196,0.011215356178581715,0.7380117774009705,0.7068270444869995,-0.2586155831813812,0.8350186944007874,0.6906525492668152,-0.44585511088371277,0.7785572409629822,0.5090555548667908,-0.3848496675491333,0.5889097452163696,0.22719646990299225,0.07698438316583633,0.9355273842811584,0.722892701625824,0.2612844407558441,1.0446500778198242,0.5606963038444519,0.46861618757247925,1.0024826526641846,0.282709002494812,0.0,0.0,0.0,0.0,0.0,0.3370000123977661,-0.10088430345058441,0.184750035405159,0.33717241883277893,-0.229326069355011,0.4199662506580353,0.33738261461257935,-0.3129570186138153,0.5731201171875,0.33751407265663147,-0.38005346059799194,0.6959942579269409,0.3376195430755615,2.070608277130127,1.5699771869659425,3.485662213061005e-05,3.7105438427533954e-05,3.092119868961163e-05,9.27635899744928e-05
1636986735.587708,5.0,0.0,-0.0022967038676142693,1.122833251953125,0.22745381295681,-0.08287150412797928,0.9065927863121033,0.6637563705444336,0.009103416465222836,0.773845374584198,0.6638054251670837,-0.25625357031822205,0.8546666502952576,0.647100031375885,-0.4355001151561737,0.8404053449630737,0.5119009613990784,-0.3696092665195465,0.6355705857276917,0.20747016370296478,0.09051056206226349,0.958518922328949,0.6804127097129822,0.25181975960731506,1.054028868675232,0.538449764251709,0.4147055149078369,1.0209009647369385,0.3200550079345703,-0.14897367358207703,0.6259014010429382,0.16770455241203308,-0.06848668307065964,0.9177666306495667,0.7717321515083313,0.07657171040773392,0.8394724726676941,0.8361883163452148,-0.24207758903503418,0.852286159992218,0.7390418648719788,-0.4310319721698761,0.7828578352928162,0.5446747541427612,-0.4251379370689392,0.7261057496070862,0.3062492609024048,0.1051042228937149,0.9832471013069153,0.8044224381446838,0.2889609932899475,1.147112250328064,0.7199021577835083,0.5231925845146179,1.1681709289550781,0.5439223647117615,-0.0022967038676142693,1.122833251953125,0.22745381295681,-0.09081559628248215,0.8852730393409729,0.7067726254463196,0.011215356178581715,0.7380117774009705,0.7068270444869995,-0.2586155831813812,0.8350186944007874,0.6906525492668152,-0.43882688879966736,0.7688028216362,0.5052789449691772,-0.3778214454650879,0.5791553854942322,0.2234199196100235,0.07698438316583633,0.9355273842811584,0.722892701625824,0.2612844407558441,1.0446500778198242,0.5606963038444519,0.46861618757247925,1.0024826526641846,0.282709002494812,0.0,0.0,0.0,0.0,0.0,0.3370000123977661,-0.10088430345058441,0.184750035405159,0.33717241883277893,-0.229326069355011,0.4199662506580353,0.33738261461257935,-0.3129570186138153,0.5731201171875,0.33751407265663147,-0.38005346059799194,0.6959942579269409,0.3376195430755615,2.070608277130127,1.5699771869659425,3.485662213061005e-05,3.7105438427533954e-05,3.092119868961163e-05,9.27635899744928e-05
1636986735.5944138,5.0,0.0,-0.0022967038676142693,1.122833251953125,0.22745381295681,-0.08287150412797928,0.9065927863121033,0.6637563705444336,0.009103416465222836,0.773845374584198,0.6638054251670837,-0.25625357031822205,0.8546666502952576,0.647100031375885,-0.4355001151561737,0.8404053449630737,0.5119009613990784,-0.3696092665195465,0.6355705857276917,0.20747016370296478,0.09051056206226349,0.958518922328949,0.6804127097129822,0.25181975960731506,1.054028868675232,0.538449764251709,0.4147055149078369,1.0209009647369385,0.3200550079345703,-0.14897367358207703,0.6259014010429382,0.16770455241203308,-0.06848668307065964,0.9177666306495667,0.7717321515083313,0.07657171040773392,0.8394724726676941,0.8361883163452148,-0.24207758903503418,0.852286159992218,0.7390418648719788,-0.4310319721698761,0.7828578352928162,0.5446747541427612,-0.4251379370689392,0.7261057496070862,0.3062492609024048,0.1051042228937149,0.9832471013069153,0.8044224381446838,0.2889609932899475,1.147112250328064,0.7199021577835083,0.5231925845146179,1.1681709289550781,0.5439223647117615,-0.0022967038676142693,1.122833251953125,0.22745381295681,-0.09081559628248215,0.8852730393409729,0.7067726254463196,0.011215356178581715,0.7380117774009705,0.7068270444869995,-0.2586155831813812,0.8350186944007874,0.6906525492668152,-0.43882688879966736,0.7688028216362,0.5052789449691772,-0.3778214454650879,0.5791553854942322,0.2234199196100235,0.07698438316583633,0.9355273842811584,0.722892701625824,0.2612844407558441,1.0446500778198242,0.5606963038444519,0.46861618757247925,1.0024826526641846,0.282709002494812,0.0,0.0,0.0,0.0,0.0,0.3370000123977661,-0.10088430345058441,0.184750035405159,0.33717241883277893,-0.229326069355011,0.4199662506580353,0.33738261461257935,-0.3129570186138153,0.5731201171875,0.33751407265663147,-0.38005346059799194,0.6959942579269409,0.3376195430755615,2.070608277130127,1.5699771869659425,3.485662213061005e-05,3.7105438427533954e-05,3.092119868961163e-05,9.27635899744928e-05
1636986735.620742,5.0,0.0,-0.0020566971506923437,1.1320254802703857,0.21051271259784698,-0.0797925740480423,0.9076983332633972,0.6590076684951782,0.003043927252292633,0.7667386531829834,0.6577258110046387,-0.2528642416000366,0.8502402901649475,0.6451555490493774,-0.433945894241333,0.8296593427658081,0.5191982388496399,-0.38871997594833374,0.6479313969612122,0.2204144299030304,0.09327909350395203,0.9651563763618469,0.6728597283363342,0.25435858964920044,1.0482372045516968,0.5364685654640198,0.4070371985435486,1.0164622068405151,0.3149392306804657,-0.14897367358207703,0.6259014010429382,0.16770455241203308,-0.06848668307065964,0.9177666306495667,0.7717321515083313,0.07657171040773392,0.8394724726676941,0.8361883163452148,-0.24207758903503418,0.852286159992218,0.7390418648719788,-0.4310319721698761,0.7828578352928162,0.5446747541427612,-0.4251379370689392,0.7261057496070862,0.3062492609024048,0.1051042228937149,0.9832471013069153,0.8044224381446838,0.2889609932899475,1.147112250328064,0.7199021577835083,0.5231925845146179,1.1681709289550781,0.5439223647117615,-0.0020566971506923437,1.1320254802703857,0.21051271259784698,-0.08511976152658463,0.8923253417015076,0.6897426843643188,0.00564627954736352,0.7378722429275513,0.6883381605148315,-0.2515844702720642,0.8370607495307922,0.6764193773269653,-0.43179577589035034,0.7708448767662048,0.4910458028316498,-0.3875274658203125,0.5929648280143738,0.19858837127685547,0.08134496212005615,0.9475899338722229,0.7030659914016724,0.27213481068611145,1.0459946393966675,0.5415181517601013,0.469012588262558,1.005021095275879,0.2558578848838806,0.0,0.0,0.0,0.0,0.0,0.3370000123977661,-0.10088430345058441,0.184750035405159,0.33717241883277893,-0.229326069355011,0.4199662506580353,0.33738261461257935,-0.3129570186138153,0.5731201171875,0.33751407265663147,-0.38005346059799194,0.6959942579269409,0.3376195430755615,2.070608277130127,1.5699771869659425,3.485662213061005e-05,3.7105438427533954e-05,3.092119868961163e-05,9.27635899744928e-05
1636986735.6274414,5.0,0.0,-0.0020566971506923437,1.1320254802703857,0.21051271259784698,-0.0797925740480423,0.9076983332633972,0.6590076684951782,0.003043927252292633,0.7667386531829834,0.6577258110046387,-0.2528642416000366,0.8502402901649475,0.6451555490493774,-0.433945894241333,0.8296593427658081,0.5191982388496399,-0.38871997594833374,0.6479313969612122,0.2204144299030304,0.09327909350395203,0.9651563763618469,0.6728597283363342,0.25435858964920044,1.0482372045516968,0.5364685654640198,0.4070371985435486,1.0164622068405151,0.3149392306804657,-0.14897367358207703,0.6259014010429382,0.16770455241203308,-0.06848668307065964,0.9177666306495667,0.7717321515083313,0.07657171040773392,0.8394724726676941,0.8361883163452148,-0.24207758903503418,0.852286159992218,0.7390418648719788,-0.4310319721698761,0.7828578352928162,0.5446747541427612,-0.4251379370689392,0.7261057496070862,0.3062492609024048,0.1051042228937149,0.9832471013069153,0.8044224381446838,0.2889609932899475,1.147112250328064,0.7199021577835083,0.5231925845146179,1.1681709289550781,0.5439223647117615,-0.0020566971506923437,1.1320254802703857,0.21051271259784698,-0.08511976152658463,0.8923253417015076,0.6897426843643188,0.00564627954736352,0.7378722429275513,0.6883381605148315,-0.2515844702720642,0.8370607495307922,0.6764193773269653,-0.43179577589035034,0.7708448767662048,0.4910458028316498,-0.3875274658203125,0.5929648280143738,0.19858837127685547,0.08134496212005615,0.9475899338722229,0.7030659914016724,0.27213481068611145,1.0459946393966675,0.5415181517601013,0.469012588262558,1.005021095275879,0.2558578848838806,0.0,0.0,0.0,0.0,0.0,0.3370000123977661,-0.10088430345058441,0.184750035405159,0.33717241883277893,-0.229326069355011,0.4199662506580353,0.33738261461257935,-0.3129570186138153,0.5731201171875,0.33751407265663147,-0.38005346059799194,0.6959942579269409,0.3376195430755615,2.070608277130127,1.5699771869659425,3.485662213061005e-05,3.7105438427533954e-05,3.092119868961163e-05,9.27635899744928e-05
1636986735.6537054,5.0,0.0,-0.0020566971506923437,1.1320254802703857,0.21051271259784698,-0.0797925740480423,0.9076983332633972,0.6590076684951782,0.003043927252292633,0.7667386531829834,0.6577258110046387,-0.2528642416000366,0.8502402901649475,0.6451555490493774,-0.433945894241333,0.8296593427658081,0.5191982388496399,-0.38871997594833374,0.6479313969612122,0.2204144299030304,0.09327909350395203,0.9651563763618469,0.6728597283363342,0.25435858964920044,1.0482372045516968,0.5364685654640198,0.4070371985435486,1.0164622068405151,0.3149392306804657,-0.16101670265197754,0.5536594390869141,0.1543852537870407,-0.061748795211315155,0.907315194606781,0.7719717621803284,0.07349015027284622,0.8307497501373291,0.8309512138366699,-0.22577980160713196,0.863268256187439,0.7555251121520996,-0.4368554353713989,0.7920845746994019,0.5479052066802979,-0.42387115955352783,0.7387069463729858,0.31062859296798706,0.10228220373392105,0.9513620734214783,0.7884184122085571,0.3048168122768402,1.1641440391540527,0.7200366258621216,0.5251193046569824,1.1538883447647095,0.5396034121513367,-0.0020566971506923437,1.1320254802703857,0.21051271259784698,-0.08511976152658463,0.8923253417015076,0.6897426843643188,0.00564627954736352,0.7378722429275513,0.6883381605148315,-0.2515844702720642,0.8370607495307922,0.6764193773269653,-0.43657538294792175,0.7746739387512207,0.4944571256637573,-0.3923070728778839,0.5967938899993896,0.20199967920780182,0.08134496212005615,0.9475899338722229,0.7030659914016724,0.27213481068611145,1.0459946393966675,0.5415181517601013,0.469012588262558,1.005021095275879,0.2558578848838806,0.0,0.0,0.0,0.0,0.0,0.3370000123977661,-0.10088430345058441,0.184750035405159,0.33717241883277893,-0.229326069355011,0.4199662506580353,0.33738261461257935,-0.3129570186138153,0.5731201171875,0.33751407265663147,-0.38005346059799194,0.6959942579269409,0.3376195430755615,2.070608277130127,1.5699771869659425,3.485662213061005e-05,3.7105438427533954e-05,3.092119868961163e-05,9.27635899744928e-05
1636986735.6604104,5.0,0.0,-0.0020566971506923437,1.1320254802703857,0.21051271259784698,-0.0797925740480423,0.9076983332633972,0.6590076684951782,0.003043927252292633,0.7667386531829834,0.6577258110046387,-0.2528642416000366,0.8502402901649475,0.6451555490493774,-0.433945894241333,0.8296593427658081,0.5191982388496399,-0.38871997594833374,0.6479313969612122,0.2204144299030304,0.09327909350395203,0.9651563763618469,0.6728597283363342,0.25435858964920044,1.0482372045516968,0.5364685654640198,0.4070371985435486,1.0164622068405151,0.3149392306804657,-0.16101670265197754,0.5536594390869141,0.1543852537870407,-0.061748795211315155,0.907315194606781,0.7719717621803284,0.07349015027284622,0.8307497501373291,0.8309512138366699,-0.22577980160713196,0.863268256187439,0.7555251121520996,-0.4368554353713989,0.7920845746994019,0.5479052066802979,-0.42387115955352783,0.7387069463729858,0.31062859296798706,0.10228220373392105,0.9513620734214783,0.7884184122085571,0.3048168122768402,1.1641440391540527,0.7200366258621216,0.5251193046569824,1.1538883447647095,0.5396034121513367,-0.0020566971506923437,1.1320254802703857,0.21051271259784698,-0.08511976152658463,0.8923253417015076,0.6897426843643188,0.00564627954736352,0.7378722429275513,0.6883381605148315,-0.2515844702720642,0.8370607495307922,0.6764193773269653,-0.43657538294792175,0.7746739387512207,0.4944571256637573,-0.3923070728778839,0.5967938899993896,0.20199967920780182,0.08134496212005615,0.9475899338722229,0.7030659914016724,0.27213481068611145,1.0459946393966675,0.5415181517601013,0.469012588262558,1.005021095275879,0.2558578848838806,0.0,0.0,0.0,0.0,0.0,0.3370000123977661,-0.10088430345058441,0.184750035405159,0.33717241883277893,-0.229326069355011,0.4199662506580353,0.33738261461257935,-0.3129570186138153,0.5731201171875,0.33751407265663147,-0.38005346059799194,0.6959942579269409,0.3376195430755615,2.070608277130127,1.5699771869659425,3.485662213061005e-05,3.7105438427533954e-05,3.092119868961163e-05,9.27635899744928e-05
1636986735.6867032,5.0,0.0,0.0040481421165168285,1.1240062713623047,0.21678395569324493,-0.08165273815393448,0.9051792025566101,0.6631314754486084,0.007011479698121548,0.7770702838897705,0.6653190851211548,-0.2531466484069824,0.8506091237068176,0.6453176140785217,-0.43511947989463806,0.8399683237075806,0.5117402076721191,-0.387533038854599,0.6466768383979797,0.22012466192245483,0.08984117954969406,0.9597492218017578,0.6809453368186951,0.2533242404460907,1.050596833229065,0.5372757315635681,0.39798298478126526,1.0254255533218384,0.3265989422798157,-0.16101670265197754,0.5536594390869141,0.1543852537870407,-0.061748795211315155,0.907315194606781,0.7719717621803284,0.07349015027284622,0.8307497501373291,0.8309512138366699,-0.22577980160713196,0.863268256187439,0.7555251121520996,-0.4368554353713989,0.7920845746994019,0.5479052066802979,-0.42387115955352783,0.7387069463729858,0.31062859296798706,0.10228220373392105,0.9513620734214783,0.7884184122085571,0.3048168122768402,1.1641440391540527,0.7200366258621216,0.5251193046569824,1.1538883447647095,0.5396034121513367,0.0040481421165168285,1.1240062713623047,0.21678395569324493,-0.08807422965765,0.8887826800346375,0.6965758800506592,0.013871398754417896,0.741483747959137,0.6990911960601807,-0.254881352186203,0.83570396900177,0.6792488694190979,-0.43987226486206055,0.7733171582221985,0.4972865879535675,-0.3933538794517517,0.5843639969825745,0.21221625804901123,0.07873288542032242,0.9418613910675049,0.7139028906822205,0.26497071981430054,1.0453537702560425,0.5502363443374634,0.46176356077194214,1.0111109018325806,0.26363298296928406,0.0,0.0,0.0,0.0,0.0,0.3370000123977661,-0.10088519006967545,0.1847495585680008,0.33717241883277893,-0.22932809591293335,0.41996514797210693,0.33738261461257935,-0.312959760427475,0.5731185674667358,0.33751407265663147,-0.38005679845809937,0.6959924101829529,0.3376195430755615,2.0706130699157717,1.5699771869659425,3.485662213061005e-05,3.7105438427533954e-05,3.092119868961163e-05,9.27635899744928e-05
1636986735.6934211,5.0,0.0,0.0040481421165168285,1.1240062713623047,0.21678395569324493,-0.08165273815393448,0.9051792025566101,0.6631314754486084,0.007011479698121548,0.7770702838897705,0.6653190851211548,-0.2531466484069824,0.8506091237068176,0.6453176140785217,-0.43511947989463806,0.8399683237075806,0.5117402076721191,-0.387533038854599,0.6466768383979797,0.22012466192245483,0.08984117954969406,0.9597492218017578,0.6809453368186951,0.2533242404460907,1.050596833229065,0.5372757315635681,0.39798298478126526,1.0254255533218384,0.3265989422798157,-0.16101670265197754,0.5536594390869141,0.1543852537870407,-0.061748795211315155,0.907315194606781,0.7719717621803284,0.07349015027284622,0.8307497501373291,0.8309512138366699,-0.22577980160713196,0.863268256187439,0.7555251121520996,-0.4368554353713989,0.7920845746994019,0.5479052066802979,-0.42387115955352783,0.7387069463729858,0.31062859296798706,0.10228220373392105,0.9513620734214783,0.7884184122085571,0.3048168122768402,1.1641440391540527,0.7200366258621216,0.5251193046569824,1.1538883447647095,0.5396034121513367,0.0040481421165168285,1.1240062713623047,0.21678395569324493,-0.08807422965765,0.8887826800346375,0.6965758800506592,0.013871398754417896,0.741483747959137,0.6990911960601807,-0.254881352186203,0.83570396900177,0.6792488694190979,-0.43987226486206055,0.7733171582221985,0.4972865879535675,-0.3933538794517517,0.5843639969825745,0.21221625804901123,0.07873288542032242,0.9418613910675049,0.7139028906822205,0.26497071981430054,1.0453537702560425,0.5502363443374634,0.46176356077194214,1.0111109018325806,0.26363298296928406,0.0,0.0,0.0,0.0,0.0,0.3370000123977661,-0.10088519006967545,0.1847495585680008,0.33717241883277893,-0.22932809591293335,0.41996514797210693,0.33738261461257935,-0.312959760427475,0.5731185674667358,0.33751407265663147,-0.38005679845809937,0.6959924101829529,0.3376195430755615,2.0706130699157717,1.5699771869659425,3.485662213061005e-05,3.7105438427533954e-05,3.092119868961163e-05,9.27635899744928e-05
1636986735.719738,5.0,0.0,0.0040481421165168285,1.1240062713623047,0.21678395569324493,-0.08165273815393448,0.9051792025566101,0.6631314754486084,0.007011479698121548,0.7770702838897705,0.6653190851211548,-0.2531466484069824,0.8506091237068176,0.6453176140785217,-0.43511947989463806,0.8399683237075806,0.5117402076721191,-0.387533038854599,0.6466768383979797,0.22012466192245483,0.08984117954969406,0.9597492218017578,0.6809453368186951,0.2533242404460907,1.050596833229065,0.5372757315635681,0.39798298478126526,1.0254255533218384,0.3265989422798157,-0.13357947766780853,0.67754727602005,0.17339816689491272,-0.06336643546819687,0.9152641892433167,0.7756438851356506,0.0799546092748642,0.8490481972694397,0.8419376611709595,-0.22501297295093536,0.8672000765800476,0.757695734500885,-0.4358810782432556,0.8028115034103394,0.552872896194458,-0.42444121837615967,0.7330363392829895,0.3086578845977783,0.09828010201454163,0.9633283019065857,0.7935919761657715,0.2956857681274414,1.1415098905563354,0.7095562815666199,0.5184870958328247,1.1404719352722168,0.5432862043380737,0.0040481421165168285,1.1240062713623047,0.21678395569324493,-0.08807422965765,0.8887826800346375,0.6965758800506592,0.013871398754417896,0.741483747959137,0.6990911960601807,-0.254881352186203,0.83570396900177,0.6792488694190979,-0.44188374280929565,0.7786027193069458,0.4976075291633606,-0.3953653872013092,0.5896495580673218,0.21253719925880432,0.07873288542032242,0.9418613910675049,0.7139028906822205,0.26497071981430054,1.0453537702560425,0.5502363443374634,0.46176356077194214,1.0111109018325806,0.26363298296928406,0.0,0.0,0.0,0.0,0.0,0.3370000123977661,-0.10088519006967545,0.1847495585680008,0.33717241883277893,-0.22932809591293335,0.41996514797210693,0.33738261461257935,-0.312959760427475,0.5731185674667358,0.33751407265663147,-0.38005679845809937,0.6959924101829529,0.3376195430755615,2.0706130699157717,1.5699771869659425,3.485662213061005e-05,3.7105438427533954e-05,3.092119868961163e-05,9.27635899744928e-05
1636986735.7264194,5.0,0.0,0.0040481421165168285,1.1240062713623047,0.21678395569324493,-0.08165273815393448,0.9051792025566101,0.6631314754486084,0.007011479698121548,0.7770702838897705,0.6653190851211548,-0.2531466484069824,0.8506091237068176,0.6453176140785217,-0.43511947989463806,0.8399683237075806,0.5117402076721191,-0.387533038854599,0.6466768383979797,0.22012466192245483,0.08984117954969406,0.9597492218017578,0.6809453368186951,0.2533242404460907,1.050596833229065,0.5372757315635681,0.39798298478126526,1.0254255533218384,0.3265989422798157,-0.13357947766780853,0.67754727602005,0.17339816689491272,-0.06336643546819687,0.9152641892433167,0.7756438851356506,0.0799546092748642,0.8490481972694397,0.8419376611709595,-0.22501297295093536,0.8672000765800476,0.757695734500885,-0.4358810782432556,0.8028115034103394,0.552872896194458,-0.42444121837615967,0.7330363392829895,0.3086578845977783,0.09828010201454163,0.9633283019065857,0.7935919761657715,0.2956857681274414,1.1415098905563354,0.7095562815666199,0.5184870958328247,1.1404719352722168,0.5432862043380737,0.0040481421165168285,1.1240062713623047,0.21678395569324493,-0.08807422965765,0.8887826800346375,0.6965758800506592,0.013871398754417896,0.741483747959137,0.6990911960601807,-0.254881352186203,0.83570396900177,0.6792488694190979,-0.44188374280929565,0.7786027193069458,0.4976075291633606,-0.3953653872013092,0.5896495580673218,0.21253719925880432,0.07873288542032242,0.9418613910675049,0.7139028906822205,0.26497071981430054,1.0453537702560425,0.5502363443374634,0.46176356077194214,1.0111109018325806,0.26363298296928406,0.0,0.0,0.0,0.0,0.0,0.3370000123977661,-0.10088519006967545,0.1847495585680008,0.33717241883277893,-0.22932809591293335,0.41996514797210693,0.33738261461257935,-0.312959760427475,0.5731185674667358,0.33751407265663147,-0.38005679845809937,0.6959924101829529,0.3376195430755615,2.0706130699157717,1.5699771869659425,3.485662213061005e-05,3.7105438427533954e-05,3.7105438427533954e-05,9.27635899744928e-05
1636986735.752743,5.0,0.0,-0.000802968570496887,1.1269198656082153,0.22293153405189514,-0.08396420627832413,0.9095783233642578,0.6650334596633911,0.008913179859519005,0.7741386294364929,0.6639431118965149,-0.25258180499076843,0.8498714566230774,0.6449935436248779,-0.4458671510219574,0.8432767391204834,0.5242929458618164,-0.3872165083885193,0.6463422775268555,0.22004736959934235,0.08465339988470078,0.9692851305007935,0.6850734353065491,0.25435858964920044,1.0482372045516968,0.5364685654640198,0.4061442017555237,1.003440260887146,0.3213108777999878,-0.13357947766780853,0.67754727602005,0.17339816689491272,-0.06336643546819687,0.9152641892433167,0.7756438851356506,0.0799546092748642,0.8490481972694397,0.8419376611709595,-0.22501297295093536,0.8672000765800476,0.757695734500885,-0.4358810782432556,0.8028115034103394,0.552872896194458,-0.42444121837615967,0.7330363392829895,0.3086578845977783,0.09828010201454163,0.9633283019065857,0.7935919761657715,0.2956857681274414,1.1415098905563354,0.7095562815666199,0.5184870958328247,1.1404719352722168,0.5432862043380737,-0.000802968570496887,1.1269198656082153,0.22293153405189514,-0.09105948358774185,0.8910348415374756,0.7027534246444702,0.01025833748281002,0.7432867884635925,0.7015639543533325,-0.25872090458869934,0.8411822319030762,0.6841374039649963,-0.445723295211792,0.7840810418128967,0.5024961233139038,-0.3905840218067169,0.5989367961883545,0.2164653092622757,0.07660195231437683,0.9408873915672302,0.7213693857192993,0.2673798203468323,1.029643177986145,0.5543119311332703,0.46590811014175415,0.9710507988929749,0.2728959918022156,0.0,0.0,0.0,0.0,0.0,0.3370000123977661,-0.10088519006967545,0.1847495585680008,0.33717241883277893,-0.22932809591293335,0.41996514797210693,0.33738261461257935,-0.312959760427475,0.5731186270713806,0.3375129997730255,-0.38005679845809937,0.6959924101829529,0.3376176059246063,2.0706130699157717,1.5699771869659425,3.485662213061005e-05,3.7105438427533954e-05,3.7105438427533954e-05,9.27635899744928e-05
1636986735.759455,5.0,0.0,-0.000802968570496887,1.1269198656082153,0.22293153405189514,-0.08396420627832413,0.9095783233642578,0.6650334596633911,0.008913179859519005,0.7741386294364929,0.6639431118965149,-0.25258180499076843,0.8498714566230774,0.6449935436248779,-0.4458671510219574,0.8432767391204834,0.5242929458618164,-0.3872165083885193,0.6463422775268555,0.22004736959934235,0.08465339988470078,0.9692851305007935,0.6850734353065491,0.25435858964920044,1.0482372045516968,0.5364685654640198,0.4061442017555237,1.003440260887146,0.3213108777999878,-0.13357947766780853,0.67754727602005,0.17339816689491272,-0.06336643546819687,0.9152641892433167,0.7756438851356506,0.0799546092748642,0.8490481972694397,0.8419376611709595,-0.22501297295093536,0.8672000765800476,0.757695734500885,-0.4358810782432556,0.8028115034103394,0.552872896194458,-0.42444121837615967,0.7330363392829895,0.3086578845977783,0.09828010201454163,0.9633283019065857,0.7935919761657715,0.2956857681274414,1.1415098905563354,0.7095562815666199,0.5184870958328247,1.1404719352722168,0.5432862043380737,-0.000802968570496887,1.1269198656082153,0.22293153405189514,-0.09105948358774185,0.8910348415374756,0.7027534246444702,0.01025833748281002,0.7432867884635925,0.7015639543533325,-0.25872090458869934,0.8411822319030762,0.6841374039649963,-0.445723295211792,0.7840810418128967,0.5024961233139038,-0.3905840218067169,0.5989367961883545,0.2164653092622757,0.07660195231437683,0.9408873915672302,0.7213693857192993,0.2673798203468323,1.029643177986145,0.5543119311332703,0.46590811014175415,0.9710507988929749,0.2728959918022156,0.0,0.0,0.0,0.0,0.0,0.3370000123977661,-0.10088519006967545,0.1847495585680008,0.33717241883277893,-0.22932809591293335,0.41996514797210693,0.33738261461257935,-0.312959760427475,0.5731186270713806,0.3375129997730255,-0.38005679845809937,0.6959924101829529,0.3376176059246063,2.0706130699157717,1.5699771869659425,3.485662213061005e-05,3.7105438427533954e-05,3.7105438427533954e-05,9.27635899744928e-05
1636986735.7857096,5.0,0.0,-0.000802968570496887,1.1269198656082153,0.22293153405189514,-0.08396420627832413,0.9095783233642578,0.6650334596633911,0.008913179859519005,0.7741386294364929,0.6639431118965149,-0.25258180499076843,0.8498714566230774,0.6449935436248779,-0.4458671510219574,0.8432767391204834,0.5242929458618164,-0.3872165083885193,0.6463422775268555,0.22004736959934235,0.08465339988470078,0.9692851305007935,0.6850734353065491,0.25435858964920044,1.0482372045516968,0.5364685654640198,0.4061442017555237,1.003440260887146,0.3213108777999878,-0.10546538233757019,0.760431170463562,0.19438764452934265,-0.06380211561918259,0.9112828373908997,0.7734267115592957,0.08079198002815247,0.8514184355735779,0.8433607220649719,-0.22746674716472626,0.8546184301376343,0.7507500052452087,-0.4324577748775482,0.767749011516571,0.5376693606376648,-0.4264047145843506,0.7135046124458313,0.3018698990345001,0.09986252337694168,0.967947244644165,0.7961034178733826,0.29414477944374084,1.1161577701568604,0.7080572843551636,0.5225458145141602,1.1304394006729126,0.5493885278701782,-0.000802968570496887,1.1269198656082153,0.22293153405189514,-0.09105948358774185,0.8910348415374756,0.7027534246444702,0.01025833748281002,0.7432867884635925,0.7015639543533325,-0.25587600469589233,0.8339716196060181,0.6799170970916748,-0.43339815735816956,0.7587427496910095,0.49538928270339966,-0.3782588839530945,0.5735985040664673,0.20935849845409393,0.07375703006982803,0.9480980634689331,0.7255896925926208,0.2645348906517029,1.0368537902832031,0.5585322976112366,0.46306318044662476,0.978261411190033,0.2771163284778595,0.0,0.0,0.0,0.0,0.0,0.3370000123977661,-0.10088519006967545,0.1847495585680008,0.33717241883277893,-0.22932809591293335,0.41996514797210693,0.33738261461257935,-0.312959760427475,0.5731186270713806,0.3375129997730255,-0.38005679845809937,0.6959924101829529,0.3376176059246063,2.0706130699157717,1.5699771869659425,3.485662213061005e-05,3.7105438427533954e-05,3.7105438427533954e-05,9.27635899744928e-05
1636986735.7924283,5.0,0.0,-0.000802968570496887,1.1269198656082153,0.22293153405189514,-0.08396420627832413,0.9095783233642578,0.6650334596633911,0.008913179859519005,0.7741386294364929,0.6639431118965149,-0.25258180499076843,0.8498714566230774,0.6449935436248779,-0.4458671510219574,0.8432767391204834,0.5242929458618164,-0.3872165083885193,0.6463422775268555,0.22004736959934235,0.08465339988470078,0.9692851305007935,0.6850734353065491,0.25435858964920044,1.0482372045516968,0.5364685654640198,0.4061442017555237,1.003440260887146,0.3213108777999878,-0.10546538233757019,0.760431170463562,0.19438764452934265,-0.06380211561918259,0.9112828373908997,0.7734267115592957,0.08079198002815247,0.8514184355735779,0.8433607220649719,-0.22746674716472626,0.8546184301376343,0.7507500052452087,-0.4324577748775482,0.767749011516571,0.5376693606376648,-0.4264047145843506,0.7135046124458313,0.3018698990345001,0.09986252337694168,0.967947244644165,0.7961034178733826,0.29414477944374084,1.1161577701568604,0.7080572843551636,0.5225458145141602,1.1304394006729126,0.5493885278701782,-0.000802968570496887,1.1269198656082153,0.22293153405189514,-0.09105948358774185,0.8910348415374756,0.7027534246444702,0.01025833748281002,0.7432867884635925,0.7015639543533325,-0.25587600469589233,0.8339716196060181,0.6799170970916748,-0.43339815735816956,0.7587427496910095,0.49538928270339966,-0.3782588839530945,0.5735985040664673,0.20935849845409393,0.07375703006982803,0.9480980634689331,0.7255896925926208,0.2645348906517029,1.0368537902832031,0.5585322976112366,0.46306318044662476,0.978261411190033,0.2771163284778595,0.0,0.0,0.0,0.0,0.0,0.3370000123977661,-0.10088519006967545,0.1847495585680008,0.33717241883277893,-0.22932809591293335,0.41996514797210693,0.33738261461257935,-0.312959760427475,0.5731186270713806,0.3375129997730255,-0.38005679845809937,0.6959924101829529,0.3376176059246063,2.0706130699157717,1.5699771869659425,3.485662213061005e-05,3.7105438427533954e-05,3.7105438427533954e-05,9.27635899744928e-05
1636986735.81871,5.0,0.0,0.00805160403251648,1.1158044338226318,0.22884568572044373,-0.07889536023139954,0.9042656421661377,0.6698223352432251,0.010814880020916462,0.7712069153785706,0.662567138671875,-0.25047674775123596,0.8540112376213074,0.6609629988670349,-0.432952344417572,0.8285244107246399,0.5187736749649048,-0.3877704441547394,0.6469277143478394,0.2201826274394989,0.09268603473901749,0.954520046710968,0.6786816120147705,0.2670528292655945,1.0192791223526,0.5265626311302185,0.41136738657951355,0.9893695712089539,0.3179265260696411,-0.10546538233757019,0.760431170463562,0.19438764452934265,-0.06380211561918259,0.9112828373908997,0.7734267115592957,0.08079198002815247,0.8514184355735779,0.8433607220649719,-0.22746674716472626,0.8546184301376343,0.7507500052452087,-0.4324577748775482,0.767749011516571,0.5376693606376648,-0.4264047145843506,0.7135046124458313,0.3018698990345001,0.09986252337694168,0.967947244644165,0.7961034178733826,0.29414477944374084,1.1161577701568604,0.7080572843551636,0.5225458145141602,1.1304394006729126,0.5493885278701782,0.00805160403251648,1.1158044338226318,0.22884568572044373,-0.08685478568077087,0.8849006295204163,0.7101908922195435,0.013194822706282139,0.7365065217018127,0.7020995020866394,-0.25167131423950195,0.8278374075889587,0.687354564666748,-0.4291934669017792,0.7526085376739502,0.5028267502784729,-0.3849385380744934,0.574737548828125,0.2103617936372757,0.07796172797679901,0.9419638514518738,0.7330271601676941,0.27292299270629883,1.014371633529663,0.5629414319992065,0.47028911113739014,0.9734669923782349,0.2776084244251251,0.0,0.0,0.0,0.0,0.0,0.3370000123977661,-0.10088519006967545,0.1847495585680008,0.33717241883277893,-0.22932809591293335,0.41996514797210693,0.33738261461257935,-0.312959760427475,0.5731186270713806,0.3375129997730255,-0.38005679845809937,0.6959924101829529,0.3376176059246063,2.0706130699157717,1.5699771869659425,3.485662213061005e-05,3.7105438427533954e-05,3.7105438427533954e-05,9.27635899744928e-05
1636986735.8254197,5.0,0.0,0.00805160403251648,1.1158044338226318,0.22884568572044373,-0.07889536023139954,0.9042656421661377,0.6698223352432251,0.010814880020916462,0.7712069153785706,0.662567138671875,-0.25047674775123596,0.8540112376213074,0.6609629988670349,-0.432952344417572,0.8285244107246399,0.5187736749649048,-0.3877704441547394,0.6469277143478394,0.2201826274394989,0.09268603473901749,0.954520046710968,0.6786816120147705,0.2670528292655945,1.0192791223526,0.5265626311302185,0.41136738657951355,0.9893695712089539,0.3179265260696411,-0.10546538233757019,0.760431170463562,0.19438764452934265,-0.06380211561918259,0.9112828373908997,0.7734267115592957,0.08079198002815247,0.8514184355735779,0.8433607220649719,-0.22746674716472626,0.8546184301376343,0.7507500052452087,-0.4324577748775482,0.767749011516571,0.5376693606376648,-0.4264047145843506,0.7135046124458313,0.3018698990345001,0.09986252337694168,0.967947244644165,0.7961034178733826,0.29414477944374084,1.1161577701568604,0.7080572843551636,0.5225458145141602,1.1304394006729126,0.5493885278701782,0.00805160403251648,1.1158044338226318,0.22884568572044373,-0.08685478568077087,0.8849006295204163,0.7101908922195435,0.013194822706282139,0.7365065217018127,0.7020995020866394,-0.25167131423950195,0.8278374075889587,0.687354564666748,-0.4291934669017792,0.7526085376739502,0.5028267502784729,-0.3849385380744934,0.574737548828125,0.2103617936372757,0.07796172797679901,0.9419638514518738,0.7330271601676941,0.27292299270629883,1.014371633529663,0.5629414319992065,0.47028911113739014,0.9734669923782349,0.2776084244251251,0.0,0.0,0.0,0.0,0.0,0.3370000123977661,-0.10088519006967545,0.1847495585680008,0.33717241883277893,-0.22932809591293335,0.41996514797210693,0.33738261461257935,-0.312959760427475,0.5731186270713806,0.3375129997730255,-0.38005679845809937,0.6959924101829529,0.3376176059246063,2.0706130699157717,1.5699771869659425,3.485662213061005e-05,3.7105438427533954e-05,3.7105438427533954e-05,9.27635899744928e-05
1636986735.8517623,5.0,0.0,0.00805160403251648,1.1158044338226318,0.22884568572044373,-0.07889536023139954,0.9042656421661377,0.6698223352432251,0.010814880020916462,0.7712069153785706,0.662567138671875,-0.25047674775123596,0.8540112376213074,0.6609629988670349,-0.432952344417572,0.8285244107246399,0.5187736749649048,-0.3877704441547394,0.6469277143478394,0.2201826274394989,0.09268603473901749,0.954520046710968,0.6786816120147705,0.2670528292655945,1.0192791223526,0.5265626311302185,0.41136738657951355,0.9893695712089539,0.3179265260696411,-0.11674626916646957,0.715895414352417,0.18541564047336578,-0.056121546775102615,0.9206309914588928,0.7791693806648254,0.08109340816736221,0.8522716760635376,0.8438730835914612,-0.22838687896728516,0.849900484085083,0.7481454610824585,-0.43076226115226746,0.7857160568237305,0.5460000038146973,-0.42429423332214355,0.7289658784866333,0.30061373114585876,0.11614379286766052,0.9913614988327026,0.8101932406425476,0.3213234543800354,1.1392207145690918,0.7214725017547607,0.5374260544776917,1.1240696907043457,0.5580798387527466,0.00805160403251648,1.1158044338226318,0.22884568572044373,-0.08685478568077087,0.8849006295204163,0.7101908922195435,0.013194822706282139,0.7365065217018127,0.7020995020866394,-0.24736428260803223,0.8189969658851624,0.6812841296195984,-0.4316016435623169,0.7605651021003723,0.4972560703754425,-0.38734671473503113,0.5826941132545471,0.2047910988330841,0.07365471124649048,0.9508042931556702,0.7390975952148438,0.2686159610748291,1.0232120752334595,0.5690118670463562,0.4659820795059204,0.982307493686676,0.2836788296699524,0.0,0.0,0.0,0.0,0.0,0.3370000123977661,-0.10088519006967545,0.1847495585680008,0.33717241883277893,-0.22932809591293335,0.41996514797210693,0.33738261461257935,-0.312959760427475,0.5731186270713806,0.3375129997730255,-0.38005679845809937,0.6959924101829529,0.3376176059246063,2.0706130699157717,1.5699771869659425,3.485662213061005e-05,3.7105438427533954e-05,3.7105438427533954e-05,9.27635899744928e-05
1636986735.858447,5.0,0.0,0.00805160403251648,1.1158044338226318,0.22884568572044373,-0.07889536023139954,0.9042656421661377,0.6698223352432251,0.010814880020916462,0.7712069153785706,0.662567138671875,-0.25047674775123596,0.8540112376213074,0.6609629988670349,-0.432952344417572,0.8285244107246399,0.5187736749649048,-0.3877704441547394,0.6469277143478394,0.2201826274394989,0.09268603473901749,0.954520046710968,0.6786816120147705,0.2670528292655945,1.0192791223526,0.5265626311302185,0.41136738657951355,0.9893695712089539,0.3179265260696411,-0.11674626916646957,0.715895414352417,0.18541564047336578,-0.056121546775102615,0.9206309914588928,0.7791693806648254,0.08109340816736221,0.8522716760635376,0.8438730835914612,-0.22838687896728516,0.849900484085083,0.7481454610824585,-0.43076226115226746,0.7857160568237305,0.5460000038146973,-0.42429423332214355,0.7289658784866333,0.30061373114585876,0.11614379286766052,0.9913614988327026,0.8101932406425476,0.3213234543800354,1.1392207145690918,0.7214725017547607,0.5374260544776917,1.1240696907043457,0.5580798387527466,0.00805160403251648,1.1158044338226318,0.22884568572044373,-0.08685478568077087,0.8849006295204163,0.7101908922195435,0.013194822706282139,0.7365065217018127,0.7020995020866394,-0.24736428260803223,0.8189969658851624,0.6812841296195984,-0.4316016435623169,0.7605651021003723,0.4972560703754425,-0.38734671473503113,0.5826941132545471,0.2047910988330841,0.07365471124649048,0.9508042931556702,0.7390975952148438,0.2686159610748291,1.0232120752334595,0.5690118670463562,0.4659820795059204,0.982307493686676,0.2836788296699524,0.0,0.0,0.0,0.0,0.0,0.3370000123977661,-0.10088519006967545,0.1847495585680008,0.33717241883277893,-0.22932809591293335,0.41996514797210693,0.33738261461257935,-0.312959760427475,0.5731186270713806,0.3375129997730255,-0.38005679845809937,0.6959924101829529,0.3376176059246063,2.0706130699157717,1.5699771869659425,3.485662213061005e-05,3.7105438427533954e-05,3.7105438427533954e-05,9.27635899744928e-05
1636986735.8847191,5.0,0.0,0.0037778215482831,1.1245059967041016,0.21687239408493042,-0.07794434577226639,0.907872200012207,0.6658610105514526,0.01328708790242672,0.7673957347869873,0.6607784032821655,-0.25427648425102234,0.8520846366882324,0.6459657549858093,-0.44021210074424744,0.8368170857429504,0.5218761563301086,-0.3888157904148102,0.6621049642562866,0.22798745334148407,0.09838778525590897,0.9636598229408264,0.6857563257217407,0.2685573697090149,1.015847086906433,0.5253885984420776,0.41838595271110535,0.9704623222351074,0.31337881088256836,-0.11674626916646957,0.715895414352417,0.18541564047336578,-0.056121546775102615,0.9206309914588928,0.7791693806648254,0.08109340816736221,0.8522716760635376,0.8438730835914612,-0.22838687896728516,0.849900484085083,0.7481454610824585,-0.43076226115226746,0.7857160568237305,0.5460000038146973,-0.42429423332214355,0.7289658784866333,0.30061373114585876,0.11614379286766052,0.9913614988327026,0.8101932406425476,0.3213234543800354,1.1392207145690918,0.7214725017547607,0.5374260544776917,1.1240696907043457,0.5580798387527466,0.0037778215482831,1.1245059967041016,0.21687239408493042,-0.08393965661525726,0.8919795155525208,0.6987997889518738,0.013593489304184914,0.7417997121810913,0.6933661103248596,-0.24444915354251862,0.8260758519172668,0.6698930859565735,-0.4286864995956421,0.7676439881324768,0.4858650267124176,-0.3773771822452545,0.5932274460792542,0.19247348606586456,0.07656984031200409,0.9578831791877747,0.7277065515518188,0.2673987150192261,1.0164061784744263,0.5478695631027222,0.46600446105003357,0.9562462568283081,0.26683926582336426,0.0,0.0,0.0,0.0,0.0,0.3370000123977661,-0.10088519006967545,0.1847495585680008,0.33717241883277893,-0.22932809591293335,0.41996514797210693,0.33738261461257935,-0.312959760427475,0.5731186270713806,0.3375129997730255,-0.38005679845809937,0.6959924101829529,0.3376176059246063,2.0706130699157717,1.5699771869659425,3.485662213061005e-05,3.7105438427533954e-05,3.7105438427533954e-05,9.27635899744928e-05
1636986735.891454,5.0,0.0,0.0037778215482831,1.1245059967041016,0.21687239408493042,-0.07794434577226639,0.907872200012207,0.6658610105514526,0.01328708790242672,0.7673957347869873,0.6607784032821655,-0.25427648425102234,0.8520846366882324,0.6459657549858093,-0.44021210074424744,0.8368170857429504,0.5218761563301086,-0.3888157904148102,0.6621049642562866,0.22798745334148407,0.09838778525590897,0.9636598229408264,0.6857563257217407,0.2685573697090149,1.015847086906433,0.5253885984420776,0.41838595271110535,0.9704623222351074,0.31337881088256836,-0.11674626916646957,0.715895414352417,0.18541564047336578,-0.056121546775102615,0.9206309914588928,0.7791693806648254,0.08109340816736221,0.8522716760635376,0.8438730835914612,-0.22838687896728516,0.849900484085083,0.7481454610824585,-0.43076226115226746,0.7857160568237305,0.5460000038146973,-0.42429423332214355,0.7289658784866333,0.30061373114585876,0.11614379286766052,0.9913614988327026,0.8101932406425476,0.3213234543800354,1.1392207145690918,0.7214725017547607,0.5374260544776917,1.1240696907043457,0.5580798387527466,0.0037778215482831,1.1245059967041016,0.21687239408493042,-0.08393965661525726,0.8919795155525208,0.6987997889518738,0.013593489304184914,0.7417997121810913,0.6933661103248596,-0.24444915354251862,0.8260758519172668,0.6698930859565735,-0.4286864995956421,0.7676439881324768,0.4858650267124176,-0.3773771822452545,0.5932274460792542,0.19247348606586456,0.07656984031200409,0.9578831791877747,0.7277065515518188,0.2673987150192261,1.0164061784744263,0.5478695631027222,0.46600446105003357,0.9562462568283081,0.26683926582336426,0.0,0.0,0.0,0.0,0.0,0.3370000123977661,-0.10088519006967545,0.1847495585680008,0.33717241883277893,-0.22932809591293335,0.41996514797210693,0.33738261461257935,-0.312959760427475,0.5731186270713806,0.3375129997730255,-0.38005679845809937,0.6959924101829529,0.3376176059246063,2.0706130699157717,1.5699771869659425,3.485662213061005e-05,3.7105438427533954e-05,4.3289676134008914e-05,9.27635899744928e-05
1636986735.9177268,5.0,0.0,0.0037778215482831,1.1245059967041016,0.21687239408493042,-0.07794434577226639,0.907872200012207,0.6658610105514526,0.01328708790242672,0.7673957347869873,0.6607784032821655,-0.25427648425102234,0.8520846366882324,0.6459657549858093,-0.44021210074424744,0.8368170857429504,0.5218761563301086,-0.3888157904148102,0.6621049642562866,0.22798745334148407,0.09838778525590897,0.9636598229408264,0.6857563257217407,0.2685573697090149,1.015847086906433,0.5253885984420776,0.41838595271110535,0.9704623222351074,0.31337881088256836,-0.13248196244239807,0.6766648888587952,0.1761658787727356,-0.05638517811894417,0.9061030149459839,0.7718244194984436,0.09299610555171967,0.8636369705200195,0.8520783185958862,-0.22404924035072327,0.8348827958106995,0.7410977482795715,-0.4306947886943817,0.786430835723877,0.5463314056396484,-0.41949722170829773,0.7197860479354858,0.3048853576183319,0.11127889156341553,0.9773232340812683,0.8025510907173157,0.30526673793792725,1.1007213592529297,0.7123430967330933,0.5578480362892151,1.1286193132400513,0.5622773766517639,0.0037778215482831,1.1245059967041016,0.21687239408493042,-0.08393965661525726,0.8919795155525208,0.6987997889518738,0.013593489304184914,0.7417997121810913,0.6933661103248596,-0.24358715116977692,0.8241645693778992,0.6695422530174255,-0.4350314140319824,0.7792767882347107,0.48910337686538696,-0.38372206687927246,0.6048603057861328,0.19571185111999512,0.07570783793926239,0.9597944617271423,0.728057324886322,0.2665367126464844,1.018317461013794,0.5482203364372253,0.46514245867729187,0.9581575393676758,0.2671900689601898,0.0,0.0,0.0,0.0,0.0,0.3370000123977661,-0.10088519006967545,0.1847495585680008,0.33717241883277893,-0.22932809591293335,0.41996514797210693,0.33738261461257935,-0.312959760427475,0.5731186270713806,0.33751192688941956,-0.38005679845809937,0.6959924101829529,0.3376156687736511,2.0706130699157717,1.5699771869659425,3.485662213061005e-05,3.7105438427533954e-05,4.3289676134008914e-05,9.27635899744928e-05
1636986735.9244218,5.0,0.0,0.0037778215482831,1.1245059967041016,0.21687239408493042,-0.07794434577226639,0.907872200012207,0.6658610105514526,0.01328708790242672,0.7673957347869873,0.6607784032821655,-0.25427648425102234,0.8520846366882324,0.6459657549858093,-0.44021210074424744,0.8368170857429504,0.5218761563301086,-0.3888157904148102,0.6621049642562866,0.22798745334148407,0.09838778525590897,0.9636598229408264,0.6857563257217407,0.2685573697090149,1.015847086906433,0.5253885984420776,0.41838595271110535,0.9704623222351074,0.31337881088256836,-0.13248196244239807,0.6766648888587952,0.1761658787727356,-0.05638517811894417,0.9061030149459839,0.7718244194984436,0.09299610555171967,0.8636369705200195,0.8520783185958862,-0.22404924035072327,0.8348827958106995,0.7410977482795715,-0.4306947886943817,0.786430835723877,0.5463314056396484,-0.41949722170829773,0.7197860479354858,0.3048853576183319,0.11127889156341553,0.9773232340812683,0.8025510907173157,0.30526673793792725,1.1007213592529297,0.7123430967330933,0.5578480362892151,1.1286193132400513,0.5622773766517639,0.0037778215482831,1.1245059967041016,0.21687239408493042,-0.08393965661525726,0.8919795155525208,0.6987997889518738,0.013593489304184914,0.7417997121810913,0.6933661103248596,-0.24358715116977692,0.8241645693778992,0.6695422530174255,-0.4350314140319824,0.7792767882347107,0.48910337686538696,-0.38372206687927246,0.6048603057861328,0.19571185111999512,0.07570783793926239,0.9597944617271423,0.728057324886322,0.2665367126464844,1.018317461013794,0.5482203364372253,0.46514245867729187,0.9581575393676758,0.2671900689601898,0.0,0.0,0.0,0.0,0.0,0.3370000123977661,-0.10088519006967545,0.1847495585680008,0.33717241883277893,-0.22932809591293335,0.41996514797210693,0.33738261461257935,-0.312959760427475,0.5731186270713806,0.33751192688941956,-0.38005679845809937,0.6959924101829529,0.3376156687736511,2.0706130699157717,1.5699771869659425,3.485662213061005e-05,3.7105438427533954e-05,4.3289676134008914e-05,9.27635899744928e-05
1636986735.9507377,5.0,0.0,0.01181603129953146,1.1149276494979858,0.22334662079811096,-0.08430313318967819,0.9076460003852844,0.6642370820045471,0.017948942258954048,0.7766501903533936,0.6678655743598938,-0.26218488812446594,0.862412691116333,0.6505028605461121,-0.4185973107814789,0.8210011720657349,0.5047630071640015,-0.3704766035079956,0.6364918947219849,0.20767711102962494,0.09357862174510956,0.9528793692588806,0.677971363067627,0.262972891330719,1.0148372650146484,0.5350604057312012,0.4365207850933075,0.9457870721817017,0.3113386034965515,-0.13248196244239807,0.6766648888587952,0.1761658787727356,-0.05638517811894417,0.9061030149459839,0.7718244194984436,0.09299610555171967,0.8636369705200195,0.8520783185958862,-0.22404924035072327,0.8348827958106995,0.7410977482795715,-0.4306947886943817,0.786430835723877,0.5463314056396484,-0.41949722170829773,0.7197860479354858,0.3048853576183319,0.11127889156341553,0.9773232340812683,0.8025510907173157,0.30526673793792725,1.1007213592529297,0.7123430967330933,0.5578480362892151,1.1286193132400513,0.5622773766517639,0.01181603129953146,1.1149276494979858,0.22334662079811096,-0.09314048290252686,0.8885881900787354,0.7047732472419739,0.017069241032004356,0.7473978400230408,0.7086840867996216,-0.2527879774570465,0.8207733035087585,0.6755157113075256,-0.4442322254180908,0.7758855223655701,0.4950768053531647,-0.397182822227478,0.5954839587211609,0.204604834318161,0.0665070116519928,0.9564031362533569,0.7340307831764221,0.26427337527275085,1.0287384986877441,0.5671834945678711,0.4723012149333954,0.9459695816040039,0.2990134060382843,0.0,0.0,0.0,0.0,0.0,0.3370000123977661,-0.10088519006967545,0.1847495585680008,0.33717241883277893,-0.22932809591293335,0.41996514797210693,0.33738261461257935,-0.312959760427475,0.5731186270713806,0.33751192688941956,-0.38005679845809937,0.6959924101829529,0.3376156687736511,2.0706130699157717,1.5699771869659425,3.485662213061005e-05,3.7105438427533954e-05,4.3289676134008914e-05,9.27635899744928e-05
1636986735.9574234,5.0,0.0,0.01181603129953146,1.1149276494979858,0.22334662079811096,-0.08430313318967819,0.9076460003852844,0.6642370820045471,0.017948942258954048,0.7766501903533936,0.6678655743598938,-0.26218488812446594,0.862412691116333,0.6505028605461121,-0.4185973107814789,0.8210011720657349,0.5047630071640015,-0.3704766035079956,0.6364918947219849,0.20767711102962494,0.09357862174510956,0.9528793692588806,0.677971363067627,0.262972891330719,1.0148372650146484,0.5350604057312012,0.4365207850933075,0.9457870721817017,0.3113386034965515,-0.13248196244239807,0.6766648888587952,0.1761658787727356,-0.05638517811894417,0.9061030149459839,0.7718244194984436,0.09299610555171967,0.8636369705200195,0.8520783185958862,-0.22404924035072327,0.8348827958106995,0.7410977482795715,-0.4306947886943817,0.786430835723877,0.5463314056396484,-0.41949722170829773,0.7197860479354858,0.3048853576183319,0.11127889156341553,0.9773232340812683,0.8025510907173157,0.30526673793792725,1.1007213592529297,0.7123430967330933,0.5578480362892151,1.1286193132400513,0.5622773766517639,0.01181603129953146,1.1149276494979858,0.22334662079811096,-0.09314048290252686,0.8885881900787354,0.7047732472419739,0.017069241032004356,0.7473978400230408,0.7086840867996216,-0.2527879774570465,0.8207733035087585,0.6755157113075256,-0.4442322254180908,0.7758855223655701,0.4950768053531647,-0.397182822227478,0.5954839587211609,0.204604834318161,0.0665070116519928,0.9564031362533569,0.7340307831764221,0.26427337527275085,1.0287384986877441,0.5671834945678711,0.4723012149333954,0.9459695816040039,0.2990134060382843,0.0,0.0,0.0,0.0,0.0,0.3370000123977661,-0.10088519006967545,0.1847495585680008,0.33717241883277893,-0.22932809591293335,0.41996514797210693,0.33738261461257935,-0.312959760427475,0.5731186270713806,0.33751192688941956,-0.38005679845809937,0.6959924101829529,0.3376156687736511,2.0706130699157717,1.5699771869659425,3.485662213061005e-05,3.7105438427533954e-05,4.3289676134008914e-05,9.27635899744928e-05
1636986735.9837086,5.0,0.0,0.01181603129953146,1.1149276494979858,0.22334662079811096,-0.08430313318967819,0.9076460003852844,0.6642370820045471,0.017948942258954048,0.7766501903533936,0.6678655743598938,-0.26218488812446594,0.862412691116333,0.6505028605461121,-0.4185973107814789,0.8210011720657349,0.5047630071640015,-0.3704766035079956,0.6364918947219849,0.20767711102962494,0.09357862174510956,0.9528793692588806,0.677971363067627,0.262972891330719,1.0148372650146484,0.5350604057312012,0.4365207850933075,0.9457870721817017,0.3113386034965515,-0.1827915608882904,0.45597514510154724,0.14923064410686493,-0.05772944167256355,0.9054030179977417,0.7757834196090698,0.08375541865825653,0.8377740383148193,0.836531937122345,-0.2213548719882965,0.8484371900558472,0.7485890984535217,-0.429710328578949,0.803294837474823,0.5614588856697083,-0.4235312044620514,0.7365331649780273,0.30321624875068665,0.1058959886431694,0.9623688459396362,0.8029776811599731,0.31677550077438354,1.0864505767822266,0.7081863284111023,0.5437645316123962,1.1011074781417847,0.5688642263412476,0.01181603129953146,1.1149276494979858,0.22334662079811096,-0.09314048290252686,0.8885881900787354,0.7047732472419739,0.017069241032004356,0.7473978400230408,0.7086840867996216,-0.25725531578063965,0.831451952457428,0.6774976253509521,-0.45327863097190857,0.788981556892395,0.5014432668685913,-0.4062291979789734,0.6085799336433411,0.21097128093242645,0.07097436487674713,0.9457244873046875,0.7320488691329956,0.268740713596344,1.0180598497390747,0.5652015805244446,0.4767685532569885,0.9352909326553345,0.2970314919948578,0.0,0.0,0.0,0.0,0.0,0.3370000123977661,-0.10088519006967545,0.1847495585680008,0.33717241883277893,-0.22932809591293335,0.41996514797210693,0.33738261461257935,-0.312959760427475,0.5731186270713806,0.33751192688941956,-0.38005679845809937,0.6959924101829529,0.3376156687736511,2.0706130699157717,1.5699771869659425,3.485662213061005e-05,3.7105438427533954e-05,4.3289676134008914e-05,9.27635899744928e-05
1636986735.9904165,5.0,0.0,0.0009767661103978753,1.1228525638580322,0.22210901975631714,-0.07939457148313522,0.9036973118782043,0.6695403456687927,0.018956845626235008,0.7750816941261292,0.6671268939971924,-0.26205044984817505,0.852785050868988,0.6572568416595459,-0.42737385630607605,0.8221522569656372,0.5163896679878235,-0.3935399353504181,0.6671419739723206,0.2291642278432846,0.103261299431324,0.9546095728874207,0.6818238496780396,0.2733299136161804,0.9913738369941711,0.5269152522087097,0.4377278983592987,0.918357253074646,0.3008460998535156,-0.1827915608882904,0.45597514510154724,0.14923064410686493,-0.05772944167256355,0.9054030179977417,0.7757834196090698,0.08375541865825653,0.8377740383148193,0.836531937122345,-0.2213548719882965,0.8484371900558472,0.7485890984535217,-0.429710328578949,0.803294837474823,0.5614588856697083,-0.4235312044620514,0.7365331649780273,0.30321624875068665,0.1058959886431694,0.9623688459396362,0.8029776811599731,0.31677550077438354,1.0864505767822266,0.7081863284111023,0.5437645316123962,1.1011074781417847,0.5688642263412476,0.01181603129953146,1.1149276494979858,0.22334662079811096,-0.09314048290252686,0.8885881900787354,0.7047732472419739,0.017069241032004356,0.7473978400230408,0.7086840867996216,-0.25725531578063965,0.831451952457428,0.6774976253509521,-0.45327863097190857,0.788981556892395,0.5014432668685913,-0.4062291979789734,0.6085799336433411,0.21097128093242645,0.07097436487674713,0.9457244873046875,0.7320488691329956,0.268740713596344,1.0180598497390747,0.5652015805244446,0.4767685532569885,0.9352909326553345,0.2970314919948578,0.0,0.0,0.0,0.0,0.0,0.3370000123977661,-0.10088519006967545,0.1847495585680008,0.33717241883277893,-0.22932809591293335,0.41996514797210693,0.33738261461257935,-0.312959760427475,0.5731186270713806,0.33751192688941956,-0.38005679845809937,0.6959924101829529,0.3376156687736511,2.0706130699157717,1.5699771869659425,3.485662213061005e-05,3.7105438427533954e-05,4.3289676134008914e-05,9.27635899744928e-05
1636986736.0167084,5.0,0.0,0.0009767661103978753,1.1228525638580322,0.22210901975631714,-0.07939457148313522,0.9036973118782043,0.6695403456687927,0.018956845626235008,0.7750816941261292,0.6671268939971924,-0.26205044984817505,0.852785050868988,0.6572568416595459,-0.42737385630607605,0.8221522569656372,0.5163896679878235,-0.3935399353504181,0.6671419739723206,0.2291642278432846,0.103261299431324,0.9546095728874207,0.6818238496780396,0.2733299136161804,0.9913738369941711,0.5269152522087097,0.4377278983592987,0.918357253074646,0.3008460998535156,-0.1827915608882904,0.45597514510154724,0.14923064410686493,-0.05772944167256355,0.9054030179977417,0.7757834196090698,0.08375541865825653,0.8377740383148193,0.836531937122345,-0.2213548719882965,0.8484371900558472,0.7485890984535217,-0.429710328578949,0.803294837474823,0.5614588856697083,-0.4235312044620514,0.7365331649780273,0.30321624875068665,0.1058959886431694,0.9623688459396362,0.8029776811599731,0.31677550077438354,1.0864505767822266,0.7081863284111023,0.5437645316123962,1.1011074781417847,0.5688642263412476,0.0009767661103978753,1.1228525638580322,0.22210901975631714,-0.08537816256284714,0.887381374835968,0.7028512358665466,0.023435750976204872,0.745083749294281,0.7001811265945435,-0.24949300289154053,0.8302451372146606,0.6755756735801697,-0.44551628828048706,0.7877746820449829,0.49952125549316406,-0.4099271893501282,0.6247230172157288,0.19739559292793274,0.07873668521642685,0.9445176124572754,0.7301268577575684,0.2748703360557556,0.9869164228439331,0.5514767169952393,0.47366148233413696,0.8986243009567261,0.27811238169670105,0.0,0.0,0.0,0.0,0.0,0.3370000123977661,-0.10088519006967545,0.1847495585680008,0.33717241883277893,-0.22932809591293335,0.41996514797210693,0.33738261461257935,-0.312959760427475,0.5731186270713806,0.33751192688941956,-0.38005679845809937,0.6959924101829529,0.3376156687736511,2.0706130699157717,1.5699771869659425,3.485662213061005e-05,3.7105438427533954e-05,4.3289676134008914e-05,9.27635899744928e-05
1636986736.023417,5.0,0.0,0.0009767661103978753,1.1228525638580322,0.22210901975631714,-0.07939457148313522,0.9036973118782043,0.6695403456687927,0.018956845626235008,0.7750816941261292,0.6671268939971924,-0.26205044984817505,0.852785050868988,0.6572568416595459,-0.42737385630607605,0.8221522569656372,0.5163896679878235,-0.3935399353504181,0.6671419739723206,0.2291642278432846,0.103261299431324,0.9546095728874207,0.6818238496780396,0.2733299136161804,0.9913738369941711,0.5269152522087097,0.4377278983592987,0.918357253074646,0.3008460998535156,-0.1827915608882904,0.45597514510154724,0.14923064410686493,-0.05772944167256355,0.9054030179977417,0.7757834196090698,0.08375541865825653,0.8377740383148193,0.836531937122345,-0.2213548719882965,0.8484371900558472,0.7485890984535217,-0.429710328578949,0.803294837474823,0.5614588856697083,-0.4235312044620514,0.7365331649780273,0.30321624875068665,0.1058959886431694,0.9623688459396362,0.8029776811599731,0.31677550077438354,1.0864505767822266,0.7081863284111023,0.5437645316123962,1.1011074781417847,0.5688642263412476,0.0009767661103978753,1.1228525638580322,0.22210901975631714,-0.08537816256284714,0.887381374835968,0.7028512358665466,0.023435750976204872,0.745083749294281,0.7001811265945435,-0.24949300289154053,0.8302451372146606,0.6755756735801697,-0.44551628828048706,0.7877746820449829,0.49952125549316406,-0.4099271893501282,0.6247230172157288,0.19739559292793274,0.07873668521642685,0.9445176124572754,0.7301268577575684,0.2748703360557556,0.9869164228439331,0.5514767169952393,0.47366148233413696,0.8986243009567261,0.27811238169670105,0.0,0.0,0.0,0.0,0.0,0.3370000123977661,-0.10088519006967545,0.1847495585680008,0.33717241883277893,-0.22932809591293335,0.41996514797210693,0.33738261461257935,-0.312959760427475,0.5731186270713806,0.33751192688941956,-0.38005679845809937,0.6959924101829529,0.3376156687736511,2.0706130699157717,1.5699771869659425,3.485662213061005e-05,3.7105438427533954e-05,4.3289676134008914e-05,9.27635899744928e-05
1636986736.0497067,5.0,0.0,0.0009767661103978753,1.1228525638580322,0.22210901975631714,-0.07939457148313522,0.9036973118782043,0.6695403456687927,0.018956845626235008,0.7750816941261292,0.6671268939971924,-0.26205044984817505,0.852785050868988,0.6572568416595459,-0.42737385630607605,0.8221522569656372,0.5163896679878235,-0.3935399353504181,0.6671419739723206,0.2291642278432846,0.103261299431324,0.9546095728874207,0.6818238496780396,0.2733299136161804,0.9913738369941711,0.5269152522087097,0.4377278983592987,0.918357253074646,0.3008460998535156,-0.025608398020267487,0.9956570267677307,0.2468247413635254,-0.05431944131851196,0.921319305896759,0.7802882790565491,0.08693718165159225,0.8466792106628418,0.8418849110603333,-0.2154194861650467,0.8782958388328552,0.7650917768478394,-0.42421436309814453,0.784353494644165,0.5464131236076355,-0.4228317439556122,0.7434698343276978,0.3056018352508545,0.10678059607744217,0.9643427729606628,0.7954847812652588,0.31950050592422485,1.0724788904190063,0.7116996645927429,0.5696112513542175,1.1159721612930298,0.5773329734802246,0.0009767661103978753,1.1228525638580322,0.22210901975631714,-0.08537816256284714,0.887381374835968,0.7028512358665466,0.023435750976204872,0.745083749294281,0.7001811265945435,-0.254624605178833,0.8421823382377625,0.6868863105773926,-0.4557712972164154,0.8049118518829346,0.5154951214790344,-0.4201821982860565,0.6418601870536804,0.2133694738149643,0.08386828005313873,0.9325804114341736,0.7188162207603455,0.2800019383430481,0.9749792218208313,0.5401660799980164,0.47879308462142944,0.8866870999336243,0.26680174469947815,0.0,0.0,0.0,0.0,0.0,0.3370000123977661,-0.10088519006967545,0.1847495585680008,0.33717241883277893,-0.22932809591293335,0.41996514797210693,0.33738261461257935,-0.312959760427475,0.5731186270713806,0.33751192688941956,-0.38005679845809937,0.6959924101829529,0.3376156687736511,2.0706130699157717,1.5699771869659425,3.485662213061005e-05,3.7105438427533954e-05,4.3289676134008914e-05,9.27635899744928e-05
1636986736.056414,5.0,0.0,0.010981662198901176,1.1099210977554321,0.22770191729068756,-0.0751863420009613,0.9032174348831177,0.6638331413269043,0.016059327870607376,0.7795910835266113,0.6692504286766052,-0.25258180499076843,0.8498714566230774,0.6449935436248779,-0.437002569437027,0.8331509232521057,0.5205045938491821,-0.39188551902770996,0.6512773633003235,0.22118732333183289,0.10220912843942642,0.956563413143158,0.6826727986335754,0.27834299206733704,0.9800169467926025,0.522972822189331,0.43669310212135315,0.9065433144569397,0.3070015013217926,-0.025608398020267487,0.9956570267677307,0.2468247413635254,-0.05431944131851196,0.921319305896759,0.7802882790565491,0.08693718165159225,0.8466792106628418,0.8418849110603333,-0.2154194861650467,0.8782958388328552,0.7650917768478394,-0.42421436309814453,0.784353494644165,0.5464131236076355,-0.4228317439556122,0.7434698343276978,0.3056018352508545,0.10678059607744217,0.9643427729606628,0.7954847812652588,0.31950050592422485,1.0724788904190063,0.7116996645927429,0.5696112513542175,1.1159721612930298,0.5773329734802246,0.010981662198901176,1.1099210977554321,0.22770191729068756,-0.0834018662571907,0.8806008696556091,0.7099061608314514,0.02319641038775444,0.7367122769355774,0.7152994871139526,-0.25264832377433777,0.8354018330574036,0.6939412355422974,-0.47145357728004456,0.8134126663208008,0.5427302718162537,-0.42826515436172485,0.6371124982833862,0.24915681779384613,0.08584457635879517,0.9257999062538147,0.7258711457252502,0.28381863236427307,0.9538257718086243,0.5464198589324951,0.48298656940460205,0.8618218302726746,0.2745579183101654,0.0,0.0,0.0,0.0,0.0,0.3370000123977661,-0.10088519006967545,0.1847495585680008,0.33717241883277893,-0.22932809591293335,0.41996514797210693,0.33738261461257935,-0.312959760427475,0.5731186270713806,0.33751192688941956,-0.38005679845809937,0.6959924101829529,0.3376156687736511,2.0706130699157717,1.5699771869659425,3.485662213061005e-05,3.7105438427533954e-05,4.3289676134008914e-05,9.27635899744928e-05
1636986736.0827577,5.0,0.0,0.010981662198901176,1.1099210977554321,0.22770191729068756,-0.0751863420009613,0.9032174348831177,0.6638331413269043,0.016059327870607376,0.7795910835266113,0.6692504286766052,-0.25258180499076843,0.8498714566230774,0.6449935436248779,-0.437002569437027,0.8331509232521057,0.5205045938491821,-0.39188551902770996,0.6512773633003235,0.22118732333183289,0.10220912843942642,0.956563413143158,0.6826727986335754,0.27834299206733704,0.9800169467926025,0.522972822189331,0.43669310212135315,0.9065433144569397,0.3070015013217926,-0.025608398020267487,0.9956570267677307,0.2468247413635254,-0.05431944131851196,0.921319305896759,0.7802882790565491,0.08693718165159225,0.8466792106628418,0.8418849110603333,-0.2154194861650467,0.8782958388328552,0.7650917768478394,-0.42421436309814453,0.784353494644165,0.5464131236076355,-0.4228317439556122,0.7434698343276978,0.3056018352508545,0.10678059607744217,0.9643427729606628,0.7954847812652588,0.31950050592422485,1.0724788904190063,0.7116996645927429,0.5696112513542175,1.1159721612930298,0.5773329734802246,0.010981662198901176,1.1099210977554321,0.22770191729068756,-0.08431979268789291,0.8813077211380005,0.710061252117157,0.02200346626341343,0.7372531294822693,0.7163736820220947,-0.2535662353038788,0.8361086845397949,0.6940962672233582,-0.47414326667785645,0.8161100149154663,0.5452008843421936,-0.4300456643104553,0.6383461356163025,0.2526470422744751,0.08492664992809296,0.926506757736206,0.7260262370109558,0.28299978375434875,0.9528816342353821,0.5464340448379517,0.4822036325931549,0.8604520559310913,0.27474287152290344,0.0,0.0,0.0,0.0,0.0,0.3370000123977661,-0.10088519006967545,0.1847495585680008,0.33717241883277893,-0.22932809591293335,0.41996514797210693,0.33738261461257935,-0.312959760427475,0.5731186270713806,0.33751192688941956,-0.38005679845809937,0.6959924101829529,0.3376156687736511,2.0706130699157717,1.5699771869659425,3.485662213061005e-05,3.7105438427533954e-05,4.3289676134008914e-05,9.27635899744928e-05
1636986736.0894098,5.0,0.0,0.010981662198901176,1.1099210977554321,0.22770191729068756,-0.0751863420009613,0.9032174348831177,0.6638331413269043,0.016059327870607376,0.7795910835266113,0.6692504286766052,-0.25258180499076843,0.8498714566230774,0.6449935436248779,-0.437002569437027,0.8331509232521057,0.5205045938491821,-0.39188551902770996,0.6512773633003235,0.22118732333183289,0.10220912843942642,0.956563413143158,0.6826727986335754,0.27834299206733704,0.9800169467926025,0.522972822189331,0.43669310212135315,0.9065433144569397,0.3070015013217926,-0.39249932765960693,-0.09331962466239929,-0.051985908299684525,-0.05465477705001831,0.9008263349533081,0.7739311456680298,0.08297688513994217,0.8355950117111206,0.8352221846580505,-0.222916841506958,0.8405795097351074,0.7442463040351868,-0.42826706171035767,0.8121564984321594,0.5582594871520996,-0.42558130621910095,0.7216953039169312,0.30471646785736084,0.11360727995634079,0.9610731601715088,0.803615927696228,0.3056902289390564,1.0605007410049438,0.7134804129600525,0.5706837177276611,1.1010754108428955,0.572443962097168,0.010981662198901176,1.1099210977554321,0.22770191729068756,-0.08431979268789291,0.8813077211380005,0.710061252117157,0.02200346626341343,0.7372531294822693,0.7163736820220947,-0.2535662353038788,0.8361086845397949,0.6940962672233582,-0.47414326667785645,0.8161100149154663,0.5452008843421936,-0.4300456643104553,0.6383461356163025,0.2526470422744751,0.08492664992809296,0.926506757736206,0.7260262370109558,0.28299978375434875,0.9528816342353821,0.5464340448379517,0.4822036325931549,0.8604520559310913,0.27474287152290344,0.0,0.0,0.0,0.0,0.0,0.3370000123977661,-0.10088519006967545,0.1847495585680008,0.33717241883277893,-0.22932809591293335,0.41996514797210693,0.33738261461257935,-0.312959760427475,0.5731186270713806,0.33751192688941956,-0.38005679845809937,0.6959924101829529,0.3376156687736511,2.0706130699157717,1.5699771869659425,3.485662213061005e-05,3.7105438427533954e-05,4.3289676134008914e-05,9.27635899744928e-05
1636986736.115715,5.0,0.0,0.010981662198901176,1.1099210977554321,0.22770191729068756,-0.0751863420009613,0.9032174348831177,0.6638331413269043,0.016059327870607376,0.7795910835266113,0.6692504286766052,-0.25258180499076843,0.8498714566230774,0.6449935436248779,-0.437002569437027,0.8331509232521057,0.5205045938491821,-0.39188551902770996,0.6512773633003235,0.22118732333183289,0.10220912843942642,0.956563413143158,0.6826727986335754,0.27834299206733704,0.9800169467926025,0.522972822189331,0.43669310212135315,0.9065433144569397,0.3070015013217926,-0.39249932765960693,-0.09331962466239929,-0.051985908299684525,-0.05465477705001831,0.9008263349533081,0.7739311456680298,0.08297688513994217,0.8355950117111206,0.8352221846580505,-0.222916841506958,0.8405795097351074,0.7442463040351868,-0.42826706171035767,0.8121564984321594,0.5582594871520996,-0.42558130621910095,0.7216953039169312,0.30471646785736084,0.11360727995634079,0.9610731601715088,0.803615927696228,0.3056902289390564,1.0605007410049438,0.7134804129600525,0.5706837177276611,1.1010754108428955,0.572443962097168,0.010981662198901176,1.1099210977554321,0.22770191729068756,-0.08431979268789291,0.8813077211380005,0.710061252117157,0.02200346626341343,0.7372531294822693,0.7163736820220947,-0.24768993258476257,0.8228124976158142,0.6812394857406616,-0.46826696395874023,0.8028138279914856,0.5323440432548523,-0.4241693615913391,0.6250499486923218,0.23979021608829498,0.07905035465955734,0.9398029446601868,0.7388830184936523,0.27712348103523254,0.9661778211593628,0.559290885925293,0.4763273298740387,0.873748242855072,0.28759971261024475,0.0,0.0,0.0,0.0,0.0,0.3370000123977661,-0.10088519006967545,0.1847495585680008,0.33717241883277893,-0.22932809591293335,0.41996514797210693,0.33738261461257935,-0.312959760427475,0.5731186270713806,0.33751192688941956,-0.38005679845809937,0.6959924101829529,0.3376156687736511,2.0706130699157717,1.5699771869659425,3.485662213061005e-05,3.7105438427533954e-05,4.3289676134008914e-05,9.27635899744928e-05
1636986736.122411,5.0,0.0,0.009425926953554153,1.1132498979568481,0.22837504744529724,-0.07375197857618332,0.9003981351852417,0.662609875202179,0.021413300186395645,0.7712585926055908,0.6653265357017517,-0.2531466484069824,0.8506091237068176,0.6453176140785217,-0.4269918203353882,0.8217158317565918,0.5162263512611389,-0.39102041721343994,0.6644555926322937,0.22853663563728333,0.10564270615577698,0.9501871466636658,0.679902195930481,0.2749826908111572,0.9742251634597778,0.5307967662811279,0.4385417699813843,0.9016016721725464,0.30578911304473877,-0.39249932765960693,-0.09331962466239929,-0.051985908299684525,-0.05465477705001831,0.9008263349533081,0.7739311456680298,0.08297688513994217,0.8355950117111206,0.8352221846580505,-0.222916841506958,0.8405795097351074,0.7442463040351868,-0.42826706171035767,0.8121564984321594,0.5582594871520996,-0.42558130621910095,0.7216953039169312,0.30471646785736084,0.11360727995634079,0.9610731601715088,0.803615927696228,0.3056902289390564,1.0605007410049438,0.7134804129600525,0.5706837177276611,1.1010754108428955,0.572443962097168,0.009425926953554153,1.1132498979568481,0.22837504744529724,-0.08283554017543793,0.8787181973457336,0.7084788680076599,0.023437825962901115,0.7345279455184937,0.71184903383255,-0.24620568752288818,0.8202229142189026,0.6796570420265198,-0.4595233201980591,0.7864217758178711,0.5228862762451172,-0.42123839259147644,0.6204725503921509,0.22267387807369232,0.08053459972143173,0.9372134208679199,0.7373006343841553,0.28079476952552795,0.9654591083526611,0.5604391098022461,0.47959333658218384,0.8767842054367065,0.2872041165828705,0.0,0.0,0.0,0.0,0.0,0.3370000123977661,-0.10088519006967545,0.1847495585680008,0.33717241883277893,-0.22932809591293335,0.41996514797210693,0.33738261461257935,-0.312959760427475,0.5731186270713806,0.33751192688941956,-0.38005679845809937,0.6959924101829529,0.3376156687736511,2.0706130699157717,1.5699771869659425,3.485662213061005e-05,3.7105438427533954e-05,4.3289676134008914e-05,9.27635899744928e-05
