UF-SAMM-Lab/NSF_project_archive_data/MSEC_2022/skeleton_fusion_data/data_files/reject/dynamic/location_test_2021_11_15_09_32_57_OpenPose.csv
Time,Test Joint,Touch Active,H1-Pelvis-x,H1-Pelvis-y,H1-Pelvis-z,H1-Spine-x,H1-Spine-y,H1-Spine-z,H1-Head-x,H1-Head-y,H1-Head-z,H1-R-Shoulder-x,H1-R-Shoulder-y,H1-R-Shoulder-z,H1-R-Elbow-x,H1-R-Elbow-y,H1-R-Elbow-z,H1-R-Wrist-x,H1-R-Wrist-y,H1-R-Wrist-z,H1-L-Shoulder-x,H1-L-Shoulder-y,H1-L-Shoulder-z,H1-L-Elbow-x,H1-L-Elbow-y,H1-L-Elbow-z,H1-L-Wrist-x,H1-L-Wrist-y,H1-L-Wrist-z,H2-Pelvis-x,H2-Pelvis-y,H2-Pelvis-z,H2-Spine-x,H2-Spine-y,H2-Spine-z,H2-Head-x,H2-Head-y,H2-Head-z,H2-R-Shoulder-x,H2-R-Shoulder-y,H2-R-Shoulder-z,H2-R-Elbow-x,H2-R-Elbow-y,H2-R-Elbow-z,H2-R-Wrist-x,H2-R-Wrist-y,H2-R-Wrist-z,H2-L-Shoulder-x,H2-L-Shoulder-y,H2-L-Shoulder-z,H2-L-Elbow-x,H2-L-Elbow-y,H2-L-Elbow-z,H2-L-Wrist-x,H2-L-Wrist-y,H2-L-Wrist-z,HC-Pelvis-x,HC-Pelvis-y,HC-Pelvis-z,HC-Spine-x,HC-Spine-y,HC-Spine-z,HC-Head-x,HC-Head-y,HC-Head-z,HC-R-Shoulder-x,HC-R-Shoulder-y,HC-R-Shoulder-z,HC-R-Elbow-x,HC-R-Elbow-y,HC-R-Elbow-z,HC-R-Wrist-x,HC-R-Wrist-y,HC-R-Wrist-z,HC-L-Shoulder-x,HC-L-Shoulder-y,HC-L-Shoulder-z,HC-L-Elbow-x,HC-L-Elbow-y,HC-L-Elbow-z,HC-L-Wrist-x,HC-L-Wrist-y,HC-L-Wrist-z,Robot-Base(x),Robot-Base(y),Robot-Base(z),Robot-J2(x),Robot-J2(y),Robot-J2(z),Robot-J3(x),Robot-J3(y),Robot-J3(z),Robot-J5(x),Robot-J5(y),Robot-J5(z),Robot-J6(x),Robot-J6(y),Robot-J6(z),Robot-EE(x),Robot-EE(y),Robot-EE(z),Robot-J1-angle,Robot-J2-angle,Robot-J3-angle,Robot-J4-angle,Robot-J5-angle,Robot-J6-angle
1636986777.47142,5.0,0.0,0.05536649748682976,1.204515814781189,0.2855928838253021,-0.049364976584911346,0.9430381059646606,0.7075265645980835,0.04987308382987976,0.8273051977157593,0.7083126902580261,-0.22001008689403534,0.8893213272094727,0.6783998012542725,-0.3773002028465271,0.8379834890365601,0.4998791813850403,-0.3954296410083771,0.6691568493843079,0.22963497042655945,0.12128013372421265,0.9967549443244934,0.7366533279418945,0.29253917932510376,1.038115382194519,0.5574008226394653,0.440234512090683,1.0108212232589722,0.33906933665275574,-0.1573205590248108,0.4392058849334717,0.1615811586380005,-0.038634516298770905,0.9654864072799683,0.8142090439796448,0.11722730100154877,0.9319573640823364,0.901825487613678,-0.19832652807235718,0.9236546754837036,0.7832257151603699,-0.37070661783218384,0.8280355334281921,0.5593505501747131,-0.41786059737205505,0.735526442527771,0.31036290526390076,0.12105748802423477,1.007318139076233,0.8451923727989197,0.33313289284706116,1.1465731859207153,0.7536361813545227,0.5432735085487366,1.1531133651733398,0.5684531927108765,-0.1573205590248108,0.4392058849334717,0.1615811586380005,-0.08131731301546097,0.7762212753295898,0.5795059204101562,0.03540205582976341,0.640308141708374,0.580140233039856,-0.24698485434055328,0.7241445779800415,0.5514975190162659,-0.40121135115623474,0.6385952234268188,0.3511989414691925,-0.4218091666698456,0.4563968777656555,0.05877484008669853,0.08435022085905075,0.828298032283783,0.6075143218040466,0.29559531807899475,0.9670079350471497,0.5163165926933289,0.5576210618019104,0.9751628637313843,0.28541073203086853,0.0,0.0,0.0,0.0,0.0,0.3370000123977661,-0.10088494420051575,0.18474969267845154,0.33717241883277893,-0.2293275147676468,0.4199654459953308,0.33741331100463867,-0.3129589855670929,0.5731189846992493,0.3375539779663086,-0.38005584478378296,0.6959928870201111,0.3376668095588684,2.0706117385864258,1.5699771869659425,-7.967227683402598e-05,-0.00010513207351323217,9.27635899744928e-05,7.421087685506791e-05
1636986777.4833164,5.0,0.0,0.05536649748682976,1.204515814781189,0.2855928838253021,-0.049364976584911346,0.9430381059646606,0.7075265645980835,0.04987308382987976,0.8273051977157593,0.7083126902580261,-0.22001008689403534,0.8893213272094727,0.6783998012542725,-0.3773002028465271,0.8379834890365601,0.4998791813850403,-0.3954296410083771,0.6691568493843079,0.22963497042655945,0.12128013372421265,0.9967549443244934,0.7366533279418945,0.29253917932510376,1.038115382194519,0.5574008226394653,0.440234512090683,1.0108212232589722,0.33906933665275574,-0.1573205590248108,0.4392058849334717,0.1615811586380005,-0.038634516298770905,0.9654864072799683,0.8142090439796448,0.11722730100154877,0.9319573640823364,0.901825487613678,-0.19832652807235718,0.9236546754837036,0.7832257151603699,-0.37070661783218384,0.8280355334281921,0.5593505501747131,-0.41786059737205505,0.735526442527771,0.31036290526390076,0.12105748802423477,1.007318139076233,0.8451923727989197,0.33313289284706116,1.1465731859207153,0.7536361813545227,0.5432735085487366,1.1531133651733398,0.5684531927108765,-0.1573205590248108,0.4392058849334717,0.1615811586380005,-0.08131731301546097,0.7762212753295898,0.5795059204101562,0.03529909625649452,0.6402214169502258,0.58042973279953,-0.24692398309707642,0.724090576171875,0.5512391328811646,-0.4011504650115967,0.6385412216186523,0.3509405851364136,-0.4207565486431122,0.4559635818004608,0.058684926480054855,0.08428934216499329,0.8283520340919495,0.607772707939148,0.2955344617366791,0.9670619368553162,0.5165749192237854,0.55756014585495,0.9752168655395508,0.28566908836364746,0.0,0.0,0.0,0.0,0.0,0.3370000123977661,-0.10088494420051575,0.18474969267845154,0.33717241883277893,-0.2293275147676468,0.4199654459953308,0.33741331100463867,-0.3129589855670929,0.5731189846992493,0.3375539779663086,-0.38005584478378296,0.6959928870201111,0.3376668095588684,2.0706117385864258,1.5699721279144288,-7.967227683402598e-05,-0.00010513207351323217,9.27635899744928e-05,7.421087685506791e-05
1636986777.5044215,5.0,0.0,0.05536649748682976,1.204515814781189,0.2855928838253021,-0.049364976584911346,0.9430381059646606,0.7075265645980835,0.04987308382987976,0.8273051977157593,0.7083126902580261,-0.22001008689403534,0.8893213272094727,0.6783998012542725,-0.3773002028465271,0.8379834890365601,0.4998791813850403,-0.3954296410083771,0.6691568493843079,0.22963497042655945,0.12128013372421265,0.9967549443244934,0.7366533279418945,0.29253917932510376,1.038115382194519,0.5574008226394653,0.440234512090683,1.0108212232589722,0.33906933665275574,-0.14747226238250732,0.4797860085964203,0.17043502628803253,-0.0313241221010685,0.9806473851203918,0.8273908495903015,0.11360761523246765,0.9223246574401855,0.9046491384506226,-0.18669351935386658,0.945347785949707,0.8047841787338257,-0.37490320205688477,0.7985585927963257,0.5530926585197449,-0.4166141450405121,0.7421759963035583,0.30599409341812134,0.12404528260231018,1.0159471035003662,0.8499975204467773,0.33237531781196594,1.1663464307785034,0.7618002891540527,0.5513267517089844,1.1691317558288574,0.5658165216445923,-0.14747226238250732,0.4797860085964203,0.17043502628803253,-0.07200087606906891,0.804842472076416,0.5978216528892517,0.04461553692817688,0.668842613697052,0.5987455248832703,-0.23760753870010376,0.7527117133140564,0.5695549249649048,-0.3818419277667999,0.6386695504188538,0.3761257529258728,-0.40144801139831543,0.45609191060066223,0.08387010544538498,0.09360578656196594,0.8569732308387756,0.6260884404182434,0.2994014620780945,1.006136178970337,0.5390223860740662,0.5596108436584473,1.009243369102478,0.3059496581554413,0.0,0.0,0.0,0.0,0.0,0.3370000123977661,-0.10088494420051575,0.18474969267845154,0.3371734917163849,-0.2293275147676468,0.4199654459953308,0.3374157249927521,-0.3129589855670929,0.5731189846992493,0.33755725622177124,-0.38005584478378296,0.6959928870201111,0.33767083287239075,2.0706117385864258,1.5699721279144288,-7.967227683402598e-05,-0.00010513207351323217,8.657935226801783e-05,7.421087685506791e-05
1636986777.516309,5.0,0.0,0.05536649748682976,1.204515814781189,0.2855928838253021,-0.049364976584911346,0.9430381059646606,0.7075265645980835,0.04987308382987976,0.8273051977157593,0.7083126902580261,-0.22001008689403534,0.8893213272094727,0.6783998012542725,-0.3773002028465271,0.8379834890365601,0.4998791813850403,-0.3954296410083771,0.6691568493843079,0.22963497042655945,0.12128013372421265,0.9967549443244934,0.7366533279418945,0.29253917932510376,1.038115382194519,0.5574008226394653,0.440234512090683,1.0108212232589722,0.33906933665275574,-0.14747226238250732,0.4797860085964203,0.17043502628803253,-0.0313241221010685,0.9806473851203918,0.8273908495903015,0.11360761523246765,0.9223246574401855,0.9046491384506226,-0.18669351935386658,0.945347785949707,0.8047841787338257,-0.37490320205688477,0.7985585927963257,0.5530926585197449,-0.4166141450405121,0.7421759963035583,0.30599409341812134,0.12404528260231018,1.0159471035003662,0.8499975204467773,0.33237531781196594,1.1663464307785034,0.7618002891540527,0.5513267517089844,1.1691317558288574,0.5658165216445923,-0.14747226238250732,0.4797860085964203,0.17043502628803253,-0.07197842746973038,0.8053353428840637,0.5974423885345459,0.04463798552751541,0.6693354845046997,0.5983662605285645,-0.23758508265018463,0.7532045841217041,0.569175660610199,-0.3823918402194977,0.6402663588523865,0.3755265474319458,-0.4019979238510132,0.45768871903419495,0.08327089995145798,0.09362823516130447,0.8574660420417786,0.6257091760635376,0.29966163635253906,1.0062074661254883,0.5384842753410339,0.5599486231803894,1.0095186233520508,0.30550098419189453,0.0,0.0,0.0,0.0,0.0,0.3370000123977661,-0.10088494420051575,0.18474969267845154,0.3371734917163849,-0.2293275147676468,0.4199654459953308,0.3374157249927521,-0.3129589855670929,0.5731189846992493,0.33755725622177124,-0.38005584478378296,0.6959928870201111,0.33767083287239075,2.0706117385864258,1.5699721279144288,-7.967227683402598e-05,-0.00010513207351323217,8.657935226801783e-05,7.421087685506791e-05
1636986777.5374312,5.0,0.0,0.06237567961215973,1.2053799629211426,0.2748166620731354,-0.04610074684023857,0.9376637935638428,0.7051028609275818,0.04987308382987976,0.8273051977157593,0.7083126902580261,-0.21671707928180695,0.8848218321800232,0.6763841509819031,-0.38027530908584595,0.8415253758430481,0.5011602640151978,-0.37229034304618835,0.638418436050415,0.2081100046634674,0.1245155781507492,0.9905057549476624,0.7338215708732605,0.2861897647380829,1.0531787872314453,0.5627371668815613,0.42992740869522095,1.0141032934188843,0.3359145224094391,-0.14747226238250732,0.4797860085964203,0.17043502628803253,-0.0313241221010685,0.9806473851203918,0.8273908495903015,0.11360761523246765,0.9223246574401855,0.9046491384506226,-0.18669351935386658,0.945347785949707,0.8047841787338257,-0.37490320205688477,0.7985585927963257,0.5530926585197449,-0.4166141450405121,0.7421759963035583,0.30599409341812134,0.12404528260231018,1.0159471035003662,0.8499975204467773,0.33237531781196594,1.1663464307785034,0.7618002891540527,0.5513267517089844,1.1691317558288574,0.5658165216445923,-0.14747226238250732,0.4797860085964203,0.17043502628803253,-0.07197842746973038,0.8053353428840637,0.5974423885345459,0.04559582844376564,0.6702204346656799,0.6015010476112366,-0.23788955807685852,0.7539862990379333,0.5695323944091797,-0.3826963007450104,0.6410480737686157,0.3758832812309265,-0.3737211227416992,0.44406557083129883,0.0925995409488678,0.09393269568681717,0.8566843271255493,0.6253524422645569,0.29996609687805176,1.0054256916046143,0.5381275415420532,0.5602530837059021,1.0087368488311768,0.30514422059059143,0.0,0.0,0.0,0.0,0.0,0.3370000123977661,-0.10088494420051575,0.18474969267845154,0.3371734917163849,-0.2293275147676468,0.4199654459953308,0.3374157249927521,-0.3129589855670929,0.5731189846992493,0.3375583589076996,-0.38005584478378296,0.6959928870201111,0.33767277002334595,2.0706117385864258,1.5699721279144288,-7.967227683402598e-05,-0.00010513207351323217,8.657935226801783e-05,7.421087685506791e-05
1636986777.549276,5.0,0.0,0.06237567961215973,1.2053799629211426,0.2748166620731354,-0.04610074684023857,0.9376637935638428,0.7051028609275818,0.04987308382987976,0.8273051977157593,0.7083126902580261,-0.21671707928180695,0.8848218321800232,0.6763841509819031,-0.38027530908584595,0.8415253758430481,0.5011602640151978,-0.37229034304618835,0.638418436050415,0.2081100046634674,0.1245155781507492,0.9905057549476624,0.7338215708732605,0.2861897647380829,1.0531787872314453,0.5627371668815613,0.42992740869522095,1.0141032934188843,0.3359145224094391,-0.14747226238250732,0.4797860085964203,0.17043502628803253,-0.0313241221010685,0.9806473851203918,0.8273908495903015,0.11360761523246765,0.9223246574401855,0.9046491384506226,-0.18669351935386658,0.945347785949707,0.8047841787338257,-0.37490320205688477,0.7985585927963257,0.5530926585197449,-0.4166141450405121,0.7421759963035583,0.30599409341812134,0.12404528260231018,1.0159471035003662,0.8499975204467773,0.33237531781196594,1.1663464307785034,0.7618002891540527,0.5513267517089844,1.1691317558288574,0.5658165216445923,-0.14747226238250732,0.4797860085964203,0.17043502628803253,-0.07197842746973038,0.8053353428840637,0.5974423885345459,0.045557256788015366,0.6701831221580505,0.6013734340667725,-0.23787721991539001,0.7539544701576233,0.5695177316665649,-0.38268399238586426,0.6410162448883057,0.37586864829063416,-0.3749562203884125,0.4444516599178314,0.09225799888372421,0.09392036497592926,0.8567162156105042,0.6253671050071716,0.29995378851890564,1.0054576396942139,0.5381421446800232,0.5602407455444336,1.0087687969207764,0.3051588535308838,0.0,0.0,0.0,0.0,0.0,0.3370000123977661,-0.10088494420051575,0.18474969267845154,0.3371734917163849,-0.2293275147676468,0.4199654459953308,0.3374157249927521,-0.3129589855670929,0.5731189846992493,0.3375583589076996,-0.38005584478378296,0.6959928870201111,0.33767277002334595,2.0706117385864258,1.5699721279144288,-7.967227683402598e-05,-0.00010513207351323217,8.657935226801783e-05,7.421087685506791e-05
1636986777.570437,5.0,0.0,0.06237567961215973,1.2053799629211426,0.2748166620731354,-0.04610074684023857,0.9376637935638428,0.7051028609275818,0.04987308382987976,0.8273051977157593,0.7083126902580261,-0.21671707928180695,0.8848218321800232,0.6763841509819031,-0.38027530908584595,0.8415253758430481,0.5011602640151978,-0.37229034304618835,0.638418436050415,0.2081100046634674,0.1245155781507492,0.9905057549476624,0.7338215708732605,0.2861897647380829,1.0531787872314453,0.5627371668815613,0.42992740869522095,1.0141032934188843,0.3359145224094391,-0.13089407980442047,0.5158276557922363,0.16999413073062897,-0.040081657469272614,0.9584694504737854,0.8144500255584717,0.11056863516569138,0.9138149619102478,0.8994612097740173,-0.2022167295217514,0.9067444801330566,0.7821059823036194,-0.36903589963912964,0.8462035655975342,0.5752124190330505,-0.4172712564468384,0.735874354839325,0.3038240373134613,0.12205342203378677,1.0101944208145142,0.846794068813324,0.34656113386154175,1.1784582138061523,0.7597134709358215,0.5327180624008179,1.168294072151184,0.5720799565315247,-0.13089407980442047,0.5158276557922363,0.16999413073062897,-0.06888923794031143,0.8198744058609009,0.6146602630615234,0.04864644259214401,0.6847222447395325,0.6185912489891052,-0.23478803038597107,0.7684935331344604,0.5867356061935425,-0.3982018530368805,0.7115784287452698,0.38355931639671326,-0.3904740810394287,0.5150138735771179,0.09994864463806152,0.0970095545053482,0.8712552785873413,0.6425849199295044,0.3022959530353546,1.0253595113754272,0.5632671117782593,0.5474877953529358,1.011278510093689,0.31482359766960144,0.0,0.0,0.0,0.0,0.0,0.3370000123977661,-0.10088494420051575,0.18474969267845154,0.3371734917163849,-0.2293275147676468,0.4199654459953308,0.3374157249927521,-0.3129589855670929,0.5731189846992493,0.3375583589076996,-0.38005584478378296,0.6959928870201111,0.33767277002334595,2.0706117385864258,1.5699721279144288,-7.469276054762304e-05,-0.00010513207351323217,8.657935226801783e-05,7.421087685506791e-05
1636986777.582296,5.0,0.0,0.06237567961215973,1.2053799629211426,0.2748166620731354,-0.04610074684023857,0.9376637935638428,0.7051028609275818,0.04987308382987976,0.8273051977157593,0.7083126902580261,-0.21671707928180695,0.8848218321800232,0.6763841509819031,-0.38027530908584595,0.8415253758430481,0.5011602640151978,-0.37229034304618835,0.638418436050415,0.2081100046634674,0.1245155781507492,0.9905057549476624,0.7338215708732605,0.2861897647380829,1.0531787872314453,0.5627371668815613,0.42992740869522095,1.0141032934188843,0.3359145224094391,-0.13089407980442047,0.5158276557922363,0.16999413073062897,-0.040081657469272614,0.9584694504737854,0.8144500255584717,0.11056863516569138,0.9138149619102478,0.8994612097740173,-0.2022167295217514,0.9067444801330566,0.7821059823036194,-0.36903589963912964,0.8462035655975342,0.5752124190330505,-0.4172712564468384,0.735874354839325,0.3038240373134613,0.12205342203378677,1.0101944208145142,0.846794068813324,0.34656113386154175,1.1784582138061523,0.7597134709358215,0.5327180624008179,1.168294072151184,0.5720799565315247,-0.13089407980442047,0.5158276557922363,0.16999413073062897,-0.06833215802907944,0.8207696676254272,0.6139686703681946,0.049203526228666306,0.6856175065040588,0.6178996562957764,-0.23423095047473907,0.7693887948989868,0.5860439538955688,-0.39756181836128235,0.7101138234138489,0.3834766745567322,-0.38983404636383057,0.513549268245697,0.09986600279808044,0.0975666344165802,0.8721505403518677,0.6418933272361755,0.3028915524482727,1.0260372161865234,0.5622531771659851,0.5487558841705322,1.01261305809021,0.31443873047828674,0.0,0.0,0.0,0.0,0.0,0.3370000123977661,-0.10088494420051575,0.18474969267845154,0.3371734917163849,-0.2293275147676468,0.4199654459953308,0.3374157249927521,-0.3129589855670929,0.5731189846992493,0.3375583589076996,-0.38005584478378296,0.6959928870201111,0.33767277002334595,2.0706117385864258,1.5699771869659425,-7.469276054762304e-05,-0.00010513207351323217,8.657935226801783e-05,7.421087685506791e-05
1636986777.6034293,5.0,0.0,0.055990658700466156,1.2046228647232056,0.2857949435710907,-0.04773334041237831,0.9395764470100403,0.7059540748596191,0.042416080832481384,0.8221995234489441,0.7031441330909729,-0.2211078405380249,0.8908213376998901,0.6790717840194702,-0.37544071674346924,0.8357697129249573,0.49907851219177246,-0.3719446659088135,0.6520553827285767,0.2154768407344818,0.12564116716384888,0.9883316159248352,0.7328363656997681,0.2975493371486664,1.0496726036071777,0.5650314092636108,0.4209674298763275,1.0232748985290527,0.34767040610313416,-0.13089407980442047,0.5158276557922363,0.16999413073062897,-0.040081657469272614,0.9584694504737854,0.8144500255584717,0.11056863516569138,0.9138149619102478,0.8994612097740173,-0.2022167295217514,0.9067444801330566,0.7821059823036194,-0.36903589963912964,0.8462035655975342,0.5752124190330505,-0.4172712564468384,0.735874354839325,0.3038240373134613,0.12205342203378677,1.0101944208145142,0.846794068813324,0.34656113386154175,1.1784582138061523,0.7597134709358215,0.5327180624008179,1.168294072151184,0.5720799565315247,-0.13089407980442047,0.5158276557922363,0.16999413073062897,-0.06833215802907944,0.8207696676254272,0.6139686703681946,0.040773481130599976,0.6787112355232239,0.6105678677558899,-0.2358124554157257,0.7736721038818359,0.5880002379417419,-0.3991433084011078,0.714397132396698,0.3854329288005829,-0.3955724835395813,0.526751697063446,0.09576278924942017,0.09914813935756683,0.8678672909736633,0.6399370431900024,0.30447304248809814,1.0217539072036743,0.5602969527244568,0.5503373742103577,1.0083297491073608,0.31248247623443604,0.0,0.0,0.0,0.0,0.0,0.3370000123977661,-0.10088494420051575,0.18474969267845154,0.33717241883277893,-0.2293275147676468,0.4199654459953308,0.3374119699001312,-0.3129589855670929,0.5731189846992493,0.33755284547805786,-0.38005584478378296,0.6959928870201111,0.337665855884552,2.0706117385864258,1.5699771869659425,-7.469276054762304e-05,-0.00010513207351323217,8.657935226801783e-05,7.421087685506791e-05
1636986777.6153083,5.0,0.0,0.055990658700466156,1.2046228647232056,0.2857949435710907,-0.04773334041237831,0.9395764470100403,0.7059540748596191,0.042416080832481384,0.8221995234489441,0.7031441330909729,-0.2211078405380249,0.8908213376998901,0.6790717840194702,-0.37544071674346924,0.8357697129249573,0.49907851219177246,-0.3719446659088135,0.6520553827285767,0.2154768407344818,0.12564116716384888,0.9883316159248352,0.7328363656997681,0.2975493371486664,1.0496726036071777,0.5650314092636108,0.4209674298763275,1.0232748985290527,0.34767040610313416,-0.13089407980442047,0.5158276557922363,0.16999413073062897,-0.040081657469272614,0.9584694504737854,0.8144500255584717,0.11056863516569138,0.9138149619102478,0.8994612097740173,-0.2022167295217514,0.9067444801330566,0.7821059823036194,-0.36903589963912964,0.8462035655975342,0.5752124190330505,-0.4172712564468384,0.735874354839325,0.3038240373134613,0.12205342203378677,1.0101944208145142,0.846794068813324,0.34656113386154175,1.1784582138061523,0.7597134709358215,0.5327180624008179,1.168294072151184,0.5720799565315247,-0.13089407980442047,0.5158276557922363,0.16999413073062897,-0.06833215802907944,0.8207696676254272,0.6139686703681946,0.040773481130599976,0.6787112355232239,0.6105678677558899,-0.2358124554157257,0.7736721038818359,0.5880002379417419,-0.3991433084011078,0.714397132396698,0.3854329288005829,-0.3955724835395813,0.526751697063446,0.09576278924942017,0.09914813935756683,0.8678672909736633,0.6399370431900024,0.30447304248809814,1.0217539072036743,0.5602969527244568,0.5503373742103577,1.0083297491073608,0.31248247623443604,0.0,0.0,0.0,0.0,0.0,0.3370000123977661,-0.10088494420051575,0.18474969267845154,0.33717241883277893,-0.2293275147676468,0.4199654459953308,0.3374119699001312,-0.3129589855670929,0.5731189846992493,0.33755284547805786,-0.38005584478378296,0.6959928870201111,0.337665855884552,2.0706117385864258,1.5699771869659425,-7.469276054762304e-05,-0.00010513207351323217,8.657935226801783e-05,7.421087685506791e-05
1636986777.6364176,5.0,0.0,0.055990658700466156,1.2046228647232056,0.2857949435710907,-0.04773334041237831,0.9395764470100403,0.7059540748596191,0.042416080832481384,0.8221995234489441,0.7031441330909729,-0.2211078405380249,0.8908213376998901,0.6790717840194702,-0.37544071674346924,0.8357697129249573,0.49907851219177246,-0.3719446659088135,0.6520553827285767,0.2154768407344818,0.12564116716384888,0.9883316159248352,0.7328363656997681,0.2975493371486664,1.0496726036071777,0.5650314092636108,0.4209674298763275,1.0232748985290527,0.34767040610313416,-0.13285237550735474,0.5361544489860535,0.18107642233371735,-0.04164702445268631,0.951852560043335,0.8111108541488647,0.10722579807043076,0.9044543504714966,0.8937544226646423,-0.2034459263086319,0.8984077572822571,0.7693584561347961,-0.36521661281585693,0.8213405013084412,0.5647408962249756,-0.4170750081539154,0.7430818676948547,0.312992125749588,0.12015186995267868,1.0052974224090576,0.8528632521629333,0.34452176094055176,1.1956020593643188,0.7758724689483643,0.527053952217102,1.1754717826843262,0.5647066831588745,-0.13285237550735474,0.5361544489860535,0.18107642233371735,-0.06780683249235153,0.8326207399368286,0.6304023861885071,0.04129880294203758,0.6905623078346252,0.6270015835762024,-0.2352871298789978,0.7855231165885925,0.6044340133666992,-0.40450212359428406,0.725162923336029,0.407084196805954,-0.40093129873275757,0.5375174880027771,0.11741404980421066,0.09967345744371414,0.8797183036804199,0.6563707590103149,0.297891229391098,1.0478414297103882,0.5883538722991943,0.5257537961006165,1.0227121114730835,0.32474687695503235,0.0,0.0,0.0,0.0,0.0,0.3370000123977661,-0.10088494420051575,0.18474969267845154,0.33717241883277893,-0.2293275147676468,0.4199654459953308,0.3374119699001312,-0.3129589855670929,0.5731189846992493,0.33755284547805786,-0.38005584478378296,0.6959928870201111,0.337665855884552,2.0706117385864258,1.5699771869659425,-7.469276054762304e-05,-0.00010513207351323217,8.657935226801783e-05,7.421087685506791e-05
1636986777.6482904,5.0,0.0,0.055990658700466156,1.2046228647232056,0.2857949435710907,-0.04773334041237831,0.9395764470100403,0.7059540748596191,0.042416080832481384,0.8221995234489441,0.7031441330909729,-0.2211078405380249,0.8908213376998901,0.6790717840194702,-0.37544071674346924,0.8357697129249573,0.49907851219177246,-0.3719446659088135,0.6520553827285767,0.2154768407344818,0.12564116716384888,0.9883316159248352,0.7328363656997681,0.2975493371486664,1.0496726036071777,0.5650314092636108,0.4209674298763275,1.0232748985290527,0.34767040610313416,-0.13285237550735474,0.5361544489860535,0.18107642233371735,-0.04164702445268631,0.951852560043335,0.8111108541488647,0.10722579807043076,0.9044543504714966,0.8937544226646423,-0.2034459263086319,0.8984077572822571,0.7693584561347961,-0.36521661281585693,0.8213405013084412,0.5647408962249756,-0.4170750081539154,0.7430818676948547,0.312992125749588,0.12015186995267868,1.0052974224090576,0.8528632521629333,0.34452176094055176,1.1956020593643188,0.7758724689483643,0.527053952217102,1.1754717826843262,0.5647066831588745,-0.13285237550735474,0.5361544489860535,0.18107642233371735,-0.06780683249235153,0.8326207399368286,0.6304023861885071,0.04129880294203758,0.6905623078346252,0.6270015835762024,-0.2352871298789978,0.7855231165885925,0.6044340133666992,-0.40450212359428406,0.725162923336029,0.407084196805954,-0.40093129873275757,0.5375174880027771,0.11741404980421066,0.09967345744371414,0.8797183036804199,0.6563707590103149,0.297891229391098,1.0478414297103882,0.5883538722991943,0.5257537961006165,1.0227121114730835,0.32474687695503235,0.0,0.0,0.0,0.0,0.0,0.3370000123977661,-0.10088494420051575,0.18474969267845154,0.33717241883277893,-0.2293275147676468,0.4199654459953308,0.3374119699001312,-0.3129589855670929,0.5731189846992493,0.33755284547805786,-0.38005584478378296,0.6959928870201111,0.337665855884552,2.0706117385864258,1.5699771869659425,-7.469276054762304e-05,-0.00010513207351323217,8.657935226801783e-05,7.421087685506791e-05
1636986777.6694164,5.0,0.0,0.06677307188510895,1.216555118560791,0.2600722312927246,-0.048206377774477005,0.9468004703521729,0.7037003040313721,0.050236549228429794,0.8267058730125427,0.7080249190330505,-0.2161291092634201,0.8938255310058594,0.6693786382675171,-0.37544071674346924,0.8357697129249573,0.49907851219177246,-0.3731214106082916,0.6533162593841553,0.21576347947120667,0.1197163537144661,0.9997753500938416,0.738021969795227,0.29437994956970215,1.0572803020477295,0.5677398443222046,0.40872418880462646,1.0314394235610962,0.3457176089286804,-0.13285237550735474,0.5361544489860535,0.18107642233371735,-0.04164702445268631,0.951852560043335,0.8111108541488647,0.10722579807043076,0.9044543504714966,0.8937544226646423,-0.2034459263086319,0.8984077572822571,0.7693584561347961,-0.36521661281585693,0.8213405013084412,0.5647408962249756,-0.4170750081539154,0.7430818676948547,0.312992125749588,0.12015186995267868,1.0052974224090576,0.8528632521629333,0.34452176094055176,1.1956020593643188,0.7758724689483643,0.527053952217102,1.1754717826843262,0.5647066831588745,-0.13285237550735474,0.5361544489860535,0.18107642233371735,-0.06780683249235153,0.8326207399368286,0.6304023861885071,0.045723240822553635,0.6941207051277161,0.6353898048400879,-0.23246227204799652,0.780676543712616,0.5967485308647156,-0.40938109159469604,0.7162043452262878,0.4076266586780548,-0.4070056080818176,0.5293297171592712,0.1174464225769043,0.09684859961271286,0.8845648765563965,0.6640562415122986,0.29506635665893555,1.0526880025863647,0.596039354801178,0.5229289531707764,1.0275585651397705,0.3324323296546936,0.0,0.0,0.0,0.0,0.0,0.3370000123977661,-0.10088494420051575,0.18474969267845154,0.33717241883277893,-0.2293275147676468,0.4199654459953308,0.3374119699001312,-0.3129589855670929,0.5731189846992493,0.33755284547805786,-0.38005584478378296,0.6959928870201111,0.337665855884552,2.0706117385864258,1.5699771869659425,-7.469276054762304e-05,-0.00010513207351323217,8.657935226801783e-05,7.421087685506791e-05
1636986777.681282,5.0,0.0,0.06677307188510895,1.216555118560791,0.2600722312927246,-0.048206377774477005,0.9468004703521729,0.7037003040313721,0.050236549228429794,0.8267058730125427,0.7080249190330505,-0.2161291092634201,0.8938255310058594,0.6693786382675171,-0.37544071674346924,0.8357697129249573,0.49907851219177246,-0.3731214106082916,0.6533162593841553,0.21576347947120667,0.1197163537144661,0.9997753500938416,0.738021969795227,0.29437994956970215,1.0572803020477295,0.5677398443222046,0.40872418880462646,1.0314394235610962,0.3457176089286804,-0.13285237550735474,0.5361544489860535,0.18107642233371735,-0.04164702445268631,0.951852560043335,0.8111108541488647,0.10722579807043076,0.9044543504714966,0.8937544226646423,-0.2034459263086319,0.8984077572822571,0.7693584561347961,-0.36521661281585693,0.8213405013084412,0.5647408962249756,-0.4170750081539154,0.7430818676948547,0.312992125749588,0.12015186995267868,1.0052974224090576,0.8528632521629333,0.34452176094055176,1.1956020593643188,0.7758724689483643,0.527053952217102,1.1754717826843262,0.5647066831588745,-0.13285237550735474,0.5361544489860535,0.18107642233371735,-0.06780683249235153,0.8326207399368286,0.6304023861885071,0.045723240822553635,0.6941207051277161,0.6353898048400879,-0.23246227204799652,0.780676543712616,0.5967485308647156,-0.40938109159469604,0.7162043452262878,0.4076266586780548,-0.4070056080818176,0.5293297171592712,0.1174464225769043,0.09684859961271286,0.8845648765563965,0.6640562415122986,0.29506635665893555,1.0526880025863647,0.596039354801178,0.5229289531707764,1.0275585651397705,0.3324323296546936,0.0,0.0,0.0,0.0,0.0,0.3370000123977661,-0.10088494420051575,0.18474969267845154,0.33717241883277893,-0.2293275147676468,0.4199654459953308,0.3374119699001312,-0.3129589855670929,0.5731189846992493,0.33755284547805786,-0.38005584478378296,0.6959928870201111,0.337665855884552,2.0706117385864258,1.5699771869659425,-7.469276054762304e-05,-0.00010513207351323217,8.657935226801783e-05,7.421087685506791e-05
1636986777.7029963,5.0,0.0,0.06677307188510895,1.216555118560791,0.2600722312927246,-0.048206377774477005,0.9468004703521729,0.7037003040313721,0.050236549228429794,0.8267058730125427,0.7080249190330505,-0.2161291092634201,0.8938255310058594,0.6693786382675171,-0.37544071674346924,0.8357697129249573,0.49907851219177246,-0.3731214106082916,0.6533162593841553,0.21576347947120667,0.1197163537144661,0.9997753500938416,0.738021969795227,0.29437994956970215,1.0572803020477295,0.5677398443222046,0.40872418880462646,1.0314394235610962,0.3457176089286804,-0.14477534592151642,0.45812901854515076,0.1622307449579239,-0.04150950908660889,0.9536654949188232,0.8161812424659729,0.1054023951292038,0.8993484377861023,0.8906416296958923,-0.20317088067531586,0.9020336270332336,0.7794992923736572,-0.36629724502563477,0.8128132224082947,0.5607772469520569,-0.42117926478385925,0.7654843926429749,0.3199346959590912,0.12015186995267868,1.0052974224090576,0.8528632521629333,0.33908072113990784,1.1823245286941528,0.7601998448371887,0.4925408363342285,1.1242239475250244,0.5434209704399109,-0.14477534592151642,0.45812901854515076,0.1622307449579239,-0.07706490904092789,0.783047616481781,0.5910199284553528,0.03646516799926758,0.6445476412773132,0.5960073471069336,-0.24172033369541168,0.7311034798622131,0.5573660731315613,-0.4186391830444336,0.666631281375885,0.3682442307472229,-0.4162636995315552,0.4797566533088684,0.07806398719549179,0.0875905230641365,0.8349918127059937,0.6246737837791443,0.2860327959060669,0.9954533576965332,0.5406814813613892,0.44513383507728577,0.9594979286193848,0.2317550629377365,0.0,0.0,0.0,0.0,0.0,0.3370000123977661,-0.10088494420051575,0.18474969267845154,0.33717241883277893,-0.2293275147676468,0.4199654459953308,0.3374119699001312,-0.3129589855670929,0.5731189846992493,0.33755284547805786,-0.38005584478378296,0.6959928870201111,0.337665855884552,2.0706117385864258,1.5699771869659425,-7.469276054762304e-05,-0.00010513207351323217,8.657935226801783e-05,7.421087685506791e-05
1636986777.714278,5.0,0.0,0.06677307188510895,1.216555118560791,0.2600722312927246,-0.048206377774477005,0.9468004703521729,0.7037003040313721,0.050236549228429794,0.8267058730125427,0.7080249190330505,-0.2161291092634201,0.8938255310058594,0.6693786382675171,-0.37544071674346924,0.8357697129249573,0.49907851219177246,-0.3731214106082916,0.6533162593841553,0.21576347947120667,0.1197163537144661,0.9997753500938416,0.738021969795227,0.29437994956970215,1.0572803020477295,0.5677398443222046,0.40872418880462646,1.0314394235610962,0.3457176089286804,-0.14477534592151642,0.45812901854515076,0.1622307449579239,-0.04150950908660889,0.9536654949188232,0.8161812424659729,0.1054023951292038,0.8993484377861023,0.8906416296958923,-0.20317088067531586,0.9020336270332336,0.7794992923736572,-0.36629724502563477,0.8128132224082947,0.5607772469520569,-0.42117926478385925,0.7654843926429749,0.3199346959590912,0.12015186995267868,1.0052974224090576,0.8528632521629333,0.33908072113990784,1.1823245286941528,0.7601998448371887,0.4925408363342285,1.1242239475250244,0.5434209704399109,-0.14477534592151642,0.45812901854515076,0.1622307449579239,-0.07706490904092789,0.783047616481781,0.5910199284553528,0.03646516799926758,0.6445476412773132,0.5960073471069336,-0.24172033369541168,0.7311034798622131,0.5573660731315613,-0.4186391830444336,0.666631281375885,0.3682442307472229,-0.4162636995315552,0.4797566533088684,0.07806398719549179,0.0875905230641365,0.8349918127059937,0.6246737837791443,0.2860327959060669,0.9954533576965332,0.5406814813613892,0.44513383507728577,0.9594979286193848,0.2317550629377365,0.0,0.0,0.0,0.0,0.0,0.3370000123977661,-0.10088494420051575,0.18474969267845154,0.33717241883277893,-0.2293275147676468,0.4199654459953308,0.3374119699001312,-0.3129589855670929,0.5731189846992493,0.33755284547805786,-0.38005584478378296,0.6959928870201111,0.337665855884552,2.0706117385864258,1.5699771869659425,-7.469276054762304e-05,-0.00010513207351323217,8.657935226801783e-05,7.421087685506791e-05
1636986777.7354307,5.0,0.0,0.06743135303258896,1.2083771228790283,0.2642267048358917,-0.052973195910453796,0.9456289410591125,0.7016098499298096,0.04980432614684105,0.8171892166137695,0.7134748101234436,-0.2229665219783783,0.8862747550010681,0.6628378629684448,-0.3797546923160553,0.8409056067466736,0.5009360909461975,-0.3711862862110138,0.6372457146644592,0.2078465223312378,0.1170201376080513,1.0049831867218018,0.7403818368911743,0.2845909595489502,1.0569716691970825,0.5640808343887329,0.40816035866737366,1.0329853296279907,0.34610310196876526,-0.14477534592151642,0.45812901854515076,0.1622307449579239,-0.04150950908660889,0.9536654949188232,0.8161812424659729,0.1054023951292038,0.8993484377861023,0.8906416296958923,-0.20317088067531586,0.9020336270332336,0.7794992923736572,-0.36629724502563477,0.8128132224082947,0.5607772469520569,-0.42117926478385925,0.7654843926429749,0.3199346959590912,0.12015186995267868,1.0052974224090576,0.8528632521629333,0.33908072113990784,1.1823245286941528,0.7601998448371887,0.4925408363342285,1.1242239475250244,0.5434209704399109,-0.14477534592151642,0.45812901854515076,0.1622307449579239,-0.07706490904092789,0.783047616481781,0.5910199284553528,0.034578852355480194,0.6435278654098511,0.6039084792137146,-0.23941569030284882,0.726361870765686,0.5539910793304443,-0.4214240610599518,0.673694908618927,0.3660465180873871,-0.41314002871513367,0.47679445147514343,0.08268464356660843,0.08528587967157364,0.8397334218025208,0.628048837184906,0.28372815251350403,1.0001949071884155,0.5440565347671509,0.4552266597747803,0.9669049978256226,0.24153131246566772,0.0,0.0,0.0,0.0,0.0,0.3370000123977661,-0.10088494420051575,0.18474969267845154,0.33717241883277893,-0.2293275147676468,0.4199654459953308,0.3374119699001312,-0.3129589855670929,0.5731189846992493,0.33755284547805786,-0.38005584478378296,0.6959928870201111,0.337665855884552,2.0706117385864258,1.5699771869659425,-7.469276054762304e-05,-0.00010513207351323217,8.657935226801783e-05,7.421087685506791e-05
1636986777.747312,5.0,0.0,0.06743135303258896,1.2083771228790283,0.2642267048358917,-0.052973195910453796,0.9456289410591125,0.7016098499298096,0.04980432614684105,0.8171892166137695,0.7134748101234436,-0.2229665219783783,0.8862747550010681,0.6628378629684448,-0.3797546923160553,0.8409056067466736,0.5009360909461975,-0.3711862862110138,0.6372457146644592,0.2078465223312378,0.1170201376080513,1.0049831867218018,0.7403818368911743,0.2845909595489502,1.0569716691970825,0.5640808343887329,0.40816035866737366,1.0329853296279907,0.34610310196876526,-0.14477534592151642,0.45812901854515076,0.1622307449579239,-0.04150950908660889,0.9536654949188232,0.8161812424659729,0.1054023951292038,0.8993484377861023,0.8906416296958923,-0.20317088067531586,0.9020336270332336,0.7794992923736572,-0.36629724502563477,0.8128132224082947,0.5607772469520569,-0.42117926478385925,0.7654843926429749,0.3199346959590912,0.12015186995267868,1.0052974224090576,0.8528632521629333,0.33908072113990784,1.1823245286941528,0.7601998448371887,0.4925408363342285,1.1242239475250244,0.5434209704399109,-0.14477534592151642,0.45812901854515076,0.1622307449579239,-0.07706490904092789,0.783047616481781,0.5910199284553528,0.034578852355480194,0.6435278654098511,0.6039084792137146,-0.23941569030284882,0.726361870765686,0.5539910793304443,-0.4214240610599518,0.673694908618927,0.3660465180873871,-0.41314002871513367,0.47679445147514343,0.08268464356660843,0.08528587967157364,0.8397334218025208,0.628048837184906,0.28372815251350403,1.0001949071884155,0.5440565347671509,0.4552266597747803,0.9669049978256226,0.24153131246566772,0.0,0.0,0.0,0.0,0.0,0.3370000123977661,-0.10088494420051575,0.18474969267845154,0.33717241883277893,-0.2293275147676468,0.4199654459953308,0.3374119699001312,-0.3129589855670929,0.5731189846992493,0.33755284547805786,-0.38005584478378296,0.6959928870201111,0.337665855884552,2.0706117385864258,1.5699771869659425,-7.469276054762304e-05,-0.00010513207351323217,8.657935226801783e-05,7.421087685506791e-05
1636986777.7684276,5.0,0.0,0.06743135303258896,1.2083771228790283,0.2642267048358917,-0.052973195910453796,0.9456289410591125,0.7016098499298096,0.04980432614684105,0.8171892166137695,0.7134748101234436,-0.2229665219783783,0.8862747550010681,0.6628378629684448,-0.3797546923160553,0.8409056067466736,0.5009360909461975,-0.3711862862110138,0.6372457146644592,0.2078465223312378,0.1170201376080513,1.0049831867218018,0.7403818368911743,0.2845909595489502,1.0569716691970825,0.5640808343887329,0.40816035866737366,1.0329853296279907,0.34610310196876526,-0.15635627508163452,0.4223162829875946,0.17708776891231537,-0.0351371131837368,0.9628104567527771,0.8175473213195801,0.11662738770246506,0.9085866808891296,0.9063263535499573,-0.2001294493675232,0.9170498847961426,0.7878082990646362,-0.36976149678230286,0.8403114676475525,0.5724769234657288,-0.4213692843914032,0.7635942101478577,0.3192777931690216,0.129855215549469,1.008570909500122,0.8472862839698792,0.34229108691215515,1.1900562047958374,0.763887345790863,0.5107641816139221,1.1430468559265137,0.5431119799613953,-0.15635627508163452,0.4223162829875946,0.17708776891231537,-0.07873282581567764,0.7684251070022583,0.5872100591659546,0.03291093558073044,0.6289053559303284,0.6000985503196716,-0.24108360707759857,0.7117393612861633,0.5501811504364014,-0.42309197783470154,0.6590723395347595,0.3622366189956665,-0.4148079454898834,0.46217191219329834,0.07887473702430725,0.08361796289682388,0.8251108527183533,0.624238908290863,0.2793574035167694,0.9923322200775146,0.5473947525024414,0.45085594058036804,0.9590423107147217,0.24486951529979706,0.0,0.0,0.0,0.0,0.0,0.3370000123977661,-0.10088494420051575,0.18474969267845154,0.33717241883277893,-0.2293275147676468,0.4199654459953308,0.3374119699001312,-0.3129589855670929,0.5731189846992493,0.33755284547805786,-0.38005584478378296,0.6959928870201111,0.337665855884552,2.0706117385864258,1.5699721279144288,-7.469276054762304e-05,-0.00010513207351323217,8.657935226801783e-05,7.421087685506791e-05
1636986777.7802784,5.0,0.0,0.06743135303258896,1.2083771228790283,0.2642267048358917,-0.052973195910453796,0.9456289410591125,0.7016098499298096,0.04980432614684105,0.8171892166137695,0.7134748101234436,-0.2229665219783783,0.8862747550010681,0.6628378629684448,-0.3797546923160553,0.8409056067466736,0.5009360909461975,-0.3711862862110138,0.6372457146644592,0.2078465223312378,0.1170201376080513,1.0049831867218018,0.7403818368911743,0.2845909595489502,1.0569716691970825,0.5640808343887329,0.40816035866737366,1.0329853296279907,0.34610310196876526,-0.15635627508163452,0.4223162829875946,0.17708776891231537,-0.0351371131837368,0.9628104567527771,0.8175473213195801,0.11662738770246506,0.9085866808891296,0.9063263535499573,-0.2001294493675232,0.9170498847961426,0.7878082990646362,-0.36976149678230286,0.8403114676475525,0.5724769234657288,-0.4213692843914032,0.7635942101478577,0.3192777931690216,0.129855215549469,1.008570909500122,0.8472862839698792,0.34229108691215515,1.1900562047958374,0.763887345790863,0.5107641816139221,1.1430468559265137,0.5431119799613953,-0.15635627508163452,0.4223162829875946,0.17708776891231537,-0.07873282581567764,0.7684251070022583,0.5872100591659546,0.03291093558073044,0.6289053559303284,0.6000985503196716,-0.24108360707759857,0.7117393612861633,0.5501811504364014,-0.42309197783470154,0.6590723395347595,0.3622366189956665,-0.4148079454898834,0.46217191219329834,0.07887473702430725,0.08361796289682388,0.8251108527183533,0.624238908290863,0.2793574035167694,0.9923322200775146,0.5473947525024414,0.45085594058036804,0.9590423107147217,0.24486951529979706,0.0,0.0,0.0,0.0,0.0,0.3370000123977661,-0.10088494420051575,0.18474969267845154,0.33717241883277893,-0.2293275147676468,0.4199654459953308,0.3374119699001312,-0.3129589855670929,0.5731189846992493,0.33755284547805786,-0.38005584478378296,0.6959928870201111,0.337665855884552,2.0706117385864258,1.5699721279144288,-7.469276054762304e-05,-0.00010513207351323217,8.657935226801783e-05,7.421087685506791e-05
1636986777.8014123,5.0,0.0,0.07699280232191086,1.1992310285568237,0.27856364846229553,-0.04868892952799797,0.9372754693031311,0.6978221535682678,0.040601957589387894,0.81499183177948,0.7097296118736267,-0.2232414186000824,0.8866488933563232,0.663002610206604,-0.3799034655094147,0.8410826921463013,0.5010001063346863,-0.39196518063545227,0.6654629111289978,0.22877199947834015,0.12586355209350586,0.987902045249939,0.7326417565345764,0.2884940505027771,1.0714082717895508,0.5727696418762207,0.4013049602508545,1.0262043476104736,0.3403959572315216,-0.15635627508163452,0.4223162829875946,0.17708776891231537,-0.0351371131837368,0.9628104567527771,0.8175473213195801,0.11662738770246506,0.9085866808891296,0.9063263535499573,-0.2001294493675232,0.9170498847961426,0.7878082990646362,-0.36976149678230286,0.8403114676475525,0.5724769234657288,-0.4213692843914032,0.7635942101478577,0.3192777931690216,0.129855215549469,1.008570909500122,0.8472862839698792,0.34229108691215515,1.1900562047958374,0.763887345790863,0.5107641816139221,1.1430468559265137,0.5431119799613953,-0.15635627508163452,0.4223162829875946,0.17708776891231537,-0.07873282581567764,0.7684251070022583,0.5872100591659546,0.026591693982481956,0.6241833567619324,0.6012556552886963,-0.24465681612491608,0.72030109167099,0.554111659526825,-0.4264998435974121,0.6674107909202576,0.36606982350349426,-0.43934184312820435,0.4804307520389557,0.07623211294412613,0.08719116449356079,0.8165490627288818,0.6203083992004395,0.2829306125640869,0.983770489692688,0.5434642434120178,0.43321505188941956,0.9235506057739258,0.23390060663223267,0.0,0.0,0.0,0.0,0.0,0.3370000123977661,-0.10088494420051575,0.18474969267845154,0.3371734917163849,-0.2293275147676468,0.4199654459953308,0.33741438388824463,-0.3129589855670929,0.5731189846992493,0.3375561535358429,-0.38005584478378296,0.6959928870201111,0.33766987919807434,2.0706117385864258,1.5699721279144288,-7.469276054762304e-05,-0.00010513207351323217,8.657935226801783e-05,7.421087685506791e-05
1636986777.8133183,5.0,0.0,0.07699280232191086,1.1992310285568237,0.27856364846229553,-0.04868892952799797,0.9372754693031311,0.6978221535682678,0.040601957589387894,0.81499183177948,0.7097296118736267,-0.2232414186000824,0.8866488933563232,0.663002610206604,-0.3799034655094147,0.8410826921463013,0.5010001063346863,-0.39196518063545227,0.6654629111289978,0.22877199947834015,0.12586355209350586,0.987902045249939,0.7326417565345764,0.2884940505027771,1.0714082717895508,0.5727696418762207,0.4013049602508545,1.0262043476104736,0.3403959572315216,-0.15635627508163452,0.4223162829875946,0.17708776891231537,-0.0351371131837368,0.9628104567527771,0.8175473213195801,0.11662738770246506,0.9085866808891296,0.9063263535499573,-0.2001294493675232,0.9170498847961426,0.7878082990646362,-0.36976149678230286,0.8403114676475525,0.5724769234657288,-0.4213692843914032,0.7635942101478577,0.3192777931690216,0.129855215549469,1.008570909500122,0.8472862839698792,0.34229108691215515,1.1900562047958374,0.763887345790863,0.5107641816139221,1.1430468559265137,0.5431119799613953,-0.15635627508163452,0.4223162829875946,0.17708776891231537,-0.07873282581567764,0.7684251070022583,0.5872100591659546,0.026591693982481956,0.6241833567619324,0.6012556552886963,-0.24465681612491608,0.72030109167099,0.554111659526825,-0.4264998435974121,0.6674107909202576,0.36606982350349426,-0.43934184312820435,0.4804307520389557,0.07623211294412613,0.08719116449356079,0.8165490627288818,0.6203083992004395,0.2829306125640869,0.983770489692688,0.5434642434120178,0.43321505188941956,0.9235506057739258,0.23390060663223267,0.0,0.0,0.0,0.0,0.0,0.3370000123977661,-0.10088494420051575,0.18474969267845154,0.3371734917163849,-0.2293275147676468,0.4199654459953308,0.33741438388824463,-0.3129589855670929,0.5731189846992493,0.3375561535358429,-0.38005584478378296,0.6959928870201111,0.33766987919807434,2.0706117385864258,1.5699721279144288,-7.469276054762304e-05,-0.00010513207351323217,8.657935226801783e-05,7.421087685506791e-05
1636986777.834431,5.0,0.0,0.07699280232191086,1.1992310285568237,0.27856364846229553,-0.04868892952799797,0.9372754693031311,0.6978221535682678,0.040601957589387894,0.81499183177948,0.7097296118736267,-0.2232414186000824,0.8866488933563232,0.663002610206604,-0.3799034655094147,0.8410826921463013,0.5010001063346863,-0.39196518063545227,0.6654629111289978,0.22877199947834015,0.12586355209350586,0.987902045249939,0.7326417565345764,0.2884940505027771,1.0714082717895508,0.5727696418762207,0.4013049602508545,1.0262043476104736,0.3403959572315216,-0.15144915878772736,0.43881484866142273,0.17671173810958862,-0.04267840087413788,0.9461964964866638,0.8120668530464172,0.10726288706064224,0.9050557017326355,0.9027189016342163,-0.20716652274131775,0.8823062777519226,0.7685834765434265,-0.36530667543411255,0.8206299543380737,0.5644105672836304,-0.41720592975616455,0.7418226003646851,0.31255391240119934,0.12180972099304199,1.0100866556167603,0.855550229549408,0.3258032202720642,1.172329306602478,0.7633178234100342,0.5255081057548523,1.1721551418304443,0.5724056363105774,-0.15144915878772736,0.43881484866142273,0.17671173810958862,-0.07955243438482285,0.7741906642913818,0.5966771245002747,0.025772085413336754,0.6299489736557007,0.6107227206230164,-0.24547642469406128,0.7260666489601135,0.5635787844657898,-0.4273194670677185,0.6731763482093811,0.37553688883781433,-0.44016143679618835,0.4861963093280792,0.08569919317960739,0.08637155592441559,0.8223146796226501,0.6297754645347595,0.28459829092025757,0.9799708127975464,0.5401504039764404,0.4348827600479126,0.9197509288787842,0.23058681190013885,0.0,0.0,0.0,0.0,0.0,0.3370000123977661,-0.10088494420051575,0.18474969267845154,0.3371734917163849,-0.2293275147676468,0.4199654459953308,0.33741438388824463,-0.3129589855670929,0.5731189846992493,0.3375561535358429,-0.38005584478378296,0.6959928870201111,0.33766987919807434,2.0706117385864258,1.5699721279144288,-7.469276054762304e-05,-0.00010513207351323217,8.657935226801783e-05,7.421087685506791e-05
1636986777.8462746,5.0,0.0,0.07184966653585434,1.2115293741226196,0.2673705816268921,-0.04788443446159363,0.9401010274887085,0.7061946392059326,0.048526328057050705,0.8192841410636902,0.7144924998283386,-0.22028444707393646,0.8896963000297546,0.6785677075386047,-0.38027530908584595,0.8415253758430481,0.5011602640151978,-0.36953040957450867,0.6354868412017822,0.20745131373405457,0.1245155781507492,0.9905057549476624,0.7338215708732605,0.2810278832912445,1.0654245615005493,0.5670754313468933,0.40610501170158386,1.0132099390029907,0.3371816575527191,-0.15144915878772736,0.43881484866142273,0.17671173810958862,-0.04267840087413788,0.9461964964866638,0.8120668530464172,0.10726288706064224,0.9050557017326355,0.9027189016342163,-0.20716652274131775,0.8823062777519226,0.7685834765434265,-0.36530667543411255,0.8206299543380737,0.5644105672836304,-0.41720592975616455,0.7418226003646851,0.31255391240119934,0.12180972099304199,1.0100866556167603,0.855550229549408,0.3258032202720642,1.172329306602478,0.7633178234100342,0.5255081057548523,1.1721551418304443,0.5724056363105774,-0.15144915878772736,0.43881484866142273,0.17671173810958862,-0.07955243438482285,0.7741906642913818,0.5966771245002747,0.025772085413336754,0.6299489736557007,0.6107227206230164,-0.24547642469406128,0.7260666489601135,0.5635787844657898,-0.4273194670677185,0.6731763482093811,0.37553688883781433,-0.44016143679618835,0.4861963093280792,0.08569919317960739,0.08637155592441559,0.8223146796226501,0.6297754645347595,0.28459829092025757,0.9799708127975464,0.5401504039764404,0.4348827600479126,0.9197509288787842,0.23058681190013885,0.0,0.0,0.0,0.0,0.0,0.3370000123977661,-0.10088494420051575,0.18474969267845154,0.3371734917163849,-0.2293275147676468,0.4199654459953308,0.33741438388824463,-0.3129589855670929,0.5731189846992493,0.3375561535358429,-0.38005584478378296,0.6959928870201111,0.33766987919807434,2.0706069458007814,1.5699721279144288,-7.469276054762304e-05,-0.00010513207351323217,8.657935226801783e-05,7.421087685506791e-05
1636986777.867438,5.0,0.0,0.07184966653585434,1.2115293741226196,0.2673705816268921,-0.04788443446159363,0.9401010274887085,0.7061946392059326,0.048526328057050705,0.8192841410636902,0.7144924998283386,-0.22028444707393646,0.8896963000297546,0.6785677075386047,-0.38027530908584595,0.8415253758430481,0.5011602640151978,-0.36953040957450867,0.6354868412017822,0.20745131373405457,0.1245155781507492,0.9905057549476624,0.7338215708732605,0.2810278832912445,1.0654245615005493,0.5670754313468933,0.40610501170158386,1.0132099390029907,0.3371816575527191,-0.15144915878772736,0.43881484866142273,0.17671173810958862,-0.04267840087413788,0.9461964964866638,0.8120668530464172,0.10726288706064224,0.9050557017326355,0.9027189016342163,-0.20716652274131775,0.8823062777519226,0.7685834765434265,-0.36530667543411255,0.8206299543380737,0.5644105672836304,-0.41720592975616455,0.7418226003646851,0.31255391240119934,0.12180972099304199,1.0100866556167603,0.855550229549408,0.3258032202720642,1.172329306602478,0.7633178234100342,0.5255081057548523,1.1721551418304443,0.5724056363105774,-0.15144915878772736,0.43881484866142273,0.17671173810958862,-0.07955243438482285,0.7741906642913818,0.5966771245002747,0.03203194960951805,0.6343590021133423,0.6062809228897095,-0.24642585217952728,0.725401759147644,0.5699357986450195,-0.4216316044330597,0.6726498603820801,0.37565717101097107,-0.41129910945892334,0.4745195209980011,0.09322141855955124,0.08732098340988159,0.8229795694351196,0.6234184503555298,0.28554773330688477,0.9806357026100159,0.5337933897972107,0.44927653670310974,0.9122855067253113,0.2328571379184723,0.0,0.0,0.0,0.0,0.0,0.3370000123977661,-0.10088405758142471,0.18475016951560974,0.3371734917163849,-0.22932550311088562,0.41996654868125916,0.33741438388824463,-0.3129562437534332,0.5731204748153687,0.3375561535358429,-0.38005250692367554,0.6959947347640991,0.33766987919807434,2.0706069458007814,1.5699721279144288,-7.469276054762304e-05,-0.00010513207351323217,8.657935226801783e-05,7.421087685506791e-05
1636986777.8793073,5.0,0.0,0.07184966653585434,1.2115293741226196,0.2673705816268921,-0.04788443446159363,0.9401010274887085,0.7061946392059326,0.048526328057050705,0.8192841410636902,0.7144924998283386,-0.22028444707393646,0.8896963000297546,0.6785677075386047,-0.38027530908584595,0.8415253758430481,0.5011602640151978,-0.36953040957450867,0.6354868412017822,0.20745131373405457,0.1245155781507492,0.9905057549476624,0.7338215708732605,0.2810278832912445,1.0654245615005493,0.5670754313468933,0.40610501170158386,1.0132099390029907,0.3371816575527191,-0.15235678851604462,0.42795470356941223,0.16189511120319366,-0.03841710463166237,0.9466164112091064,0.808586597442627,0.10904919356107712,0.9095602035522461,0.8968672752380371,-0.20668941736221313,0.884661853313446,0.76988685131073,-0.3759782314300537,0.7853298187255859,0.5396884083747864,-0.4173368811607361,0.7405633926391602,0.31211569905281067,0.129855215549469,1.008570909500122,0.8472862839698792,0.3319343030452728,1.1652841567993164,0.7612893581390381,0.5140886902809143,1.1488401889801025,0.5810298919677734,-0.15144915878772736,0.43881484866142273,0.17671173810958862,-0.07955243438482285,0.7741906642913818,0.5966771245002747,0.03203194960951805,0.6343590021133423,0.6062809228897095,-0.24642585217952728,0.725401759147644,0.5699357986450195,-0.4216316044330597,0.6726498603820801,0.37565717101097107,-0.41129910945892334,0.4745195209980011,0.09322141855955124,0.08732098340988159,0.8229795694351196,0.6234184503555298,0.28554773330688477,0.9806357026100159,0.5337933897972107,0.44927653670310974,0.9122855067253113,0.2328571379184723,0.0,0.0,0.0,0.0,0.0,0.3370000123977661,-0.10088405758142471,0.18475016951560974,0.3371734917163849,-0.22932550311088562,0.41996654868125916,0.33741438388824463,-0.3129562437534332,0.5731204748153687,0.3375561535358429,-0.38005250692367554,0.6959947347640991,0.33766987919807434,2.0706069458007814,1.5699721279144288,-7.469276054762304e-05,-0.00010513207351323217,8.657935226801783e-05,7.421087685506791e-05
1636986777.900422,5.0,0.0,0.07184966653585434,1.2115293741226196,0.2673705816268921,-0.04788443446159363,0.9401010274887085,0.7061946392059326,0.048526328057050705,0.8192841410636902,0.7144924998283386,-0.22028444707393646,0.8896963000297546,0.6785677075386047,-0.38027530908584595,0.8415253758430481,0.5011602640151978,-0.36953040957450867,0.6354868412017822,0.20745131373405457,0.1245155781507492,0.9905057549476624,0.7338215708732605,0.2810278832912445,1.0654245615005493,0.5670754313468933,0.40610501170158386,1.0132099390029907,0.3371816575527191,-0.15235678851604462,0.42795470356941223,0.16189511120319366,-0.03841710463166237,0.9466164112091064,0.808586597442627,0.10904919356107712,0.9095602035522461,0.8968672752380371,-0.20668941736221313,0.884661853313446,0.76988685131073,-0.3759782314300537,0.7853298187255859,0.5396884083747864,-0.4173368811607361,0.7405633926391602,0.31211569905281067,0.129855215549469,1.008570909500122,0.8472862839698792,0.3319343030452728,1.1652841567993164,0.7612893581390381,0.5140886902809143,1.1488401889801025,0.5810298919677734,-0.15235678851604462,0.42795470356941223,0.16189511120319366,-0.07852395623922348,0.7640470862388611,0.5809507369995117,0.03306042402982712,0.6242154240608215,0.5905545353889465,-0.24539737403392792,0.7152582406997681,0.5542094111442566,-0.4206031560897827,0.6625063419342041,0.35993078351020813,-0.410270631313324,0.46437597274780273,0.0774950161576271,0.08834946155548096,0.8128359913825989,0.6076920032501221,0.28958210349082947,0.9688928127288818,0.5220553278923035,0.45331090688705444,0.900542676448822,0.22111909091472626,0.0,0.0,0.0,0.0,0.0,0.3370000123977661,-0.10088405758142471,0.18475016951560974,0.3371734917163849,-0.22932550311088562,0.41996654868125916,0.33741438388824463,-0.3129562437534332,0.5731204748153687,0.3375561535358429,-0.38005250692367554,0.6959947347640991,0.33766987919807434,2.0706069458007814,1.5699721279144288,-7.469276054762304e-05,-0.00010513207351323217,8.657935226801783e-05,7.421087685506791e-05
1636986777.9122753,5.0,0.0,0.07039996236562729,1.196155309677124,0.26760387420654297,-0.05641714110970497,0.9439465999603271,0.706338107585907,0.04688321426510811,0.8219775557518005,0.7158010005950928,-0.234977126121521,0.8928046822547913,0.6767780184745789,-0.37677958607673645,0.8373636603355408,0.49965500831604004,-0.37257224321365356,0.6527278423309326,0.2156296819448471,0.12214283645153046,0.9950885772705078,0.7358982563018799,0.295240193605423,1.0552152395248413,0.5670046806335449,0.4171818792819977,1.008249282836914,0.33993440866470337,-0.15235678851604462,0.42795470356941223,0.16189511120319366,-0.03841710463166237,0.9466164112091064,0.808586597442627,0.10904919356107712,0.9095602035522461,0.8968672752380371,-0.20668941736221313,0.884661853313446,0.76988685131073,-0.3759782314300537,0.7853298187255859,0.5396884083747864,-0.4173368811607361,0.7405633926391602,0.31211569905281067,0.129855215549469,1.008570909500122,0.8472862839698792,0.3319343030452728,1.1652841567993164,0.7612893581390381,0.5140886902809143,1.1488401889801025,0.5810298919677734,-0.15235678851604462,0.42795470356941223,0.16189511120319366,-0.07852395623922348,0.7640470862388611,0.5809507369995117,0.03426427021622658,0.625206470489502,0.590864896774292,-0.245436891913414,0.715543806552887,0.5539379119873047,-0.4168805181980133,0.6593762040138245,0.35727500915527344,-0.408423513174057,0.4641837179660797,0.07273902744054794,0.08838897943496704,0.81255042552948,0.607963502407074,0.28962162137031555,0.9686072468757629,0.5223268270492554,0.4530477225780487,0.9019767642021179,0.22084087133407593,0.0,0.0,0.0,0.0,0.0,0.3370000123977661,-0.10088405758142471,0.18475016951560974,0.3371734917163849,-0.22932550311088562,0.41996654868125916,0.33741438388824463,-0.3129562437534332,0.5731204748153687,0.3375561535358429,-0.38005250692367554,0.6959947347640991,0.33766987919807434,2.0706069458007814,1.5699721279144288,-7.469276054762304e-05,-0.00010513207351323217,8.657935226801783e-05,7.421087685506791e-05
1636986777.9334254,5.0,0.0,0.07039996236562729,1.196155309677124,0.26760387420654297,-0.05641714110970497,0.9439465999603271,0.706338107585907,0.04688321426510811,0.8219775557518005,0.7158010005950928,-0.234977126121521,0.8928046822547913,0.6767780184745789,-0.37677958607673645,0.8373636603355408,0.49965500831604004,-0.37257224321365356,0.6527278423309326,0.2156296819448471,0.12214283645153046,0.9950885772705078,0.7358982563018799,0.295240193605423,1.0552152395248413,0.5670046806335449,0.4171818792819977,1.008249282836914,0.33993440866470337,-0.15235678851604462,0.42795470356941223,0.16189511120319366,-0.03841710463166237,0.9466164112091064,0.808586597442627,0.10904919356107712,0.9095602035522461,0.8968672752380371,-0.20668941736221313,0.884661853313446,0.76988685131073,-0.3759782314300537,0.7853298187255859,0.5396884083747864,-0.4173368811607361,0.7405633926391602,0.31211569905281067,0.129855215549469,1.008570909500122,0.8472862839698792,0.3319343030452728,1.1652841567993164,0.7612893581390381,0.5140886902809143,1.1488401889801025,0.5810298919677734,-0.15235678851604462,0.42795470356941223,0.16189511120319366,-0.07852395623922348,0.7640470862388611,0.5809507369995117,0.03705940768122673,0.6275752186775208,0.5915387868881226,-0.24552682042121887,0.7162152528762817,0.5533038377761841,-0.40755215287208557,0.6528676748275757,0.3509208559989929,-0.4032657742500305,0.4647625684738159,0.06155870854854584,0.08847890794277191,0.8118789196014404,0.6085975766181946,0.28971153497695923,0.9679358005523682,0.522960901260376,0.45231449604034424,0.9053090810775757,0.2201743870973587,0.0,0.0,0.0,0.0,0.0,0.3370000123977661,-0.10088405758142471,0.18475016951560974,0.3371734917163849,-0.22932550311088562,0.41996654868125916,0.33741438388824463,-0.3129562437534332,0.5731204748153687,0.3375561535358429,-0.38005250692367554,0.6959947347640991,0.33766987919807434,2.0706069458007814,1.5699721279144288,-7.469276054762304e-05,-0.00010513207351323217,8.657935226801783e-05,7.421087685506791e-05
1636986777.945275,5.0,0.0,0.07039996236562729,1.196155309677124,0.26760387420654297,-0.05641714110970497,0.9439465999603271,0.706338107585907,0.04688321426510811,0.8219775557518005,0.7158010005950928,-0.234977126121521,0.8928046822547913,0.6767780184745789,-0.37677958607673645,0.8373636603355408,0.49965500831604004,-0.37257224321365356,0.6527278423309326,0.2156296819448471,0.12214283645153046,0.9950885772705078,0.7358982563018799,0.295240193605423,1.0552152395248413,0.5670046806335449,0.4171818792819977,1.008249282836914,0.33993440866470337,-0.15292103588581085,0.426525741815567,0.15288932621479034,-0.03196083754301071,0.9581218361854553,0.8156081438064575,0.11719714105129242,0.9096929430961609,0.8983805179595947,-0.19545449316501617,0.9028825163841248,0.781259298324585,-0.3710700571537018,0.7751511335372925,0.5432711839675903,-0.41673675179481506,0.7463348507881165,0.31412413716316223,0.13153281807899475,1.0133612155914307,0.8499569892883301,0.36018848419189453,1.2111181020736694,0.7847213745117188,0.581300675868988,1.2086498737335205,0.6101983785629272,-0.15292103588581085,0.426525741815567,0.15288932621479034,-0.07831107079982758,0.7625597715377808,0.5718540549278259,0.037272289395332336,0.6260879039764404,0.5824421048164368,-0.24531394243240356,0.7147279381752014,0.5442072153091431,-0.40733927488327026,0.6513803601264954,0.34182417392730713,-0.4030528664588928,0.4632752537727356,0.05246204882860184,0.08869179338216782,0.8103916049003601,0.5995009541511536,0.28962215781211853,0.9712653160095215,0.5225035548210144,0.45222511887550354,0.9086386561393738,0.2197170853614807,0.0,0.0,0.0,0.0,0.0,0.3370000123977661,-0.10088405758142471,0.18475016951560974,0.3371734917163849,-0.22932550311088562,0.41996654868125916,0.33741438388824463,-0.3129562437534332,0.5731204748153687,0.3375561535358429,-0.38005250692367554,0.6959947347640991,0.33766987919807434,2.0706069458007814,1.5699721279144288,-7.469276054762304e-05,-0.00010513207351323217,8.657935226801783e-05,7.421087685506791e-05
1636986777.9664237,5.0,0.0,0.07039996236562729,1.196155309677124,0.26760387420654297,-0.05641714110970497,0.9439465999603271,0.706338107585907,0.04688321426510811,0.8219775557518005,0.7158010005950928,-0.234977126121521,0.8928046822547913,0.6767780184745789,-0.37677958607673645,0.8373636603355408,0.49965500831604004,-0.37257224321365356,0.6527278423309326,0.2156296819448471,0.12214283645153046,0.9950885772705078,0.7358982563018799,0.295240193605423,1.0552152395248413,0.5670046806335449,0.4171818792819977,1.008249282836914,0.33993440866470337,-0.15292103588581085,0.426525741815567,0.15288932621479034,-0.03196083754301071,0.9581218361854553,0.8156081438064575,0.11719714105129242,0.9096929430961609,0.8983805179595947,-0.19545449316501617,0.9028825163841248,0.781259298324585,-0.3710700571537018,0.7751511335372925,0.5432711839675903,-0.41673675179481506,0.7463348507881165,0.31412413716316223,0.13153281807899475,1.0133612155914307,0.8499569892883301,0.36018848419189453,1.2111181020736694,0.7847213745117188,0.581300675868988,1.2086498737335205,0.6101983785629272,-0.15292103588581085,0.426525741815567,0.15288932621479034,-0.07649078220129013,0.7624215483665466,0.5716367363929749,0.03909258171916008,0.6259496212005615,0.5822247862815857,-0.24349364638328552,0.7145897150039673,0.543989896774292,-0.4055189788341522,0.6512421369552612,0.34160685539245605,-0.4012325704097748,0.46313703060150146,0.052244722843170166,0.09051208943128586,0.810253381729126,0.5992835760116577,0.2891494035720825,0.9820484519004822,0.5426122546195984,0.45175236463546753,0.9194217324256897,0.2398257702589035,0.0,0.0,0.0,0.0,0.0,0.3370000123977661,-0.10088405758142471,0.18475016951560974,0.3371734917163849,-0.22932550311088562,0.41996654868125916,0.33741438388824463,-0.3129562437534332,0.5731204748153687,0.3375561535358429,-0.38005250692367554,0.6959947347640991,0.33766987919807434,2.0706069458007814,1.5699721279144288,-7.469276054762304e-05,-0.00010513207351323217,8.657935226801783e-05,7.421087685506791e-05
1636986777.9782863,5.0,0.0,0.08088823407888412,1.1943933963775635,0.26406270265579224,-0.04645128548145294,0.9383408427238464,0.7054096460342407,0.041888318955898285,0.8129034042358398,0.7087181806564331,-0.21671707928180695,0.8848218321800232,0.6763841509819031,-0.385928213596344,0.8482552170753479,0.5035943388938904,-0.3684263527393341,0.6343140602111816,0.20718781650066376,0.12381450086832047,0.9918598532676697,0.7344351410865784,0.2836531102657318,1.0449087619781494,0.5699009895324707,0.4204961359500885,1.0186623334884644,0.36943572759628296,-0.15292103588581085,0.426525741815567,0.15288932621479034,-0.03196083754301071,0.9581218361854553,0.8156081438064575,0.11719714105129242,0.9096929430961609,0.8983805179595947,-0.19545449316501617,0.9028825163841248,0.781259298324585,-0.3710700571537018,0.7751511335372925,0.5432711839675903,-0.41673675179481506,0.7463348507881165,0.31412413716316223,0.13153281807899475,1.0133612155914307,0.8499569892883301,0.36018848419189453,1.2111181020736694,0.7847213745117188,0.581300675868988,1.2086498737335205,0.6101983785629272,-0.15292103588581085,0.426525741815567,0.15288932621479034,-0.07649078220129013,0.7624215483665466,0.5716367363929749,0.027941681444644928,0.6169267296791077,0.5762544870376587,-0.2422691136598587,0.7107921838760376,0.5434561967849731,-0.4249216616153717,0.6681391596794128,0.35360684990882874,-0.40974920988082886,0.46768298745155334,0.07303692400455475,0.08928754925727844,0.8140509724617004,0.5998172760009766,0.2879248559474945,0.9858459830284119,0.5431459546089172,0.480788916349411,0.9451581835746765,0.25472015142440796,0.0,0.0,0.0,0.0,0.0,0.3370000123977661,-0.10088405758142471,0.18475016951560974,0.3371734917163849,-0.22932550311088562,0.41996654868125916,0.33741438388824463,-0.3129562437534332,0.5731204748153687,0.3375561535358429,-0.38005250692367554,0.6959947347640991,0.33766987919807434,2.0706069458007814,1.5699721279144288,-7.469276054762304e-05,-0.00010513207351323217,8.657935226801783e-05,7.421087685506791e-05
1636986777.9994183,5.0,0.0,0.08088823407888412,1.1943933963775635,0.26406270265579224,-0.04645128548145294,0.9383408427238464,0.7054096460342407,0.041888318955898285,0.8129034042358398,0.7087181806564331,-0.21671707928180695,0.8848218321800232,0.6763841509819031,-0.385928213596344,0.8482552170753479,0.5035943388938904,-0.3684263527393341,0.6343140602111816,0.20718781650066376,0.12381450086832047,0.9918598532676697,0.7344351410865784,0.2836531102657318,1.0449087619781494,0.5699009895324707,0.4204961359500885,1.0186623334884644,0.36943572759628296,-0.15292103588581085,0.426525741815567,0.15288932621479034,-0.03196083754301071,0.9581218361854553,0.8156081438064575,0.11719714105129242,0.9096929430961609,0.8983805179595947,-0.19545449316501617,0.9028825163841248,0.781259298324585,-0.3710700571537018,0.7751511335372925,0.5432711839675903,-0.41673675179481506,0.7463348507881165,0.31412413716316223,0.13153281807899475,1.0133612155914307,0.8499569892883301,0.36018848419189453,1.2111181020736694,0.7847213745117188,0.581300675868988,1.2086498737335205,0.6101983785629272,-0.15292103588581085,0.426525741815567,0.15288932621479034,-0.07649078220129013,0.7624215483665466,0.5716367363929749,0.026641011238098145,0.6159800291061401,0.5754992961883545,-0.2421240657567978,0.7103586792945862,0.5434009432792664,-0.42675215005874634,0.6704604625701904,0.3548681437969208,-0.41024571657180786,0.46868711709976196,0.0753195658326149,0.08914250880479813,0.8144844770431519,0.5998725295066833,0.2877798080444336,0.9862794876098633,0.543201208114624,0.4835961163043976,0.9487220048904419,0.2563442885875702,0.0,0.0,0.0,0.0,0.0,0.3370000123977661,-0.10088405758142471,0.18475016951560974,0.3371734917163849,-0.22932550311088562,0.41996654868125916,0.33741438388824463,-0.3129562437534332,0.5731204748153687,0.3375561535358429,-0.38005250692367554,0.6959947347640991,0.33766987919807434,2.0706069458007814,1.5699721279144288,-7.469276054762304e-05,-0.00010513207351323217,8.657935226801783e-05,7.421087685506791e-05
1636986778.0113058,5.0,0.0,0.08088823407888412,1.1943933963775635,0.26406270265579224,-0.04645128548145294,0.9383408427238464,0.7054096460342407,0.041888318955898285,0.8129034042358398,0.7087181806564331,-0.21671707928180695,0.8848218321800232,0.6763841509819031,-0.385928213596344,0.8482552170753479,0.5035943388938904,-0.3684263527393341,0.6343140602111816,0.20718781650066376,0.12381450086832047,0.9918598532676697,0.7344351410865784,0.2836531102657318,1.0449087619781494,0.5699009895324707,0.4204961359500885,1.0186623334884644,0.36943572759628296,-0.14577046036720276,0.4447212815284729,0.15843816101551056,-0.03347260504961014,0.9509572386741638,0.8116838335990906,0.11166959255933762,0.8943874835968018,0.8890385627746582,-0.2046021819114685,0.8949670195579529,0.775589108467102,-0.3687286674976349,0.7936270236968994,0.5518590807914734,-0.41648581624031067,0.7487483620643616,0.3149639964103699,0.13765697181224823,1.00694739818573,0.8477784991264343,0.35862988233566284,1.1642873287200928,0.7741439938545227,0.6106219291687012,1.1927660703659058,0.6179189085960388,-0.14577046036720276,0.4447212815284729,0.15843816101551056,-0.07036011666059494,0.7786009907722473,0.5789790153503418,0.032771673053503036,0.6321594715118408,0.5828415751457214,-0.2359934002161026,0.7265381217002869,0.5507432222366333,-0.42062148451805115,0.6866399049758911,0.36221039295196533,-0.40411505103111267,0.48486655950546265,0.08266183733940125,0.09527316689491272,0.8306639194488525,0.6072148084640503,0.2980712056159973,0.9961586594581604,0.5466639995574951,0.4938875138759613,0.958601176738739,0.2598070800304413,0.0,0.0,0.0,0.0,0.0,0.3370000123977661,-0.10088405758142471,0.18475016951560974,0.3371734917163849,-0.22932550311088562,0.41996654868125916,0.33741438388824463,-0.3129562437534332,0.5731204748153687,0.3375561535358429,-0.38005250692367554,0.6959947347640991,0.33766987919807434,2.0706069458007814,1.5699721279144288,-7.469276054762304e-05,-0.00010513207351323217,8.657935226801783e-05,7.421087685506791e-05
1636986778.0324492,5.0,0.0,0.08088823407888412,1.1943933963775635,0.26406270265579224,-0.04645128548145294,0.9383408427238464,0.7054096460342407,0.041888318955898285,0.8129034042358398,0.7087181806564331,-0.21671707928180695,0.8848218321800232,0.6763841509819031,-0.385928213596344,0.8482552170753479,0.5035943388938904,-0.3684263527393341,0.6343140602111816,0.20718781650066376,0.12381450086832047,0.9918598532676697,0.7344351410865784,0.2836531102657318,1.0449087619781494,0.5699009895324707,0.4204961359500885,1.0186623334884644,0.36943572759628296,-0.14577046036720276,0.4447212815284729,0.15843816101551056,-0.03347260504961014,0.9509572386741638,0.8116838335990906,0.11166959255933762,0.8943874835968018,0.8890385627746582,-0.2046021819114685,0.8949670195579529,0.775589108467102,-0.3687286674976349,0.7936270236968994,0.5518590807914734,-0.41648581624031067,0.7487483620643616,0.3149639964103699,0.13765697181224823,1.00694739818573,0.8477784991264343,0.35862988233566284,1.1642873287200928,0.7741439938545227,0.6106219291687012,1.1927660703659058,0.6179189085960388,-0.14577046036720276,0.4447212815284729,0.15843816101551056,-0.07276202738285065,0.7738415002822876,0.583134114742279,0.030369767919182777,0.6273999810218811,0.5869966745376587,-0.2383953034877777,0.7217786312103271,0.5548983216285706,-0.42302340269088745,0.6818804144859314,0.3663654923439026,-0.4065169394016266,0.48010703921318054,0.0868169367313385,0.09287126362323761,0.8259044289588928,0.6113699078559875,0.3040843605995178,0.9762949347496033,0.5409876108169556,0.4999006688594818,0.9387374520301819,0.2541307210922241,0.0,0.0,0.0,0.0,0.0,0.3370000123977661,-0.10088405758142471,0.18475016951560974,0.3371734917163849,-0.22932550311088562,0.41996654868125916,0.33741438388824463,-0.3129562437534332,0.5731204748153687,0.3375561535358429,-0.38005250692367554,0.6959947347640991,0.33766987919807434,2.0706069458007814,1.5699721279144288,-7.469276054762304e-05,-0.00010513207351323217,8.657935226801783e-05,7.421087685506791e-05
1636986778.0442927,5.0,0.0,0.07314387708902359,1.1852197647094727,0.25733911991119385,-0.039965737611055374,0.9327132701873779,0.6973669528961182,0.041520796716213226,0.8135000467300415,0.709007203578949,-0.2095697522163391,0.8848153352737427,0.6653958559036255,-0.3784157931804657,0.8393116593360901,0.5003595352172852,-0.38606008887290955,0.6591667532920837,0.22730101644992828,0.12963828444480896,0.9806111454963684,0.7293379902839661,0.30170920491218567,1.0254353284835815,0.5663737654685974,0.44254228472709656,0.9826146960258484,0.3637813329696655,-0.14577046036720276,0.4447212815284729,0.15843816101551056,-0.03347260504961014,0.9509572386741638,0.8116838335990906,0.11166959255933762,0.8943874835968018,0.8890385627746582,-0.2046021819114685,0.8949670195579529,0.775589108467102,-0.3687286674976349,0.7936270236968994,0.5518590807914734,-0.41648581624031067,0.7487483620643616,0.3149639964103699,0.13765697181224823,1.00694739818573,0.8477784991264343,0.35862988233566284,1.1642873287200928,0.7741439938545227,0.6106219291687012,1.1927660703659058,0.6179189085960388,-0.14577046036720276,0.4447212815284729,0.15843816101551056,-0.07276202738285065,0.7738415002822876,0.583134114742279,0.02762562967836857,0.6263113021850586,0.599051296710968,-0.23641416430473328,0.7199832797050476,0.5476452112197876,-0.4241287410259247,0.6679089665412903,0.36522945761680603,-0.4354518949985504,0.4800671637058258,0.075886070728302,0.09089011698961258,0.8276997208595276,0.6186229586601257,0.3021032214164734,0.9780902862548828,0.5482407212257385,0.4982973337173462,0.9151301383972168,0.2661318778991699,0.0,0.0,0.0,0.0,0.0,0.3370000123977661,-0.10088405758142471,0.18475016951560974,0.3371734917163849,-0.22932550311088562,0.41996654868125916,0.33741438388824463,-0.3129562437534332,0.5731204748153687,0.3375561535358429,-0.38005250692367554,0.6959947347640991,0.33766987919807434,2.0706069458007814,1.5699721279144288,-7.469276054762304e-05,-0.00010513207351323217,8.657935226801783e-05,7.421087685506791e-05
1636986778.0654173,5.0,0.0,0.07314387708902359,1.1852197647094727,0.25733911991119385,-0.039965737611055374,0.9327132701873779,0.6973669528961182,0.041520796716213226,0.8135000467300415,0.709007203578949,-0.2095697522163391,0.8848153352737427,0.6653958559036255,-0.3784157931804657,0.8393116593360901,0.5003595352172852,-0.38606008887290955,0.6591667532920837,0.22730101644992828,0.12963828444480896,0.9806111454963684,0.7293379902839661,0.30170920491218567,1.0254353284835815,0.5663737654685974,0.44254228472709656,0.9826146960258484,0.3637813329696655,-0.14577046036720276,0.4447212815284729,0.15843816101551056,-0.03347260504961014,0.9509572386741638,0.8116838335990906,0.11166959255933762,0.8943874835968018,0.8890385627746582,-0.2046021819114685,0.8949670195579529,0.775589108467102,-0.3687286674976349,0.7936270236968994,0.5518590807914734,-0.41648581624031067,0.7487483620643616,0.3149639964103699,0.13765697181224823,1.00694739818573,0.8477784991264343,0.35862988233566284,1.1642873287200928,0.7741439938545227,0.6106219291687012,1.1927660703659058,0.6179189085960388,-0.14577046036720276,0.4447212815284729,0.15843816101551056,-0.07276202738285065,0.7738415002822876,0.583134114742279,0.02800862118601799,0.626416027545929,0.5975290536880493,-0.23668396472930908,0.7202094793319702,0.5485596656799316,-0.4240875840187073,0.6697045564651489,0.36538445949554443,-0.4321509301662445,0.47968438267707825,0.07735726237297058,0.09115991741418839,0.827473521232605,0.6177085638046265,0.3023730218410492,0.9778640866279602,0.5473262667655945,0.49883824586868286,0.9181283712387085,0.2647054195404053,0.0,0.0,0.0,0.0,0.0,0.3370000123977661,-0.10088405758142471,0.18475016951560974,0.3371734917163849,-0.22932550311088562,0.41996654868125916,0.33741438388824463,-0.3129562437534332,0.5731204748153687,0.3375561535358429,-0.38005250692367554,0.6959947347640991,0.33766987919807434,2.0706069458007814,1.5699721279144288,-7.469276054762304e-05,-0.00010513207351323217,8.657935226801783e-05,7.421087685506791e-05
1636986778.077299,5.0,0.0,0.07314387708902359,1.1852197647094727,0.25733911991119385,-0.039965737611055374,0.9327132701873779,0.6973669528961182,0.041520796716213226,0.8135000467300415,0.709007203578949,-0.2095697522163391,0.8848153352737427,0.6653958559036255,-0.3784157931804657,0.8393116593360901,0.5003595352172852,-0.38606008887290955,0.6591667532920837,0.22730101644992828,0.12963828444480896,0.9806111454963684,0.7293379902839661,0.30170920491218567,1.0254353284835815,0.5663737654685974,0.44254228472709656,0.9826146960258484,0.3637813329696655,-0.15311020612716675,0.44860967993736267,0.15587851405143738,-0.03383277356624603,0.9302101731300354,0.8008910417556763,0.11535461246967316,0.9045910835266113,0.8952664732933044,-0.2120964676141739,0.8579660058021545,0.7551150918006897,-0.37184879183769226,0.81878262758255,0.5550904273986816,-0.4170750081539154,0.7430818676948547,0.312992125749588,0.14443092048168182,1.0024542808532715,0.8466669917106628,0.3646891713142395,1.1572628021240234,0.772091805934906,0.6383265852928162,1.2441636323928833,0.6579969525337219,-0.15311020612716675,0.44860967993736267,0.15587851405143738,-0.07429678738117218,0.770363450050354,0.5851569175720215,0.02647385746240616,0.6229380369186401,0.5995518565177917,-0.23348122835159302,0.7071826457977295,0.545023500919342,-0.4208848476409912,0.6566777229309082,0.3618483245372772,-0.42894819378852844,0.4666575789451599,0.07382111251354218,0.08488765358924866,0.8335442543029785,0.6252902746200562,0.29665449261665344,0.9825831055641174,0.5537068247795105,0.4931196868419647,0.9228473901748657,0.2710859477519989,0.0,0.0,0.0,0.0,0.0,0.3370000123977661,-0.10088405758142471,0.18475016951560974,0.3371734917163849,-0.22932550311088562,0.41996654868125916,0.33741438388824463,-0.3129562437534332,0.5731204748153687,0.3375561535358429,-0.38005250692367554,0.6959947347640991,0.33766987919807434,2.0706069458007814,1.5699721279144288,-7.469276054762304e-05,-0.00010513207351323217,8.657935226801783e-05,7.421087685506791e-05
1636986778.0984175,5.0,0.0,0.07314387708902359,1.1852197647094727,0.25733911991119385,-0.039965737611055374,0.9327132701873779,0.6973669528961182,0.041520796716213226,0.8135000467300415,0.709007203578949,-0.2095697522163391,0.8848153352737427,0.6653958559036255,-0.3784157931804657,0.8393116593360901,0.5003595352172852,-0.38606008887290955,0.6591667532920837,0.22730101644992828,0.12963828444480896,0.9806111454963684,0.7293379902839661,0.30170920491218567,1.0254353284835815,0.5663737654685974,0.44254228472709656,0.9826146960258484,0.3637813329696655,-0.15311020612716675,0.44860967993736267,0.15587851405143738,-0.03383277356624603,0.9302101731300354,0.8008910417556763,0.11535461246967316,0.9045910835266113,0.8952664732933044,-0.2120964676141739,0.8579660058021545,0.7551150918006897,-0.37184879183769226,0.81878262758255,0.5550904273986816,-0.4170750081539154,0.7430818676948547,0.312992125749588,0.14443092048168182,1.0024542808532715,0.8466669917106628,0.3646891713142395,1.1572628021240234,0.772091805934906,0.6383265852928162,1.2441636323928833,0.6579969525337219,-0.15311020612716675,0.44860967993736267,0.15587851405143738,-0.07363209873437881,0.7695144414901733,0.5856695771217346,0.027138547971844673,0.6220889687538147,0.6000645756721497,-0.23222771286964417,0.7052410840988159,0.544944167137146,-0.41963133215904236,0.6547361612319946,0.3617689907550812,-0.4276946783065796,0.46471598744392395,0.07374177873134613,0.08496351540088654,0.8337877988815308,0.6263949871063232,0.29679256677627563,0.982671856880188,0.5546737909317017,0.4932577610015869,0.9229361414909363,0.2720528841018677,0.0,0.0,0.0,0.0,0.0,0.3370000123977661,-0.10088405758142471,0.18475016951560974,0.3371734917163849,-0.22932550311088562,0.41996654868125916,0.33741438388824463,-0.3129562437534332,0.5731204748153687,0.3375561535358429,-0.38005250692367554,0.6959947347640991,0.33766987919807434,2.0706069458007814,1.5699721279144288,-7.469276054762304e-05,-0.00010513207351323217,8.657935226801783e-05,7.421087685506791e-05
1636986778.1103194,5.0,0.0,0.07440070062875748,1.1825815439224243,0.256823867559433,-0.0366634726524353,0.9268685579299927,0.6947330832481384,0.041520796716213226,0.8135000467300415,0.709007203578949,-0.2076566070318222,0.8821873068809509,0.6642342209815979,-0.37425073981285095,0.8343530297279358,0.4985661208629608,-0.3734354078769684,0.6536526679992676,0.21583996713161469,0.1343296766281128,0.9715498089790344,0.725231945514679,0.3038730025291443,1.006232738494873,0.569338858127594,0.4419746398925781,0.9939435124397278,0.37996307015419006,-0.15311020612716675,0.44860967993736267,0.15587851405143738,-0.03383277356624603,0.9302101731300354,0.8008910417556763,0.11535461246967316,0.9045910835266113,0.8952664732933044,-0.2120964676141739,0.8579660058021545,0.7551150918006897,-0.37184879183769226,0.81878262758255,0.5550904273986816,-0.4170750081539154,0.7430818676948547,0.312992125749588,0.14443092048168182,1.0024542808532715,0.8466669917106628,0.3646891713142395,1.1572628021240234,0.772091805934906,0.6383265852928162,1.2441636323928833,0.6579969525337219,-0.15311020612716675,0.44860967993736267,0.15587851405143738,-0.07363209873437881,0.7695144414901733,0.5856695771217346,0.027552826330065727,0.6228507161140442,0.6043129563331604,-0.23222771286964417,0.7052410840988159,0.544944167137146,-0.41757458448410034,0.6518828868865967,0.36048969626426697,-0.4163673222064972,0.46619829535484314,0.06953930854797363,0.08496351540088654,0.8337877988815308,0.6263949871063232,0.29679256677627563,0.982671856880188,0.5546737909317017,0.5023875832557678,0.9661803841590881,0.2727159559726715,0.0,0.0,0.0,0.0,0.0,0.3370000123977661,-0.10088405758142471,0.18475016951560974,0.3371734917163849,-0.22932550311088562,0.41996654868125916,0.33741438388824463,-0.3129562437534332,0.5731204748153687,0.3375561535358429,-0.38005250692367554,0.6959947347640991,0.33766987919807434,2.0706069458007814,1.5699721279144288,-7.469276054762304e-05,-0.00010513207351323217,8.657935226801783e-05,7.421087685506791e-05
1636986778.1314235,5.0,0.0,0.07440070062875748,1.1825815439224243,0.256823867559433,-0.0366634726524353,0.9268685579299927,0.6947330832481384,0.041520796716213226,0.8135000467300415,0.709007203578949,-0.2076566070318222,0.8821873068809509,0.6642342209815979,-0.37425073981285095,0.8343530297279358,0.4985661208629608,-0.3734354078769684,0.6536526679992676,0.21583996713161469,0.1343296766281128,0.9715498089790344,0.725231945514679,0.3038730025291443,1.006232738494873,0.569338858127594,0.4419746398925781,0.9939435124397278,0.37996307015419006,-0.15311020612716675,0.44860967993736267,0.15587851405143738,-0.03383277356624603,0.9302101731300354,0.8008910417556763,0.11535461246967316,0.9045910835266113,0.8952664732933044,-0.2120964676141739,0.8579660058021545,0.7551150918006897,-0.37184879183769226,0.81878262758255,0.5550904273986816,-0.4170750081539154,0.7430818676948547,0.312992125749588,0.14443092048168182,1.0024542808532715,0.8466669917106628,0.3646891713142395,1.1572628021240234,0.772091805934906,0.6383265852928162,1.2441636323928833,0.6579969525337219,-0.15311020612716675,0.44860967993736267,0.15587851405143738,-0.07363209873437881,0.7695144414901733,0.5856695771217346,0.027536815032362938,0.6228178143501282,0.6041399836540222,-0.23222771286964417,0.7052410840988159,0.544944167137146,-0.417660117149353,0.6519977450370789,0.36054250597953796,-0.4168214201927185,0.46611928939819336,0.06971462070941925,0.08496351540088654,0.8337877988815308,0.6263949871063232,0.29679256677627563,0.982671856880188,0.5546737909317017,0.5023488998413086,0.9643800854682922,0.2727988064289093,0.0,0.0,0.0,0.0,0.0,0.3370000123977661,-0.10088405758142471,0.18475016951560974,0.3371734917163849,-0.22932550311088562,0.41996654868125916,0.33741438388824463,-0.3129562437534332,0.5731204748153687,0.3375561535358429,-0.38005250692367554,0.6959947347640991,0.33766987919807434,2.070602019882202,1.5699721279144288,-7.469276054762304e-05,-0.00010513207351323217,8.657935226801783e-05,7.421087685506791e-05
1636986778.1432757,5.0,0.0,0.07440070062875748,1.1825815439224243,0.256823867559433,-0.0366634726524353,0.9268685579299927,0.6947330832481384,0.041520796716213226,0.8135000467300415,0.709007203578949,-0.2076566070318222,0.8821873068809509,0.6642342209815979,-0.37425073981285095,0.8343530297279358,0.4985661208629608,-0.3734354078769684,0.6536526679992676,0.21583996713161469,0.1343296766281128,0.9715498089790344,0.725231945514679,0.3038730025291443,1.006232738494873,0.569338858127594,0.4419746398925781,0.9939435124397278,0.37996307015419006,-0.15965384244918823,0.42313486337661743,0.14560341835021973,-0.018736205995082855,0.975265622138977,0.8265494108200073,0.11474048346281052,0.9028905630111694,0.8942285180091858,-0.1918732225894928,0.9202412366867065,0.7908757328987122,-0.3644962012767792,0.8270253539085388,0.5673832893371582,-0.4214222729206085,0.7574483752250671,0.31040918827056885,0.1544008105993271,1.0302900075912476,0.8622230887413025,0.3827372193336487,1.1779495477676392,0.7929050326347351,0.7058723568916321,1.31443452835083,0.7111541032791138,-0.15965384244918823,0.42313486337661743,0.14560341835021973,-0.07265808433294296,0.7626261711120605,0.5593598484992981,0.02851082943379879,0.6159295439720154,0.5778302550315857,-0.2379169911146164,0.7120813131332397,0.5265436172485352,-0.42334941029548645,0.6588379740715027,0.3421419560909271,-0.42251071333885193,0.4729595482349396,0.0513140968978405,0.09260082244873047,0.8131710290908813,0.592176079750061,0.31216904520988464,0.953406572341919,0.526557981967926,0.5177253484725952,0.9351148009300232,0.24468301236629486,0.0,0.0,0.0,0.0,0.0,0.3370000123977661,-0.10088405758142471,0.18475016951560974,0.3371734917163849,-0.22932550311088562,0.41996654868125916,0.33741438388824463,-0.3129562437534332,0.5731204748153687,0.3375561535358429,-0.38005250692367554,0.6959947347640991,0.33766987919807434,2.070602019882202,1.5699721279144288,-7.469276054762304e-05,-0.00010513207351323217,8.657935226801783e-05,7.421087685506791e-05
1636986778.1644146,5.0,0.0,0.05954208970069885,1.181785225868225,0.25695720314979553,-0.03855085000395775,0.9305140376091003,0.6963849663734436,0.043480996042490005,0.8103176951408386,0.7074659466743469,-0.2076566070318222,0.8821873068809509,0.6642342209815979,-0.3854849934577942,0.8409111499786377,0.48600828647613525,-0.39549165964126587,0.6834999918937683,0.23731176555156708,0.1305549144744873,0.978840708732605,0.7285357713699341,0.31901806592941284,0.9931207299232483,0.5679092407226562,0.4630579650402069,0.9691479206085205,0.38989657163619995,-0.15965384244918823,0.42313486337661743,0.14560341835021973,-0.018736205995082855,0.975265622138977,0.8265494108200073,0.11474048346281052,0.9028905630111694,0.8942285180091858,-0.1918732225894928,0.9202412366867065,0.7908757328987122,-0.3644962012767792,0.8270253539085388,0.5673832893371582,-0.4214222729206085,0.7574483752250671,0.31040918827056885,0.1544008105993271,1.0302900075912476,0.8622230887413025,0.3827372193336487,1.1779495477676392,0.7929050326347351,0.7058723568916321,1.31443452835083,0.7111541032791138,-0.15965384244918823,0.42313486337661743,0.14560341835021973,-0.07359807193279266,0.7603108286857605,0.5614444613456726,0.02757084369659424,0.6136142015457153,0.5799148678779602,-0.23809804022312164,0.7080313563346863,0.5275503396987915,-0.4235304594039917,0.6547880172729492,0.34314867854118347,-0.4226917326450348,0.4689095914363861,0.05232080817222595,0.09090189635753632,0.8125903010368347,0.5953385233879089,0.30951476097106934,0.9539617896080017,0.528972327709198,0.5150710940361023,0.935670018196106,0.24709737300872803,0.0,0.0,0.0,0.0,0.0,0.3370000123977661,-0.10088314861059189,0.18475067615509033,0.3371734917163849,-0.22932343184947968,0.4199676513671875,0.33741438388824463,-0.3129534125328064,0.5731220245361328,0.3375561535358429,-0.38004907965660095,0.6959965825080872,0.33766987919807434,2.070602019882202,1.5699721279144288,-7.469276054762304e-05,-0.00010513207351323217,8.657935226801783e-05,7.421087685506791e-05
1636986778.176276,5.0,0.0,0.05954208970069885,1.181785225868225,0.25695720314979553,-0.03855085000395775,0.9305140376091003,0.6963849663734436,0.043480996042490005,0.8103176951408386,0.7074659466743469,-0.2076566070318222,0.8821873068809509,0.6642342209815979,-0.3854849934577942,0.8409111499786377,0.48600828647613525,-0.39549165964126587,0.6834999918937683,0.23731176555156708,0.1305549144744873,0.978840708732605,0.7285357713699341,0.31901806592941284,0.9931207299232483,0.5679092407226562,0.4630579650402069,0.9691479206085205,0.38989657163619995,-0.15965384244918823,0.42313486337661743,0.14560341835021973,-0.018736205995082855,0.975265622138977,0.8265494108200073,0.11474048346281052,0.9028905630111694,0.8942285180091858,-0.1918732225894928,0.9202412366867065,0.7908757328987122,-0.3644962012767792,0.8270253539085388,0.5673832893371582,-0.4214222729206085,0.7574483752250671,0.31040918827056885,0.1544008105993271,1.0302900075912476,0.8622230887413025,0.3827372193336487,1.1779495477676392,0.7929050326347351,0.7058723568916321,1.31443452835083,0.7111541032791138,-0.15965384244918823,0.42313486337661743,0.14560341835021973,-0.07359807193279266,0.7603108286857605,0.5614444613456726,0.027101602405309677,0.6127617359161377,0.5750470757484436,-0.23809804022312164,0.7080313563346863,0.5275503396987915,-0.4241153299808502,0.6648544669151306,0.34111717343330383,-0.4358433187007904,0.4803657531738281,0.04964038357138634,0.09090189635753632,0.8125903010368347,0.5953385233879089,0.30951476097106934,0.9539617896080017,0.528972327709198,0.5280667543411255,0.9175878167152405,0.2588733732700348,0.0,0.0,0.0,0.0,0.0,0.3370000123977661,-0.10088314861059189,0.18475067615509033,0.3371734917163849,-0.22932343184947968,0.4199676513671875,0.33741438388824463,-0.3129534125328064,0.5731220245361328,0.3375561535358429,-0.38004907965660095,0.6959965825080872,0.33766987919807434,2.070602019882202,1.5699721279144288,-7.469276054762304e-05,-0.00010513207351323217,8.657935226801783e-05,7.421087685506791e-05
1636986778.1974275,5.0,0.0,0.05954208970069885,1.181785225868225,0.25695720314979553,-0.03855085000395775,0.9305140376091003,0.6963849663734436,0.043480996042490005,0.8103176951408386,0.7074659466743469,-0.2076566070318222,0.8821873068809509,0.6642342209815979,-0.3854849934577942,0.8409111499786377,0.48600828647613525,-0.39549165964126587,0.6834999918937683,0.23731176555156708,0.1305549144744873,0.978840708732605,0.7285357713699341,0.31901806592941284,0.9931207299232483,0.5679092407226562,0.4630579650402069,0.9691479206085205,0.38989657163619995,-0.15965384244918823,0.42313486337661743,0.14560341835021973,-0.018736205995082855,0.975265622138977,0.8265494108200073,0.11474048346281052,0.9028905630111694,0.8942285180091858,-0.1918732225894928,0.9202412366867065,0.7908757328987122,-0.3644962012767792,0.8270253539085388,0.5673832893371582,-0.4214222729206085,0.7574483752250671,0.31040918827056885,0.1544008105993271,1.0302900075912476,0.8622230887413025,0.3827372193336487,1.1779495477676392,0.7929050326347351,0.7058723568916321,1.31443452835083,0.7111541032791138,-0.15965384244918823,0.42313486337661743,0.14560341835021973,-0.07359807193279266,0.7603108286857605,0.5614444613456726,0.027101602405309677,0.6127617359161377,0.5750470757484436,-0.23809804022312164,0.7080313563346863,0.5275503396987915,-0.4241153299808502,0.6648544669151306,0.34111717343330383,-0.4358433187007904,0.4803657531738281,0.04964038357138634,0.09090189635753632,0.8125903010368347,0.5953385233879089,0.30951476097106934,0.9539617896080017,0.528972327709198,0.5280667543411255,0.9175878167152405,0.2588733732700348,0.0,0.0,0.0,0.0,0.0,0.3370000123977661,-0.10088314861059189,0.18475067615509033,0.3371734917163849,-0.22932343184947968,0.4199676513671875,0.33741438388824463,-0.3129534125328064,0.5731220245361328,0.3375561535358429,-0.38004907965660095,0.6959965825080872,0.33766987919807434,2.070602019882202,1.5699721279144288,-7.469276054762304e-05,-0.00010513207351323217,8.657935226801783e-05,7.421087685506791e-05
1636986778.209278,5.0,0.0,0.05954208970069885,1.181785225868225,0.25695720314979553,-0.03855085000395775,0.9305140376091003,0.6963849663734436,0.043480996042490005,0.8103176951408386,0.7074659466743469,-0.2076566070318222,0.8821873068809509,0.6642342209815979,-0.3854849934577942,0.8409111499786377,0.48600828647613525,-0.39549165964126587,0.6834999918937683,0.23731176555156708,0.1305549144744873,0.978840708732605,0.7285357713699341,0.31901806592941284,0.9931207299232483,0.5679092407226562,0.4630579650402069,0.9691479206085205,0.38989657163619995,-0.09591656923294067,0.6473811864852905,0.18609189987182617,-0.021004095673561096,0.9661760926246643,0.8259586691856384,0.10982706397771835,0.8892856240272522,0.8859245181083679,-0.1948069930076599,0.906020998954773,0.7829979658126831,-0.36818835139274597,0.7978905439376831,0.5538408756256104,-0.41572701930999756,0.7506831884384155,0.3089236915111542,0.15279880166053772,1.0263311862945557,0.868919312953949,0.3851598799228668,1.1836472749710083,0.8145020604133606,0.6159974932670593,1.0984514951705933,0.6398274302482605,-0.09591656923294067,0.6473811864852905,0.18609189987182617,-0.040740080177783966,0.8834664225578308,0.6711035966873169,0.059959590435028076,0.7359172701835632,0.6847062110900879,-0.2024926394224167,0.82728111743927,0.6308355331420898,-0.38850995898246765,0.7841042280197144,0.4444023668766022,-0.40023794770240784,0.5996155142784119,0.15292556583881378,0.12101247906684875,0.9396516680717468,0.7113716006278992,0.33938518166542053,1.0877901315689087,0.6608710885047913,0.5579371452331543,1.0514161586761475,0.39077216386795044,0.0,0.0,0.0,0.0,0.0,0.3370000123977661,-0.10088314861059189,0.18475067615509033,0.3371734917163849,-0.22932343184947968,0.4199676513671875,0.33741438388824463,-0.3129534125328064,0.5731220245361328,0.3375561535358429,-0.38004907965660095,0.6959965825080872,0.33766987919807434,2.070602019882202,1.5699721279144288,-7.469276054762304e-05,-0.00010513207351323217,8.657935226801783e-05,7.421087685506791e-05
1636986778.2304642,5.0,0.0,0.06190400943160057,1.1554760932922363,0.26822492480278015,-0.03609171137213707,0.9202698469161987,0.6972452402114868,0.03772486373782158,0.8025634288787842,0.7010359168052673,-0.20985634624958038,0.8754473924636841,0.6721846461296082,-0.3769283592700958,0.8375407457351685,0.4997190833091736,-0.39141812920570374,0.6791186928749084,0.23627665638923645,0.13767293095588684,0.9650923013687134,0.7223057746887207,0.30872946977615356,1.0036933422088623,0.5816808938980103,0.473459392786026,0.9488937258720398,0.396976113319397,-0.09591656923294067,0.6473811864852905,0.18609189987182617,-0.021004095673561096,0.9661760926246643,0.8259586691856384,0.10982706397771835,0.8892856240272522,0.8859245181083679,-0.1948069930076599,0.906020998954773,0.7829979658126831,-0.36818835139274597,0.7978905439376831,0.5538408756256104,-0.41572701930999756,0.7506831884384155,0.3089236915111542,0.15279880166053772,1.0263311862945557,0.868919312953949,0.3851598799228668,1.1836472749710083,0.8145020604133606,0.6159974932670593,1.0984514951705933,0.6398274302482605,-0.09591656923294067,0.6473811864852905,0.18609189987182617,-0.03940555453300476,0.8878675103187561,0.668782114982605,0.05964461341500282,0.7389927506446838,0.6798083782196045,-0.20127713680267334,0.8318419456481934,0.628770649433136,-0.38652339577674866,0.7891343832015991,0.4414636492729187,-0.3996475636959076,0.6066495776176453,0.14878734946250916,0.12246602773666382,0.9438930153846741,0.708793580532074,0.3408713936805725,1.0917606353759766,0.6576446890830994,0.5632203221321106,1.0440939664840698,0.39244601130485535,0.0,0.0,0.0,0.0,0.0,0.3370000123977661,-0.10088314861059189,0.18475067615509033,0.3371734917163849,-0.22932343184947968,0.4199676513671875,0.33741438388824463,-0.3129534125328064,0.5731220245361328,0.3375561535358429,-0.38004907965660095,0.6959965825080872,0.33766987919807434,2.070602019882202,1.5699721279144288,-7.469276054762304e-05,-0.00010513207351323217,8.657935226801783e-05,7.421087685506791e-05
1636986778.2422917,5.0,0.0,0.06190400943160057,1.1554760932922363,0.26822492480278015,-0.03609171137213707,0.9202698469161987,0.6972452402114868,0.03772486373782158,0.8025634288787842,0.7010359168052673,-0.20985634624958038,0.8754473924636841,0.6721846461296082,-0.3769283592700958,0.8375407457351685,0.4997190833091736,-0.39141812920570374,0.6791186928749084,0.23627665638923645,0.13767293095588684,0.9650923013687134,0.7223057746887207,0.30872946977615356,1.0036933422088623,0.5816808938980103,0.473459392786026,0.9488937258720398,0.396976113319397,-0.09591656923294067,0.6473811864852905,0.18609189987182617,-0.021004095673561096,0.9661760926246643,0.8259586691856384,0.10982706397771835,0.8892856240272522,0.8859245181083679,-0.1948069930076599,0.906020998954773,0.7829979658126831,-0.36818835139274597,0.7978905439376831,0.5538408756256104,-0.41572701930999756,0.7506831884384155,0.3089236915111542,0.15279880166053772,1.0263311862945557,0.868919312953949,0.3851598799228668,1.1836472749710083,0.8145020604133606,0.6159974932670593,1.0984514951705933,0.6398274302482605,-0.09591656923294067,0.6473811864852905,0.18609189987182617,-0.03940555453300476,0.8878675103187561,0.668782114982605,0.0557422898709774,0.7361466288566589,0.6736682653427124,-0.20127713680267334,0.8318419456481934,0.628770649433136,-0.38469600677490234,0.790226399898529,0.43943050503730774,-0.4009470045566559,0.612548291683197,0.1439668983221054,0.12246602773666382,0.9438930153846741,0.708793580532074,0.3408713936805725,1.0917606353759766,0.6576446890830994,0.5678962469100952,1.016237735748291,0.403091162443161,0.0,0.0,0.0,0.0,0.0,0.3370000123977661,-0.10088314861059189,0.18475067615509033,0.3371734917163849,-0.22932343184947968,0.4199676513671875,0.33741438388824463,-0.3129534125328064,0.5731220245361328,0.3375561535358429,-0.38004907965660095,0.6959965825080872,0.33766987919807434,2.070602019882202,1.5699721279144288,-7.469276054762304e-05,-0.00010513207351323217,8.657935226801783e-05,7.421087685506791e-05
1636986778.2634132,5.0,0.0,0.06190400943160057,1.1554760932922363,0.26822492480278015,-0.03609171137213707,0.9202698469161987,0.6972452402114868,0.03772486373782158,0.8025634288787842,0.7010359168052673,-0.20985634624958038,0.8754473924636841,0.6721846461296082,-0.3769283592700958,0.8375407457351685,0.4997190833091736,-0.39141812920570374,0.6791186928749084,0.23627665638923645,0.13767293095588684,0.9650923013687134,0.7223057746887207,0.30872946977615356,1.0036933422088623,0.5816808938980103,0.473459392786026,0.9488937258720398,0.396976113319397,-0.15724189579486847,0.4139307737350464,0.16613076627254486,-0.02589597925543785,0.9336042404174805,0.8040786385536194,0.10679030418395996,0.8808770179748535,0.8807922005653381,-0.20162558555603027,0.8729705810546875,0.7646887302398682,-0.37105807662010193,0.8251884579658508,0.5580397248268127,-0.41792839765548706,0.7295726537704468,0.3016539514064789,0.14983363449573517,0.9942379593849182,0.8434684872627258,0.39829400181770325,1.1925139427185059,0.8109081983566284,0.642350971698761,1.162191390991211,0.6758384704589844,-0.09591656923294067,0.6473811864852905,0.18609189987182617,-0.03940555453300476,0.8878675103187561,0.668782114982605,0.0557422898709774,0.7361466288566589,0.6736682653427124,-0.20127713680267334,0.8318419456481934,0.628770649433136,-0.38469600677490234,0.790226399898529,0.43943050503730774,-0.4009470045566559,0.612548291683197,0.1439668983221054,0.12246602773666382,0.9438930153846741,0.708793580532074,0.3408713936805725,1.0917606353759766,0.6576446890830994,0.5678962469100952,1.016237735748291,0.403091162443161,0.0,0.0,0.0,0.0,0.0,0.3370000123977661,-0.10088314861059189,0.18475067615509033,0.3371734917163849,-0.22932343184947968,0.4199676513671875,0.33741438388824463,-0.3129534125328064,0.5731220245361328,0.3375561535358429,-0.38004907965660095,0.6959965825080872,0.33766987919807434,2.070602019882202,1.5699721279144288,-7.469276054762304e-05,-0.00010513207351323217,8.657935226801783e-05,7.421087685506791e-05
