UF-SAMM-Lab/NSF_project_archive_data/MSEC_2022/skeleton_fusion_data/data_files/reject/dynamic/location_test_2021_11_15_09_31_44_OpenPose.csv
Time,Test Joint,Touch Active,H1-Pelvis-x,H1-Pelvis-y,H1-Pelvis-z,H1-Spine-x,H1-Spine-y,H1-Spine-z,H1-Head-x,H1-Head-y,H1-Head-z,H1-R-Shoulder-x,H1-R-Shoulder-y,H1-R-Shoulder-z,H1-R-Elbow-x,H1-R-Elbow-y,H1-R-Elbow-z,H1-R-Wrist-x,H1-R-Wrist-y,H1-R-Wrist-z,H1-L-Shoulder-x,H1-L-Shoulder-y,H1-L-Shoulder-z,H1-L-Elbow-x,H1-L-Elbow-y,H1-L-Elbow-z,H1-L-Wrist-x,H1-L-Wrist-y,H1-L-Wrist-z,H2-Pelvis-x,H2-Pelvis-y,H2-Pelvis-z,H2-Spine-x,H2-Spine-y,H2-Spine-z,H2-Head-x,H2-Head-y,H2-Head-z,H2-R-Shoulder-x,H2-R-Shoulder-y,H2-R-Shoulder-z,H2-R-Elbow-x,H2-R-Elbow-y,H2-R-Elbow-z,H2-R-Wrist-x,H2-R-Wrist-y,H2-R-Wrist-z,H2-L-Shoulder-x,H2-L-Shoulder-y,H2-L-Shoulder-z,H2-L-Elbow-x,H2-L-Elbow-y,H2-L-Elbow-z,H2-L-Wrist-x,H2-L-Wrist-y,H2-L-Wrist-z,HC-Pelvis-x,HC-Pelvis-y,HC-Pelvis-z,HC-Spine-x,HC-Spine-y,HC-Spine-z,HC-Head-x,HC-Head-y,HC-Head-z,HC-R-Shoulder-x,HC-R-Shoulder-y,HC-R-Shoulder-z,HC-R-Elbow-x,HC-R-Elbow-y,HC-R-Elbow-z,HC-R-Wrist-x,HC-R-Wrist-y,HC-R-Wrist-z,HC-L-Shoulder-x,HC-L-Shoulder-y,HC-L-Shoulder-z,HC-L-Elbow-x,HC-L-Elbow-y,HC-L-Elbow-z,HC-L-Wrist-x,HC-L-Wrist-y,HC-L-Wrist-z,Robot-Base(x),Robot-Base(y),Robot-Base(z),Robot-J2(x),Robot-J2(y),Robot-J2(z),Robot-J3(x),Robot-J3(y),Robot-J3(z),Robot-J5(x),Robot-J5(y),Robot-J5(z),Robot-J6(x),Robot-J6(y),Robot-J6(z),Robot-EE(x),Robot-EE(y),Robot-EE(z),Robot-J1-angle,Robot-J2-angle,Robot-J3-angle,Robot-J4-angle,Robot-J5-angle,Robot-J6-angle
1636986704.6073823,5.0,0.0,0.10138598084449768,1.1403732299804688,0.2586198151111603,-0.02011466771364212,0.9143296480178833,0.6854875683784485,0.07785924524068832,0.7811655402183533,0.6861575841903687,-0.19535773992538452,0.8652931451797485,0.656766414642334,-0.354511559009552,0.8265954256057739,0.49948054552078247,-0.3936115503311157,0.6814778447151184,0.23683401942253113,0.1551283895969391,0.9633662104606628,0.714208722114563,0.3255300521850586,1.0343313217163086,0.543144702911377,0.44510725140571594,1.0129367113113403,0.330192893743515,-0.03105822391808033,0.6790538430213928,0.2125391811132431,-0.0035667356569319963,0.9315754771232605,0.8072175979614258,0.14488419890403748,0.875590980052948,0.8846389055252075,-0.17036281526088715,0.8774967789649963,0.764225423336029,-0.34185144305229187,0.794902503490448,0.5640384554862976,-0.4117746651172638,0.738285481929779,0.31885087490081787,0.1632293462753296,0.9856541752815247,0.8502097129821777,0.3482520282268524,1.1608245372772217,0.7434443831443787,0.5696013569831848,1.2046147584915161,0.5889525413513184,0.10138598084449768,1.1403732299804688,0.2586198151111603,-0.030887877568602562,0.8942868709564209,0.7233370542526245,0.0752820298075676,0.7499828934669495,0.7240630984306335,-0.19259805977344513,0.8401321172714233,0.6802177429199219,-0.359173983335495,0.7633374333381653,0.48636460304260254,-0.40377166867256165,0.5978154540061951,0.186788409948349,0.1308223009109497,0.9484416246414185,0.7664563059806824,0.312735378742218,1.024200677871704,0.5838360786437988,0.48312658071517944,0.9937146306037903,0.28039100766181946,0.0,0.0,0.0,0.0,0.0,0.3370000123977661,-0.10067063570022583,0.1848665475845337,0.3371734917163849,-0.2288403958082199,0.4202311038970947,0.3373730182647705,-0.31229421496391296,0.573481559753418,0.3374878466129303,-0.37924855947494507,0.6964331865310669,0.33757996559143066,2.0694521507263186,1.5699721279144288,7.967227683402598e-05,9.894783580675722e-05,8.657935226801783e-05,-1.2368479475844652e-05
1636986704.6168694,5.0,0.0,0.10138598084449768,1.1403732299804688,0.2586198151111603,-0.02011466771364212,0.9143296480178833,0.6854875683784485,0.07785924524068832,0.7811655402183533,0.6861575841903687,-0.19535773992538452,0.8652931451797485,0.656766414642334,-0.354511559009552,0.8265954256057739,0.49948054552078247,-0.3936115503311157,0.6814778447151184,0.23683401942253113,0.1551283895969391,0.9633662104606628,0.714208722114563,0.3255300521850586,1.0343313217163086,0.543144702911377,0.44510725140571594,1.0129367113113403,0.330192893743515,-0.03105822391808033,0.6790538430213928,0.2125391811132431,-0.0035667356569319963,0.9315754771232605,0.8072175979614258,0.14488419890403748,0.875590980052948,0.8846389055252075,-0.17036281526088715,0.8774967789649963,0.764225423336029,-0.34185144305229187,0.794902503490448,0.5640384554862976,-0.4117746651172638,0.738285481929779,0.31885087490081787,0.1632293462753296,0.9856541752815247,0.8502097129821777,0.3482520282268524,1.1608245372772217,0.7434443831443787,0.5696013569831848,1.2046147584915161,0.5889525413513184,0.10138598084449768,1.1403732299804688,0.2586198151111603,-0.030887877568602562,0.8942868709564209,0.7233370542526245,0.0752820298075676,0.7499828934669495,0.7240630984306335,-0.19340313971042633,0.8415961265563965,0.6814482808113098,-0.359083890914917,0.7617990970611572,0.48804110288619995,-0.40368157625198364,0.596277117729187,0.1884649246931076,0.1316273808479309,0.9469776153564453,0.7652257680892944,0.3135404586791992,1.022736668586731,0.5826055407524109,0.48393166065216064,0.9922506213188171,0.2791604697704315,0.0,0.0,0.0,0.0,0.0,0.3370000123977661,-0.10067063570022583,0.1848665475845337,0.3371734917163849,-0.2288403958082199,0.4202311038970947,0.3373730182647705,-0.31229421496391296,0.573481559753418,0.3374878466129303,-0.37924855947494507,0.6964331865310669,0.33757996559143066,2.0694521507263186,1.5699721279144288,7.967227683402598e-05,9.894783580675722e-05,8.657935226801783e-05,-1.2368479475844652e-05
1636986704.6404252,5.0,0.0,0.11310935765504837,1.136696457862854,0.25508084893226624,-0.02404925599694252,0.9203631281852722,0.6881698369979858,0.07616318017244339,0.7839617729187012,0.6875002384185791,-0.20109722018241882,0.8731771111488342,0.6602513790130615,-0.3437845706939697,0.8137115240097046,0.4947938621044159,-0.3917314410209656,0.6794556975364685,0.23635627329349518,0.15299871563911438,0.9675490856170654,0.7160882949829102,0.3261491060256958,1.0474364757537842,0.5377141833305359,0.4454963505268097,1.011824131011963,0.32992157340049744,-0.03105822391808033,0.6790538430213928,0.2125391811132431,-0.0035667356569319963,0.9315754771232605,0.8072175979614258,0.14488419890403748,0.875590980052948,0.8846389055252075,-0.17036281526088715,0.8774967789649963,0.764225423336029,-0.34185144305229187,0.794902503490448,0.5640384554862976,-0.4117746651172638,0.738285481929779,0.31885087490081787,0.1632293462753296,0.9856541752815247,0.8502097129821777,0.3482520282268524,1.1608245372772217,0.7434443831443787,0.5696013569831848,1.2046147584915161,0.5889525413513184,0.11310935765504837,1.136696457862854,0.25508084893226624,-0.03694579750299454,0.9054650664329529,0.7220203280448914,0.06911100447177887,0.7610790729522705,0.721103310585022,-0.19946105778217316,0.8527743220329285,0.6801316142082214,-0.3651418089866638,0.7729772925376892,0.4867244064807892,-0.4227551519870758,0.6173494458198547,0.18408101797103882,0.12556946277618408,0.9581558704376221,0.763909101486206,0.3031507730484009,1.0412662029266357,0.580225944519043,0.4751242995262146,0.9868642687797546,0.2810486853122711,0.0,0.0,0.0,0.0,0.0,0.3370000123977661,-0.10067063570022583,0.1848665475845337,0.3371734917163849,-0.2288403958082199,0.4202311038970947,0.3373730182647705,-0.31229421496391296,0.573481559753418,0.3374878466129303,-0.37924855947494507,0.6964331865310669,0.33757996559143066,2.0694521507263186,1.5699721279144288,7.967227683402598e-05,9.894783580675722e-05,8.657935226801783e-05,-1.2368479475844652e-05
1636986704.6498666,5.0,0.0,0.11310935765504837,1.136696457862854,0.25508084893226624,-0.02404925599694252,0.9203631281852722,0.6881698369979858,0.07616318017244339,0.7839617729187012,0.6875002384185791,-0.20109722018241882,0.8731771111488342,0.6602513790130615,-0.3437845706939697,0.8137115240097046,0.4947938621044159,-0.3917314410209656,0.6794556975364685,0.23635627329349518,0.15299871563911438,0.9675490856170654,0.7160882949829102,0.3261491060256958,1.0474364757537842,0.5377141833305359,0.4454963505268097,1.011824131011963,0.32992157340049744,-0.03105822391808033,0.6790538430213928,0.2125391811132431,-0.0035667356569319963,0.9315754771232605,0.8072175979614258,0.14488419890403748,0.875590980052948,0.8846389055252075,-0.17036281526088715,0.8774967789649963,0.764225423336029,-0.34185144305229187,0.794902503490448,0.5640384554862976,-0.4117746651172638,0.738285481929779,0.31885087490081787,0.1632293462753296,0.9856541752815247,0.8502097129821777,0.3482520282268524,1.1608245372772217,0.7434443831443787,0.5696013569831848,1.2046147584915161,0.5889525413513184,0.11310935765504837,1.136696457862854,0.25508084893226624,-0.03469788655638695,0.9035675525665283,0.7217937111854553,0.07137369364500046,0.7591912150382996,0.7210850119590759,-0.19721314311027527,0.8508768081665039,0.6799049973487854,-0.36289387941360474,0.7710797786712646,0.48649778962135315,-0.41896411776542664,0.6140778064727783,0.1842746138572693,0.12781736254692078,0.9562582969665527,0.76368248462677,0.3059764802455902,1.0384565591812134,0.5801485180854797,0.47807812690734863,0.987102746963501,0.28050655126571655,0.0,0.0,0.0,0.0,0.0,0.3370000123977661,-0.10067063570022583,0.1848665475845337,0.3371734917163849,-0.2288403958082199,0.4202311038970947,0.3373730182647705,-0.31229421496391296,0.573481559753418,0.3374878466129303,-0.37924855947494507,0.6964331865310669,0.33757996559143066,2.0694521507263186,1.5699721279144288,7.967227683402598e-05,9.894783580675722e-05,8.657935226801783e-05,-1.2368479475844652e-05
1636986704.6734521,5.0,0.0,0.11310935765504837,1.136696457862854,0.25508084893226624,-0.02404925599694252,0.9203631281852722,0.6881698369979858,0.07616318017244339,0.7839617729187012,0.6875002384185791,-0.20109722018241882,0.8731771111488342,0.6602513790130615,-0.3437845706939697,0.8137115240097046,0.4947938621044159,-0.3917314410209656,0.6794556975364685,0.23635627329349518,0.15299871563911438,0.9675490856170654,0.7160882949829102,0.3261491060256958,1.0474364757537842,0.5377141833305359,0.4454963505268097,1.011824131011963,0.32992157340049744,-0.03166787698864937,0.6846160292625427,0.21074317395687103,-0.006448458414524794,0.9348806142807007,0.8043509125709534,0.1440192461013794,0.8736609816551208,0.8919653296470642,-0.17577339708805084,0.8850605487823486,0.7590308785438538,-0.34800755977630615,0.7998269200325012,0.5652856230735779,-0.41328221559524536,0.7191359400749207,0.30549243092536926,0.16287648677825928,0.984700620174408,0.849670946598053,0.3702901303768158,1.2127676010131836,0.7586776614189148,0.5540720820426941,1.2104967832565308,0.5980111956596375,0.11310935765504837,1.136696457862854,0.25508084893226624,-0.03469788655638695,0.9035675525665283,0.7217937111854553,0.07137369364500046,0.7591912150382996,0.7210850119590759,-0.19818443059921265,0.8556734919548035,0.6779702305793762,-0.36674097180366516,0.772163987159729,0.4886586666107178,-0.42281121015548706,0.6151620149612427,0.18643547594547272,0.12878866493701935,0.9514616131782532,0.7656171917915344,0.3069477677345276,1.0336599349975586,0.5820832252502441,0.479049414396286,0.9823060035705566,0.28244128823280334,0.0,0.0,0.0,0.0,0.0,0.3370000123977661,-0.10067063570022583,0.1848665475845337,0.3371734917163849,-0.2288403958082199,0.4202311038970947,0.3373730182647705,-0.31229421496391296,0.573481559753418,0.3374878466129303,-0.37924855947494507,0.6964331865310669,0.33757996559143066,2.0694521507263186,1.5699721279144288,7.967227683402598e-05,9.894783580675722e-05,8.657935226801783e-05,-1.2368479475844652e-05
1636986704.682904,5.0,0.0,0.11310935765504837,1.136696457862854,0.25508084893226624,-0.02404925599694252,0.9203631281852722,0.6881698369979858,0.07616318017244339,0.7839617729187012,0.6875002384185791,-0.20109722018241882,0.8731771111488342,0.6602513790130615,-0.3437845706939697,0.8137115240097046,0.4947938621044159,-0.3917314410209656,0.6794556975364685,0.23635627329349518,0.15299871563911438,0.9675490856170654,0.7160882949829102,0.3261491060256958,1.0474364757537842,0.5377141833305359,0.4454963505268097,1.011824131011963,0.32992157340049744,-0.03166787698864937,0.6846160292625427,0.21074317395687103,-0.006448458414524794,0.9348806142807007,0.8043509125709534,0.1440192461013794,0.8736609816551208,0.8919653296470642,-0.17577339708805084,0.8850605487823486,0.7590308785438538,-0.34800755977630615,0.7998269200325012,0.5652856230735779,-0.41328221559524536,0.7191359400749207,0.30549243092536926,0.16287648677825928,0.984700620174408,0.849670946598053,0.3702901303768158,1.2127676010131836,0.7586776614189148,0.5540720820426941,1.2104967832565308,0.5980111956596375,0.11310935765504837,1.136696457862854,0.25508084893226624,-0.03469788655638695,0.9035675525665283,0.7217937111854553,0.07137369364500046,0.7591912150382996,0.7210850119590759,-0.19814695417881012,0.8554763793945312,0.6780464053153992,-0.3665894567966461,0.7721191048622131,0.4885663092136383,-0.422659695148468,0.6151171326637268,0.18634311854839325,0.12875118851661682,0.9516587257385254,0.7655410766601562,0.30691030621528625,1.033856987953186,0.582007110118866,0.4790119528770447,0.9825031757354736,0.2823651432991028,0.0,0.0,0.0,0.0,0.0,0.3370000123977661,-0.10067063570022583,0.1848665475845337,0.3371734917163849,-0.2288403958082199,0.4202311038970947,0.3373730182647705,-0.31229421496391296,0.573481559753418,0.3374878466129303,-0.37924855947494507,0.6964331865310669,0.33757996559143066,2.0694521507263186,1.5699721279144288,7.967227683402598e-05,9.894783580675722e-05,8.657935226801783e-05,-1.2368479475844652e-05
1636986704.7065322,5.0,0.0,0.11835645884275436,1.121501088142395,0.25786593556404114,-0.024776075035333633,0.9130294322967529,0.6834090352058411,0.07931312173604965,0.7787686586380005,0.6850066184997559,-0.196450874209404,0.8667947053909302,0.6574301719665527,-0.3601186275482178,0.8175285458564758,0.49248096346855164,-0.38724106550216675,0.6604259014129639,0.2275952249765396,0.14689873158931732,0.9592641592025757,0.7093879580497742,0.3192811608314514,1.0497299432754517,0.5485002994537354,0.4319467544555664,1.0084497928619385,0.3345203101634979,-0.03166787698864937,0.6846160292625427,0.21074317395687103,-0.006448458414524794,0.9348806142807007,0.8043509125709534,0.1440192461013794,0.8736609816551208,0.8919653296470642,-0.17577339708805084,0.8850605487823486,0.7590308785438538,-0.34800755977630615,0.7998269200325012,0.5652856230735779,-0.41328221559524536,0.7191359400749207,0.30549243092536926,0.16287648677825928,0.984700620174408,0.849670946598053,0.3702901303768158,1.2127676010131836,0.7586776614189148,0.5540720820426941,1.2104967832565308,0.5980111956596375,0.11835645884275436,1.121501088142395,0.25786593556404114,-0.03881196677684784,0.8933448791503906,0.7239773273468018,0.0711083859205246,0.7518863081932068,0.7257611155509949,-0.2022610306739807,0.8452537059783936,0.6802300214767456,-0.3707035481929779,0.7618964910507202,0.49074989557266235,-0.39976105093955994,0.5859185457229614,0.1952507048845291,0.12463710457086563,0.9414360523223877,0.7677246928215027,0.3081915080547333,1.0382803678512573,0.5971054434776306,0.46811139583587646,0.9792161583900452,0.2921816408634186,0.0,0.0,0.0,0.0,0.0,0.3370000123977661,-0.10067063570022583,0.1848665475845337,0.3371734917163849,-0.2288403958082199,0.4202311038970947,0.3373730182647705,-0.31229421496391296,0.573481559753418,0.3374878466129303,-0.37924855947494507,0.6964331865310669,0.33757996559143066,2.0694521507263186,1.5699721279144288,7.967227683402598e-05,9.894783580675722e-05,8.657935226801783e-05,-1.2368479475844652e-05
1636986704.7158568,5.0,0.0,0.11835645884275436,1.121501088142395,0.25786593556404114,-0.024776075035333633,0.9130294322967529,0.6834090352058411,0.07931312173604965,0.7787686586380005,0.6850066184997559,-0.196450874209404,0.8667947053909302,0.6574301719665527,-0.3601186275482178,0.8175285458564758,0.49248096346855164,-0.38724106550216675,0.6604259014129639,0.2275952249765396,0.14689873158931732,0.9592641592025757,0.7093879580497742,0.3192811608314514,1.0497299432754517,0.5485002994537354,0.4319467544555664,1.0084497928619385,0.3345203101634979,-0.03166787698864937,0.6846160292625427,0.21074317395687103,-0.006448458414524794,0.9348806142807007,0.8043509125709534,0.1440192461013794,0.8736609816551208,0.8919653296470642,-0.17577339708805084,0.8850605487823486,0.7590308785438538,-0.34800755977630615,0.7998269200325012,0.5652856230735779,-0.41328221559524536,0.7191359400749207,0.30549243092536926,0.16287648677825928,0.984700620174408,0.849670946598053,0.3702901303768158,1.2127676010131836,0.7586776614189148,0.5540720820426941,1.2104967832565308,0.5980111956596375,0.11835645884275436,1.121501088142395,0.25786593556404114,-0.038430944085121155,0.8931412100791931,0.724005937576294,0.0713333785533905,0.7515602707862854,0.7256906628608704,-0.20188000798225403,0.845050036907196,0.680258572101593,-0.3703225255012512,0.7616928219795227,0.49077850580215454,-0.4006026089191437,0.5862999558448792,0.19505426287651062,0.1250181347131729,0.941232442855835,0.7677532434463501,0.3083970844745636,1.0374691486358643,0.5966023802757263,0.46883267164230347,0.9786862730979919,0.29189521074295044,0.0,0.0,0.0,0.0,0.0,0.3370000123977661,-0.10067063570022583,0.1848665475845337,0.3371734917163849,-0.2288403958082199,0.4202311038970947,0.3373730182647705,-0.31229421496391296,0.573481559753418,0.3374878466129303,-0.37924855947494507,0.6964331865310669,0.33757996559143066,2.0694521507263186,1.5699721279144288,7.967227683402598e-05,9.894783580675722e-05,8.657935226801783e-05,-1.2368479475844652e-05
1636986704.7394204,5.0,0.0,0.11835645884275436,1.121501088142395,0.25786593556404114,-0.024776075035333633,0.9130294322967529,0.6834090352058411,0.07931312173604965,0.7787686586380005,0.6850066184997559,-0.196450874209404,0.8667947053909302,0.6574301719665527,-0.3601186275482178,0.8175285458564758,0.49248096346855164,-0.38724106550216675,0.6604259014129639,0.2275952249765396,0.14689873158931732,0.9592641592025757,0.7093879580497742,0.3192811608314514,1.0497299432754517,0.5485002994537354,0.4319467544555664,1.0084497928619385,0.3345203101634979,-0.06573297828435898,0.5783695578575134,0.19114825129508972,0.004071005154401064,0.9272388219833374,0.806216299533844,0.14660051465034485,0.8804301619529724,0.8961504697799683,-0.16690418124198914,0.8595767021179199,0.7555897235870361,-0.3421264886856079,0.7967162132263184,0.5722572207450867,-0.4119093418121338,0.7370283007621765,0.3184082508087158,0.1750461906194687,0.9949010014533997,0.8568429350852966,0.3689398169517517,1.2095770835876465,0.7571781277656555,0.5256116390228271,1.1721429824829102,0.5814183950424194,0.11835645884275436,1.121501088142395,0.25786593556404114,-0.038430944085121155,0.8931412100791931,0.724005937576294,0.0713333785533905,0.7515602707862854,0.7256906628608704,-0.19612476229667664,0.8307350873947144,0.6773120164871216,-0.37510424852371216,0.7665266990661621,0.49004843831062317,-0.4053843319416046,0.5911338925361633,0.19432421028614044,0.11926288157701492,0.9555473923683167,0.7706998586654663,0.3026418089866638,1.0517840385437012,0.5995489954948425,0.4630774259567261,0.9930012822151184,0.2948417663574219,0.0,0.0,0.0,0.0,0.0,0.3370000123977661,-0.10067063570022583,0.1848665475845337,0.3371734917163849,-0.2288403958082199,0.4202311038970947,0.3373730182647705,-0.31229421496391296,0.573481559753418,0.3374878466129303,-0.37924855947494507,0.6964331865310669,0.33757996559143066,2.0694521507263186,1.5699721279144288,7.967227683402598e-05,9.894783580675722e-05,8.657935226801783e-05,-1.2368479475844652e-05
1636986704.7488606,5.0,0.0,0.11835645884275436,1.121501088142395,0.25786593556404114,-0.024776075035333633,0.9130294322967529,0.6834090352058411,0.07931312173604965,0.7787686586380005,0.6850066184997559,-0.196450874209404,0.8667947053909302,0.6574301719665527,-0.3601186275482178,0.8175285458564758,0.49248096346855164,-0.38724106550216675,0.6604259014129639,0.2275952249765396,0.14689873158931732,0.9592641592025757,0.7093879580497742,0.3192811608314514,1.0497299432754517,0.5485002994537354,0.4319467544555664,1.0084497928619385,0.3345203101634979,-0.06573297828435898,0.5783695578575134,0.19114825129508972,0.004071005154401064,0.9272388219833374,0.806216299533844,0.14660051465034485,0.8804301619529724,0.8961504697799683,-0.16690418124198914,0.8595767021179199,0.7555897235870361,-0.3421264886856079,0.7967162132263184,0.5722572207450867,-0.4119093418121338,0.7370283007621765,0.3184082508087158,0.1750461906194687,0.9949010014533997,0.8568429350852966,0.3689398169517517,1.2095770835876465,0.7571781277656555,0.5256116390228271,1.1721429824829102,0.5814183950424194,0.11835645884275436,1.121501088142395,0.25786593556404114,-0.038430944085121155,0.8931412100791931,0.724005937576294,0.0713333785533905,0.7515602707862854,0.7256906628608704,-0.19612476229667664,0.8307350873947144,0.6773120164871216,-0.37510424852371216,0.7665266990661621,0.49004843831062317,-0.4053843319416046,0.5911338925361633,0.19432421028614044,0.11926288157701492,0.9555473923683167,0.7706998586654663,0.3026418089866638,1.0517840385437012,0.5995489954948425,0.4630774259567261,0.9930012822151184,0.2948417663574219,0.0,0.0,0.0,0.0,0.0,0.3370000123977661,-0.10067063570022583,0.1848665475845337,0.3371734917163849,-0.2288403958082199,0.4202311038970947,0.3373730182647705,-0.31229421496391296,0.573481559753418,0.3374878466129303,-0.37924855947494507,0.6964331865310669,0.33757996559143066,2.0694521507263186,1.5699721279144288,7.967227683402598e-05,9.894783580675722e-05,8.657935226801783e-05,-1.2368479475844652e-05
1636986704.7724285,5.0,0.0,0.11325360089540482,1.1229208707809448,0.2530179023742676,-0.024993332102894783,0.9201195240020752,0.6880247592926025,0.06991725414991379,0.7772969007492065,0.68165123462677,-0.20820318162441254,0.8829381465911865,0.6645660996437073,-0.3586309850215912,0.8157575130462646,0.4918404221534729,-0.39235827326774597,0.680129885673523,0.23651553690433502,0.15821652114391327,0.9573009014129639,0.711483359336853,0.3160015046596527,1.0578117370605469,0.551311194896698,0.42155855894088745,1.0118108987808228,0.3313620090484619,-0.06573297828435898,0.5783695578575134,0.19114825129508972,0.004071005154401064,0.9272388219833374,0.806216299533844,0.14660051465034485,0.8804301619529724,0.8961504697799683,-0.16690418124198914,0.8595767021179199,0.7555897235870361,-0.3421264886856079,0.7967162132263184,0.5722572207450867,-0.4119093418121338,0.7370283007621765,0.3184082508087158,0.1750461906194687,0.9949010014533997,0.8568429350852966,0.3689398169517517,1.2095770835876465,0.7571781277656555,0.5256116390228271,1.1721429824829102,0.5814183950424194,0.11325360089540482,1.1229208707809448,0.2530179023742676,-0.036829303950071335,0.9027567505836487,0.7252677083015442,0.0622587613761425,0.7536478042602539,0.7186136841773987,-0.19452312588691711,0.8403505682945251,0.6785737872123718,-0.37350261211395264,0.7761422395706177,0.4913102388381958,-0.41349661350250244,0.6153141260147095,0.1885443776845932,0.12086451798677444,0.9651628732681274,0.7719616293907166,0.292992502450943,1.0748103857040405,0.5972294211387634,0.44152581691741943,1.0100809335708618,0.28773072361946106,0.0,0.0,0.0,0.0,0.0,0.3370000123977661,-0.10067063570022583,0.1848665475845337,0.3371734917163849,-0.2288403958082199,0.4202311038970947,0.3373730182647705,-0.31229421496391296,0.573481559753418,0.3374878466129303,-0.37924855947494507,0.6964331865310669,0.33757996559143066,2.0694521507263186,1.5699721279144288,7.967227683402598e-05,9.894783580675722e-05,8.657935226801783e-05,-1.2368479475844652e-05
1636986704.7818599,5.0,0.0,0.11325360089540482,1.1229208707809448,0.2530179023742676,-0.024993332102894783,0.9201195240020752,0.6880247592926025,0.06991725414991379,0.7772969007492065,0.68165123462677,-0.20820318162441254,0.8829381465911865,0.6645660996437073,-0.3586309850215912,0.8157575130462646,0.4918404221534729,-0.39235827326774597,0.680129885673523,0.23651553690433502,0.15821652114391327,0.9573009014129639,0.711483359336853,0.3160015046596527,1.0578117370605469,0.551311194896698,0.42155855894088745,1.0118108987808228,0.3313620090484619,-0.06573297828435898,0.5783695578575134,0.19114825129508972,0.004071005154401064,0.9272388219833374,0.806216299533844,0.14660051465034485,0.8804301619529724,0.8961504697799683,-0.16690418124198914,0.8595767021179199,0.7555897235870361,-0.3421264886856079,0.7967162132263184,0.5722572207450867,-0.4119093418121338,0.7370283007621765,0.3184082508087158,0.1750461906194687,0.9949010014533997,0.8568429350852966,0.3689398169517517,1.2095770835876465,0.7571781277656555,0.5256116390228271,1.1721429824829102,0.5814183950424194,0.11325360089540482,1.1229208707809448,0.2530179023742676,-0.036829303950071335,0.9027567505836487,0.7252677083015442,0.0622587613761425,0.7536478042602539,0.7186136841773987,-0.19452312588691711,0.8403505682945251,0.6785737872123718,-0.37350261211395264,0.7761422395706177,0.4913102388381958,-0.41349661350250244,0.6153141260147095,0.1885443776845932,0.12086451798677444,0.9651628732681274,0.7719616293907166,0.292992502450943,1.0748103857040405,0.5972294211387634,0.44152581691741943,1.0100809335708618,0.28773072361946106,0.0,0.0,0.0,0.0,0.0,0.3370000123977661,-0.10067063570022583,0.1848665475845337,0.3371734917163849,-0.2288403958082199,0.4202311038970947,0.3373730182647705,-0.31229421496391296,0.573481559753418,0.3374878466129303,-0.37924855947494507,0.6964331865310669,0.33757996559143066,2.0694521507263186,1.5699721279144288,7.967227683402598e-05,9.894783580675722e-05,8.657935226801783e-05,-1.2368479475844652e-05
1636986704.8054378,5.0,0.0,0.11325360089540482,1.1229208707809448,0.2530179023742676,-0.024993332102894783,0.9201195240020752,0.6880247592926025,0.06991725414991379,0.7772969007492065,0.68165123462677,-0.20820318162441254,0.8829381465911865,0.6645660996437073,-0.3586309850215912,0.8157575130462646,0.4918404221534729,-0.39235827326774597,0.680129885673523,0.23651553690433502,0.15821652114391327,0.9573009014129639,0.711483359336853,0.3160015046596527,1.0578117370605469,0.551311194896698,0.42155855894088745,1.0118108987808228,0.3313620090484619,-0.03929387032985687,0.6625697612762451,0.20583367347717285,-0.005362201482057571,0.9243685603141785,0.8032191395759583,0.15069879591464996,0.8908367156982422,0.8939989805221558,-0.17296583950519562,0.8657525181770325,0.7577370405197144,-0.34225016832351685,0.7920711636543274,0.5627050995826721,-0.4117746651172638,0.738285481929779,0.31885087490081787,0.16224144399166107,0.9829845428466797,0.8487012982368469,0.38230687379837036,1.2408981323242188,0.7529427409172058,0.5068770051002502,1.1348263025283813,0.5576069951057434,0.11325360089540482,1.1229208707809448,0.2530179023742676,-0.036829303950071335,0.9027567505836487,0.7252677083015442,0.0622587613761425,0.7536478042602539,0.7186136841773987,-0.19767846167087555,0.846502959728241,0.6816185116767883,-0.36590376496315,0.773282527923584,0.48780667781829834,-0.40589776635169983,0.6124544143676758,0.18504084646701813,0.12401986122131348,0.9590105414390564,0.7689169049263,0.2961478531360626,1.0686579942703247,0.5941846966743469,0.4446811378002167,1.003928542137146,0.28468599915504456,0.0,0.0,0.0,0.0,0.0,0.3370000123977661,-0.10067063570022583,0.1848665475845337,0.3371734917163849,-0.2288403958082199,0.4202311038970947,0.3373730182647705,-0.31229421496391296,0.573481559753418,0.3374878466129303,-0.37924855947494507,0.6964331865310669,0.33757996559143066,2.0694521507263186,1.5699721279144288,7.967227683402598e-05,9.894783580675722e-05,8.657935226801783e-05,-1.2368479475844652e-05
1636986704.81486,5.0,0.0,0.11325360089540482,1.1229208707809448,0.2530179023742676,-0.024993332102894783,0.9201195240020752,0.6880247592926025,0.06991725414991379,0.7772969007492065,0.68165123462677,-0.20820318162441254,0.8829381465911865,0.6645660996437073,-0.3586309850215912,0.8157575130462646,0.4918404221534729,-0.39235827326774597,0.680129885673523,0.23651553690433502,0.15821652114391327,0.9573009014129639,0.711483359336853,0.3160015046596527,1.0578117370605469,0.551311194896698,0.42155855894088745,1.0118108987808228,0.3313620090484619,-0.03929387032985687,0.6625697612762451,0.20583367347717285,-0.005362201482057571,0.9243685603141785,0.8032191395759583,0.15069879591464996,0.8908367156982422,0.8939989805221558,-0.17296583950519562,0.8657525181770325,0.7577370405197144,-0.34225016832351685,0.7920711636543274,0.5627050995826721,-0.4117746651172638,0.738285481929779,0.31885087490081787,0.16224144399166107,0.9829845428466797,0.8487012982368469,0.38230687379837036,1.2408981323242188,0.7529427409172058,0.5068770051002502,1.1348263025283813,0.5576069951057434,0.11325360089540482,1.1229208707809448,0.2530179023742676,-0.036829303950071335,0.9027567505836487,0.7252677083015442,0.0622587613761425,0.7536478042602539,0.7186136841773987,-0.19767846167087555,0.846502959728241,0.6816185116767883,-0.36590376496315,0.773282527923584,0.48780667781829834,-0.40589776635169983,0.6124544143676758,0.18504084646701813,0.12401986122131348,0.9590105414390564,0.7689169049263,0.2961478531360626,1.0686579942703247,0.5941846966743469,0.4446811378002167,1.003928542137146,0.28468599915504456,0.0,0.0,0.0,0.0,0.0,0.3370000123977661,-0.10067063570022583,0.1848665475845337,0.3371734917163849,-0.2288403958082199,0.4202311038970947,0.3373730182647705,-0.31229421496391296,0.573481559753418,0.3374878466129303,-0.37924855947494507,0.6964331865310669,0.33757996559143066,2.0694521507263186,1.5699721279144288,7.967227683402598e-05,9.894783580675722e-05,8.657935226801783e-05,-1.2368479475844652e-05
1636986704.8384376,5.0,0.0,0.11910481750965118,1.136431336402893,0.2472221553325653,-0.020651068538427353,0.9208840727806091,0.6829677224159241,0.06735624372959137,0.7814784049987793,0.6836527585983276,-0.19318273663520813,0.8720228672027588,0.6488603353500366,-0.34955501556396484,0.8206422328948975,0.49731501936912537,-0.3929101228713989,0.6664704084396362,0.22900737822055817,0.15188060700893402,0.9697452187538147,0.7170751690864563,0.3088672459125519,1.0606330633163452,0.5623694062232971,0.41875866055488586,1.0195488929748535,0.33325469493865967,-0.03929387032985687,0.6625697612762451,0.20583367347717285,-0.005362201482057571,0.9243685603141785,0.8032191395759583,0.15069879591464996,0.8908367156982422,0.8939989805221558,-0.17296583950519562,0.8657525181770325,0.7577370405197144,-0.34225016832351685,0.7920711636543274,0.5627050995826721,-0.4117746651172638,0.738285481929779,0.31885087490081787,0.16224144399166107,0.9829845428466797,0.8487012982368469,0.38230687379837036,1.2408981323242188,0.7529427409172058,0.5068770051002502,1.1348263025283813,0.5576069951057434,0.11910481750965118,1.136431336402893,0.2472221553325653,-0.030708201229572296,0.9053727984428406,0.7143248915672302,0.06492824107408524,0.7538824677467346,0.7150693535804749,-0.1915573626756668,0.8491190075874329,0.6706756949424744,-0.3597826659679413,0.7758985757827759,0.47686389088630676,-0.40767285227775574,0.6055999398231506,0.1804903745651245,0.13014096021652222,0.9616265892982483,0.7579740881919861,0.3070510923862457,1.064049243927002,0.5836343169212341,0.4561930298805237,1.0082907676696777,0.2726854979991913,0.0,0.0,0.0,0.0,0.0,0.3370000123977661,-0.10067063570022583,0.1848665475845337,0.3371734917163849,-0.2288403958082199,0.4202311038970947,0.3373730182647705,-0.31229421496391296,0.573481559753418,0.3374878466129303,-0.37924855947494507,0.6964331865310669,0.33757996559143066,2.0694521507263186,1.5699721279144288,7.967227683402598e-05,9.894783580675722e-05,8.657935226801783e-05,-1.2368479475844652e-05
1636986704.8478584,5.0,0.0,0.11910481750965118,1.136431336402893,0.2472221553325653,-0.020651068538427353,0.9208840727806091,0.6829677224159241,0.06735624372959137,0.7814784049987793,0.6836527585983276,-0.19318273663520813,0.8720228672027588,0.6488603353500366,-0.34955501556396484,0.8206422328948975,0.49731501936912537,-0.3929101228713989,0.6664704084396362,0.22900737822055817,0.15188060700893402,0.9697452187538147,0.7170751690864563,0.3088672459125519,1.0606330633163452,0.5623694062232971,0.41875866055488586,1.0195488929748535,0.33325469493865967,-0.03929387032985687,0.6625697612762451,0.20583367347717285,-0.005362201482057571,0.9243685603141785,0.8032191395759583,0.15069879591464996,0.8908367156982422,0.8939989805221558,-0.17296583950519562,0.8657525181770325,0.7577370405197144,-0.34225016832351685,0.7920711636543274,0.5627050995826721,-0.4117746651172638,0.738285481929779,0.31885087490081787,0.16224144399166107,0.9829845428466797,0.8487012982368469,0.38230687379837036,1.2408981323242188,0.7529427409172058,0.5068770051002502,1.1348263025283813,0.5576069951057434,0.11910481750965118,1.136431336402893,0.2472221553325653,-0.030708201229572296,0.9053727984428406,0.7143248915672302,0.06492824107408524,0.7538824677467346,0.7150693535804749,-0.1915573626756668,0.8491190075874329,0.6706756949424744,-0.3597826659679413,0.7758985757827759,0.47686389088630676,-0.40767285227775574,0.6055999398231506,0.1804903745651245,0.13014096021652222,0.9616265892982483,0.7579740881919861,0.3070510923862457,1.064049243927002,0.5836343169212341,0.4561930298805237,1.0082907676696777,0.2726854979991913,0.0,0.0,0.0,0.0,0.0,0.3370000123977661,-0.10067063570022583,0.1848665475845337,0.3371734917163849,-0.2288403958082199,0.4202311038970947,0.3373730182647705,-0.31229421496391296,0.573481559753418,0.3374878466129303,-0.37924855947494507,0.6964331865310669,0.33757996559143066,2.0694521507263186,1.5699721279144288,7.967227683402598e-05,9.894783580675722e-05,8.657935226801783e-05,-1.2368479475844652e-05
1636986704.8714204,5.0,0.0,0.11910481750965118,1.136431336402893,0.2472221553325653,-0.020651068538427353,0.9208840727806091,0.6829677224159241,0.06735624372959137,0.7814784049987793,0.6836527585983276,-0.19318273663520813,0.8720228672027588,0.6488603353500366,-0.34955501556396484,0.8206422328948975,0.49731501936912537,-0.3929101228713989,0.6664704084396362,0.22900737822055817,0.15188060700893402,0.9697452187538147,0.7170751690864563,0.3088672459125519,1.0606330633163452,0.5623694062232971,0.41875866055488586,1.0195488929748535,0.33325469493865967,-0.1025676280260086,0.4350402355194092,0.1662505865097046,-0.002620147308334708,0.9352717399597168,0.809270441532135,0.15199090540409088,0.8942246437072754,0.8960789442062378,-0.1691046804189682,0.8831732273101807,0.7673615217208862,-0.34225016832351685,0.7920711636543274,0.5627050995826721,-0.4129868447780609,0.7269703149795532,0.31486696004867554,0.1638643890619278,0.9873701930046082,0.8511793613433838,0.3673001229763031,1.205445408821106,0.7365669012069702,0.5154353380203247,1.1341747045516968,0.5496776103973389,0.11910481750965118,1.136431336402893,0.2472221553325653,-0.030708201229572296,0.9053727984428406,0.7143248915672302,0.06492824107408524,0.7538824677467346,0.7150693535804749,-0.19393984973430634,0.8542922139167786,0.6732348203659058,-0.35714611411094666,0.7684198021888733,0.48032644391059875,-0.4050363004207611,0.5981211066246033,0.1839529424905777,0.13252344727516174,0.9564533829689026,0.7554149627685547,0.30943360924720764,1.0588760375976562,0.5810751914978027,0.4585755169391632,1.003117561340332,0.2701264023780823,0.0,0.0,0.0,0.0,0.0,0.3370000123977661,-0.10067063570022583,0.1848665475845337,0.3371734917163849,-0.2288403958082199,0.4202311038970947,0.3373730182647705,-0.31229421496391296,0.573481559753418,0.3374878466129303,-0.37924855947494507,0.6964331865310669,0.33757996559143066,2.0694521507263186,1.5699721279144288,7.967227683402598e-05,9.894783580675722e-05,8.657935226801783e-05,-1.2368479475844652e-05
1636986704.8808599,5.0,0.0,0.11910481750965118,1.136431336402893,0.2472221553325653,-0.020651068538427353,0.9208840727806091,0.6829677224159241,0.06735624372959137,0.7814784049987793,0.6836527585983276,-0.19318273663520813,0.8720228672027588,0.6488603353500366,-0.34955501556396484,0.8206422328948975,0.49731501936912537,-0.3929101228713989,0.6664704084396362,0.22900737822055817,0.15188060700893402,0.9697452187538147,0.7170751690864563,0.3088672459125519,1.0606330633163452,0.5623694062232971,0.41875866055488586,1.0195488929748535,0.33325469493865967,-0.1025676280260086,0.4350402355194092,0.1662505865097046,-0.002620147308334708,0.9352717399597168,0.809270441532135,0.15199090540409088,0.8942246437072754,0.8960789442062378,-0.1691046804189682,0.8831732273101807,0.7673615217208862,-0.34225016832351685,0.7920711636543274,0.5627050995826721,-0.4129868447780609,0.7269703149795532,0.31486696004867554,0.1638643890619278,0.9873701930046082,0.8511793613433838,0.3673001229763031,1.205445408821106,0.7365669012069702,0.5154353380203247,1.1341747045516968,0.5496776103973389,0.11910481750965118,1.136431336402893,0.2472221553325653,-0.030708201229572296,0.9053727984428406,0.7143248915672302,0.06492824107408524,0.7538824677467346,0.7150693535804749,-0.19393984973430634,0.8542922139167786,0.6732348203659058,-0.35714611411094666,0.7684198021888733,0.48032644391059875,-0.4050363004207611,0.5981211066246033,0.1839529424905777,0.13252344727516174,0.9564533829689026,0.7554149627685547,0.30943360924720764,1.0588760375976562,0.5810751914978027,0.4585755169391632,1.003117561340332,0.2701264023780823,0.0,0.0,0.0,0.0,0.0,0.3370000123977661,-0.10067063570022583,0.1848665475845337,0.3371734917163849,-0.2288403958082199,0.4202311038970947,0.3373730182647705,-0.31229421496391296,0.573481559753418,0.3374878466129303,-0.37924855947494507,0.6964331865310669,0.33757996559143066,2.0694521507263186,1.5699721279144288,7.967227683402598e-05,9.894783580675722e-05,8.657935226801783e-05,-1.2368479475844652e-05
1636986704.9044206,5.0,0.0,0.09750927239656448,1.1408754587173462,0.25380420684814453,-0.02601785957813263,0.9168449640274048,0.6851370930671692,0.06772203743457794,0.7808810472488403,0.6833668351173401,-0.19153140485286713,0.8600371479988098,0.654443085193634,-0.34881529211997986,0.8197537064552307,0.4969918131828308,-0.41007986664772034,0.6910153031349182,0.2494962066411972,0.13949568569660187,0.9736528396606445,0.7158311009407043,0.2953917682170868,1.0693867206573486,0.5618815422058105,0.4022405743598938,1.0236715078353882,0.3397694230079651,-0.1025676280260086,0.4350402355194092,0.1662505865097046,-0.002620147308334708,0.9352717399597168,0.809270441532135,0.15199090540409088,0.8942246437072754,0.8960789442062378,-0.1691046804189682,0.8831732273101807,0.7673615217208862,-0.34225016832351685,0.7920711636543274,0.5627050995826721,-0.4129868447780609,0.7269703149795532,0.31486696004867554,0.1638643890619278,0.9873701930046082,0.8511793613433838,0.3673001229763031,1.205445408821106,0.7365669012069702,0.5154353380203247,1.1341747045516968,0.5496776103973389,0.09750927239656448,1.1408754587173462,0.25380420684814453,-0.03605259582400322,0.89864581823349,0.7201764583587646,0.06563245505094528,0.7511579990386963,0.7182561755180359,-0.19928425550460815,0.8475652933120728,0.6790863871574402,-0.36249053478240967,0.7616928219795227,0.4861779808998108,-0.43652427196502686,0.606121838092804,0.1870976686477661,0.12717905640602112,0.949726402759552,0.7612665295600891,0.3023528456687927,1.0572984218597412,0.5882799625396729,0.45125612616539,0.9935902953147888,0.2787471115589142,0.0,0.0,0.0,0.0,0.0,0.3370000123977661,-0.10067063570022583,0.1848665475845337,0.3371734917163849,-0.2288403958082199,0.4202311038970947,0.3373730182647705,-0.31229421496391296,0.573481559753418,0.3374878466129303,-0.37924855947494507,0.6964331865310669,0.33757996559143066,2.0694521507263186,1.5699721279144288,7.967227683402598e-05,9.894783580675722e-05,8.657935226801783e-05,-1.2368479475844652e-05
1636986704.9138653,5.0,0.0,0.09750927239656448,1.1408754587173462,0.25380420684814453,-0.02601785957813263,0.9168449640274048,0.6851370930671692,0.06772203743457794,0.7808810472488403,0.6833668351173401,-0.19153140485286713,0.8600371479988098,0.654443085193634,-0.34881529211997986,0.8197537064552307,0.4969918131828308,-0.41007986664772034,0.6910153031349182,0.2494962066411972,0.13949568569660187,0.9736528396606445,0.7158311009407043,0.2953917682170868,1.0693867206573486,0.5618815422058105,0.4022405743598938,1.0236715078353882,0.3397694230079651,-0.1025676280260086,0.4350402355194092,0.1662505865097046,-0.002620147308334708,0.9352717399597168,0.809270441532135,0.15199090540409088,0.8942246437072754,0.8960789442062378,-0.1691046804189682,0.8831732273101807,0.7673615217208862,-0.34225016832351685,0.7920711636543274,0.5627050995826721,-0.4129868447780609,0.7269703149795532,0.31486696004867554,0.1638643890619278,0.9873701930046082,0.8511793613433838,0.3673001229763031,1.205445408821106,0.7365669012069702,0.5154353380203247,1.1341747045516968,0.5496776103973389,0.09750927239656448,1.1408754587173462,0.25380420684814453,-0.03605259582400322,0.89864581823349,0.7201764583587646,0.06563245505094528,0.7511579990386963,0.7182561755180359,-0.19928425550460815,0.8475652933120728,0.6790863871574402,-0.36249053478240967,0.7616928219795227,0.4861779808998108,-0.43652427196502686,0.606121838092804,0.1870976686477661,0.12717905640602112,0.949726402759552,0.7612665295600891,0.3023528456687927,1.0572984218597412,0.5882799625396729,0.45125612616539,0.9935902953147888,0.2787471115589142,0.0,0.0,0.0,0.0,0.0,0.3370000123977661,-0.10067063570022583,0.1848665475845337,0.3371734917163849,-0.2288403958082199,0.4202311038970947,0.3373730182647705,-0.31229421496391296,0.573481559753418,0.3374878466129303,-0.37924855947494507,0.6964331865310669,0.33757996559143066,2.0694521507263186,1.5699721279144288,7.967227683402598e-05,9.894783580675722e-05,8.657935226801783e-05,-1.2368479475844652e-05
1636986704.937416,5.0,0.0,0.09750927239656448,1.1408754587173462,0.25380420684814453,-0.02601785957813263,0.9168449640274048,0.6851370930671692,0.06772203743457794,0.7808810472488403,0.6833668351173401,-0.19153140485286713,0.8600371479988098,0.654443085193634,-0.34881529211997986,0.8197537064552307,0.4969918131828308,-0.41007986664772034,0.6910153031349182,0.2494962066411972,0.13949568569660187,0.9736528396606445,0.7158311009407043,0.2953917682170868,1.0693867206573486,0.5618815422058105,0.4022405743598938,1.0236715078353882,0.3397694230079651,-0.07353557646274567,0.526204526424408,0.1815815269947052,0.0011594094103202224,0.947663426399231,0.8162041306495667,0.15166789293289185,0.8933777213096619,0.8955589532852173,-0.16669686138629913,0.8940367102622986,0.7733634114265442,-0.3409542143344879,0.801273763179779,0.567038893699646,-0.4129868447780609,0.7269703149795532,0.31486696004867554,0.16901567578315735,1.001290202140808,0.8590448498725891,0.3624281585216522,1.194063663482666,0.7405893206596375,0.5277615785598755,1.158676266670227,0.5593068599700928,0.09750927239656448,1.1408754587173462,0.25380420684814453,-0.03605259582400322,0.89864581823349,0.7201764583587646,0.06563245505094528,0.7511579990386963,0.7182561755180359,-0.19887034595012665,0.8466288447380066,0.6786216497421265,-0.3617316782474518,0.7599323391914368,0.48579028248786926,-0.43576541543006897,0.6043614149093628,0.18670998513698578,0.1267651468515396,0.9506628513336182,0.7617312073707581,0.3019389510154724,1.0582349300384521,0.5887446403503418,0.4508422017097473,0.994526743888855,0.2792118489742279,0.0,0.0,0.0,0.0,0.0,0.3370000123977661,-0.10067063570022583,0.1848665475845337,0.3371734917163849,-0.2288403958082199,0.4202311038970947,0.3373730182647705,-0.31229421496391296,0.573481559753418,0.3374878466129303,-0.37924855947494507,0.6964331865310669,0.33757996559143066,2.0694521507263186,1.5699721279144288,7.967227683402598e-05,9.894783580675722e-05,8.657935226801783e-05,-1.2368479475844652e-05
1636986704.9468915,5.0,0.0,0.09750927239656448,1.1408754587173462,0.25380420684814453,-0.02601785957813263,0.9168449640274048,0.6851370930671692,0.06772203743457794,0.7808810472488403,0.6833668351173401,-0.19153140485286713,0.8600371479988098,0.654443085193634,-0.34881529211997986,0.8197537064552307,0.4969918131828308,-0.41007986664772034,0.6910153031349182,0.2494962066411972,0.13949568569660187,0.9736528396606445,0.7158311009407043,0.2953917682170868,1.0693867206573486,0.5618815422058105,0.4022405743598938,1.0236715078353882,0.3397694230079651,-0.07353557646274567,0.526204526424408,0.1815815269947052,0.0011594094103202224,0.947663426399231,0.8162041306495667,0.15166789293289185,0.8933777213096619,0.8955589532852173,-0.16669686138629913,0.8940367102622986,0.7733634114265442,-0.3409542143344879,0.801273763179779,0.567038893699646,-0.4129868447780609,0.7269703149795532,0.31486696004867554,0.16901567578315735,1.001290202140808,0.8590448498725891,0.3624281585216522,1.194063663482666,0.7405893206596375,0.5277615785598755,1.158676266670227,0.5593068599700928,0.09750927239656448,1.1408754587173462,0.25380420684814453,-0.03605259582400322,0.89864581823349,0.7201764583587646,0.06563245505094528,0.7511579990386963,0.7182561755180359,-0.19887034595012665,0.8466288447380066,0.6786216497421265,-0.3617316782474518,0.7599323391914368,0.48579028248786926,-0.43576541543006897,0.6043614149093628,0.18670998513698578,0.1267651468515396,0.9506628513336182,0.7617312073707581,0.3019389510154724,1.0582349300384521,0.5887446403503418,0.4508422017097473,0.994526743888855,0.2792118489742279,0.0,0.0,0.0,0.0,0.0,0.3370000123977661,-0.10067063570022583,0.1848665475845337,0.3371734917163849,-0.2288403958082199,0.4202311038970947,0.3373730182647705,-0.31229421496391296,0.573481559753418,0.3374878466129303,-0.37924855947494507,0.6964331865310669,0.33757996559143066,2.0694521507263186,1.5699721279144288,7.967227683402598e-05,9.894783580675722e-05,8.657935226801783e-05,-1.2368479475844652e-05
1636986704.9704375,5.0,0.0,0.11583667993545532,1.1307728290557861,0.24358229339122772,-0.0299221221357584,0.9221441745758057,0.6871826648712158,0.07561798393726349,0.7848606705665588,0.6879318952560425,-0.19536025822162628,0.8750299215316772,0.6501717567443848,-0.34881529211997986,0.8197537064552307,0.4969918131828308,-0.3926715850830078,0.680466890335083,0.23659515380859375,0.13551601767539978,0.9692583680152893,0.7241936326026917,0.30837664008140564,1.061833381652832,0.5627927780151367,0.40927791595458984,1.0046205520629883,0.3350569009780884,-0.07353557646274567,0.526204526424408,0.1815815269947052,0.0011594094103202224,0.947663426399231,0.8162041306495667,0.15166789293289185,0.8933777213096619,0.8955589532852173,-0.16669686138629913,0.8940367102622986,0.7733634114265442,-0.3409542143344879,0.801273763179779,0.567038893699646,-0.4129868447780609,0.7269703149795532,0.31486696004867554,0.16901567578315735,1.001290202140808,0.8590448498725891,0.3624281585216522,1.194063663482666,0.7405893206596375,0.5277615785598755,1.158676266670227,0.5593068599700928,0.11583667993545532,1.1307728290557861,0.24358229339122772,-0.03870346024632454,0.9095751643180847,0.7139076590538025,0.07048705220222473,0.767543375492096,0.7146827578544617,-0.20152120292186737,0.8575581312179565,0.6723528504371643,-0.3643825352191925,0.7708616852760315,0.4795215427875519,-0.41508549451828003,0.6098299622535706,0.17847280204296112,0.12411428987979889,0.9615921974182129,0.7554624676704407,0.30697765946388245,1.0595240592956543,0.5847220420837402,0.4448997676372528,0.981319785118103,0.2734294831752777,0.0,0.0,0.0,0.0,0.0,0.3370000123977661,-0.10067063570022583,0.1848665475845337,0.3371734917163849,-0.2288403958082199,0.4202311038970947,0.3373730182647705,-0.31229421496391296,0.573481559753418,0.3374878466129303,-0.37924855947494507,0.6964331865310669,0.33757996559143066,2.0694521507263186,1.5699721279144288,7.967227683402598e-05,9.894783580675722e-05,8.657935226801783e-05,-1.2368479475844652e-05
1636986704.9798775,5.0,0.0,0.11583667993545532,1.1307728290557861,0.24358229339122772,-0.0299221221357584,0.9221441745758057,0.6871826648712158,0.07561798393726349,0.7848606705665588,0.6879318952560425,-0.19536025822162628,0.8750299215316772,0.6501717567443848,-0.34881529211997986,0.8197537064552307,0.4969918131828308,-0.3926715850830078,0.680466890335083,0.23659515380859375,0.13551601767539978,0.9692583680152893,0.7241936326026917,0.30837664008140564,1.061833381652832,0.5627927780151367,0.40927791595458984,1.0046205520629883,0.3350569009780884,-0.07353557646274567,0.526204526424408,0.1815815269947052,0.0011594094103202224,0.947663426399231,0.8162041306495667,0.15166789293289185,0.8933777213096619,0.8955589532852173,-0.16669686138629913,0.8940367102622986,0.7733634114265442,-0.3409542143344879,0.801273763179779,0.567038893699646,-0.4129868447780609,0.7269703149795532,0.31486696004867554,0.16901567578315735,1.001290202140808,0.8590448498725891,0.3624281585216522,1.194063663482666,0.7405893206596375,0.5277615785598755,1.158676266670227,0.5593068599700928,0.11583667993545532,1.1307728290557861,0.24358229339122772,-0.03870346024632454,0.9095751643180847,0.7139076590538025,0.07048705220222473,0.767543375492096,0.7146827578544617,-0.20152120292186737,0.8575581312179565,0.6723528504371643,-0.3643825352191925,0.7708616852760315,0.4795215427875519,-0.41508549451828003,0.6098299622535706,0.17847280204296112,0.12411428987979889,0.9615921974182129,0.7554624676704407,0.30697765946388245,1.0595240592956543,0.5847220420837402,0.4448997676372528,0.981319785118103,0.2734294831752777,0.0,0.0,0.0,0.0,0.0,0.3370000123977661,-0.10067063570022583,0.1848665475845337,0.3371734917163849,-0.2288403958082199,0.4202311038970947,0.3373730182647705,-0.31229421496391296,0.573481559753418,0.3374878466129303,-0.37924855947494507,0.6964331865310669,0.33757996559143066,2.0694521507263186,1.5699721279144288,7.967227683402598e-05,9.894783580675722e-05,8.657935226801783e-05,-1.2368479475844652e-05
1636986705.003427,5.0,0.0,0.11583667993545532,1.1307728290557861,0.24358229339122772,-0.0299221221357584,0.9221441745758057,0.6871826648712158,0.07561798393726349,0.7848606705665588,0.6879318952560425,-0.19536025822162628,0.8750299215316772,0.6501717567443848,-0.34881529211997986,0.8197537064552307,0.4969918131828308,-0.3926715850830078,0.680466890335083,0.23659515380859375,0.13551601767539978,0.9692583680152893,0.7241936326026917,0.30837664008140564,1.061833381652832,0.5627927780151367,0.40927791595458984,1.0046205520629883,0.3350569009780884,-0.036041755229234695,0.6778916120529175,0.20861972868442535,-0.003297582734376192,0.9339710474014282,0.8085188865661621,0.15240851044654846,0.8956611752510071,0.9055671691894531,-0.16851899027824402,0.8858156800270081,0.7688214182853699,-0.3413529694080353,0.7984421849250793,0.565705418586731,-0.41251543164253235,0.7313706874847412,0.31641626358032227,0.1619238257408142,0.9821263551712036,0.8482162952423096,0.36196982860565186,1.1928528547286987,0.7307502627372742,0.5174407362937927,1.1381609439849854,0.5512442588806152,0.11583667993545532,1.1307728290557861,0.24358229339122772,-0.03870346024632454,0.9095751643180847,0.7139076590538025,0.07048705220222473,0.767543375492096,0.7146827578544617,-0.2040957808494568,0.8624739646911621,0.6769070029258728,-0.3684513568878174,0.779386579990387,0.48375487327575684,-0.4191543161869049,0.618354856967926,0.18270613253116608,0.1266888529062271,0.9566763639450073,0.750908374786377,0.30955222249031067,1.0546082258224487,0.5801679491996765,0.4474743604660034,0.9764039516448975,0.268875390291214,0.0,0.0,0.0,0.0,0.0,0.3370000123977661,-0.10067063570022583,0.1848665475845337,0.3371734917163849,-0.2288403958082199,0.4202311038970947,0.3373730182647705,-0.31229421496391296,0.573481559753418,0.3374878466129303,-0.37924855947494507,0.6964331865310669,0.33757996559143066,2.0694521507263186,1.5699721279144288,7.967227683402598e-05,9.894783580675722e-05,8.657935226801783e-05,-1.2368479475844652e-05
1636986705.0128798,5.0,0.0,0.11583667993545532,1.1307728290557861,0.24358229339122772,-0.0299221221357584,0.9221441745758057,0.6871826648712158,0.07561798393726349,0.7848606705665588,0.6879318952560425,-0.19536025822162628,0.8750299215316772,0.6501717567443848,-0.34881529211997986,0.8197537064552307,0.4969918131828308,-0.3926715850830078,0.680466890335083,0.23659515380859375,0.13551601767539978,0.9692583680152893,0.7241936326026917,0.30837664008140564,1.061833381652832,0.5627927780151367,0.40927791595458984,1.0046205520629883,0.3350569009780884,-0.036041755229234695,0.6778916120529175,0.20861972868442535,-0.003297582734376192,0.9339710474014282,0.8085188865661621,0.15240851044654846,0.8956611752510071,0.9055671691894531,-0.16851899027824402,0.8858156800270081,0.7688214182853699,-0.3413529694080353,0.7984421849250793,0.565705418586731,-0.41251543164253235,0.7313706874847412,0.31641626358032227,0.1619238257408142,0.9821263551712036,0.8482162952423096,0.36196982860565186,1.1928528547286987,0.7307502627372742,0.5174407362937927,1.1381609439849854,0.5512442588806152,0.11583667993545532,1.1307728290557861,0.24358229339122772,-0.03870346024632454,0.9095751643180847,0.7139076590538025,0.07048705220222473,0.767543375492096,0.7146827578544617,-0.2040957808494568,0.8624739646911621,0.6769070029258728,-0.3684513568878174,0.779386579990387,0.48375487327575684,-0.4191543161869049,0.618354856967926,0.18270613253116608,0.1266888529062271,0.9566763639450073,0.750908374786377,0.30955222249031067,1.0546082258224487,0.5801679491996765,0.4474743604660034,0.9764039516448975,0.268875390291214,0.0,0.0,0.0,0.0,0.0,0.3370000123977661,-0.10067063570022583,0.1848665475845337,0.3371734917163849,-0.2288403958082199,0.4202311038970947,0.3373730182647705,-0.31229421496391296,0.573481559753418,0.3374878466129303,-0.37924855947494507,0.6964331865310669,0.33757996559143066,2.0694521507263186,1.5699721279144288,7.967227683402598e-05,9.894783580675722e-05,8.657935226801783e-05,-1.2368479475844652e-05
1636986705.0364308,5.0,0.0,0.12197698652744293,1.1173447370529175,0.24094519019126892,-0.017857136204838753,0.9103798866271973,0.6837210059165955,0.07380069047212601,0.7878567576408386,0.6893705129623413,-0.1937178522348404,0.8630405068397522,0.6557707190513611,-0.36554837226867676,0.8239927291870117,0.49481895565986633,-0.39204496145248413,0.6797928810119629,0.23643596470355988,0.158003568649292,0.9577192068099976,0.7116712927818298,0.30752936005592346,1.0639060735702515,0.5635240077972412,0.4121582806110382,1.0122582912445068,0.3274622857570648,-0.036041755229234695,0.6778916120529175,0.20861972868442535,-0.003297582734376192,0.9339710474014282,0.8085188865661621,0.15240851044654846,0.8956611752510071,0.9055671691894531,-0.16851899027824402,0.8858156800270081,0.7688214182853699,-0.3413529694080353,0.7984421849250793,0.565705418586731,-0.41251543164253235,0.7313706874847412,0.31641626358032227,0.1619238257408142,0.9821263551712036,0.8482162952423096,0.36196982860565186,1.1928528547286987,0.7307502627372742,0.5174407362937927,1.1381609439849854,0.5512442588806152,0.12197698652744293,1.1173447370529175,0.24094519019126892,-0.027172178030014038,0.896592915058136,0.7132164835929871,0.08007141947746277,0.7532355785369873,0.7198266983032227,-0.19506396353244781,0.8513987064361572,0.686532735824585,-0.3594195544719696,0.7683113217353821,0.493380606174469,-0.3902038335800171,0.6007768511772156,0.19318583607673645,0.14071960747241974,0.9417871236801147,0.7399002909660339,0.31111833453178406,1.0627970695495605,0.5710724592208862,0.4499261975288391,0.9942775964736938,0.25789687037467957,0.0,0.0,0.0,0.0,0.0,0.3370000123977661,-0.10067063570022583,0.1848665475845337,0.3371734917163849,-0.2288403958082199,0.4202311038970947,0.3373730182647705,-0.31229421496391296,0.573481559753418,0.3374878466129303,-0.37924855947494507,0.6964331865310669,0.33757996559143066,2.0694521507263186,1.5699721279144288,7.967227683402598e-05,9.894783580675722e-05,8.657935226801783e-05,-1.2368479475844652e-05
1636986705.0458722,5.0,0.0,0.12197698652744293,1.1173447370529175,0.24094519019126892,-0.017857136204838753,0.9103798866271973,0.6837210059165955,0.07380069047212601,0.7878567576408386,0.6893705129623413,-0.1937178522348404,0.8630405068397522,0.6557707190513611,-0.36554837226867676,0.8239927291870117,0.49481895565986633,-0.39204496145248413,0.6797928810119629,0.23643596470355988,0.158003568649292,0.9577192068099976,0.7116712927818298,0.30752936005592346,1.0639060735702515,0.5635240077972412,0.4121582806110382,1.0122582912445068,0.3274622857570648,-0.036041755229234695,0.6778916120529175,0.20861972868442535,-0.003297582734376192,0.9339710474014282,0.8085188865661621,0.15240851044654846,0.8956611752510071,0.9055671691894531,-0.16851899027824402,0.8858156800270081,0.7688214182853699,-0.3413529694080353,0.7984421849250793,0.565705418586731,-0.41251543164253235,0.7313706874847412,0.31641626358032227,0.1619238257408142,0.9821263551712036,0.8482162952423096,0.36196982860565186,1.1928528547286987,0.7307502627372742,0.5174407362937927,1.1381609439849854,0.5512442588806152,0.12197698652744293,1.1173447370529175,0.24094519019126892,-0.027172178030014038,0.896592915058136,0.7132164835929871,0.08007141947746277,0.7532355785369873,0.7198266983032227,-0.19506396353244781,0.8513987064361572,0.686532735824585,-0.3594195544719696,0.7683113217353821,0.493380606174469,-0.3902038335800171,0.6007768511772156,0.19318583607673645,0.14071960747241974,0.9417871236801147,0.7399002909660339,0.31111833453178406,1.0627970695495605,0.5710724592208862,0.4499261975288391,0.9942775964736938,0.25789687037467957,0.0,0.0,0.0,0.0,0.0,0.3370000123977661,-0.10067063570022583,0.1848665475845337,0.3371734917163849,-0.2288403958082199,0.4202311038970947,0.3373730182647705,-0.31229421496391296,0.573481559753418,0.3374878466129303,-0.37924855947494507,0.6964331865310669,0.33757996559143066,2.0694521507263186,1.5699721279144288,7.967227683402598e-05,9.894783580675722e-05,8.657935226801783e-05,-1.2368479475844652e-05
1636986705.0694149,5.0,0.0,0.12197698652744293,1.1173447370529175,0.24094519019126892,-0.017857136204838753,0.9103798866271973,0.6837210059165955,0.07380069047212601,0.7878567576408386,0.6893705129623413,-0.1937178522348404,0.8630405068397522,0.6557707190513611,-0.36554837226867676,0.8239927291870117,0.49481895565986633,-0.39204496145248413,0.6797928810119629,0.23643596470355988,0.158003568649292,0.9577192068099976,0.7116712927818298,0.30752936005592346,1.0639060735702515,0.5635240077972412,0.4121582806110382,1.0122582912445068,0.3274622857570648,-0.04329638555645943,0.6405296921730042,0.19664454460144043,0.006009538192301989,0.9532302021980286,0.8113784193992615,0.14660051465034485,0.8804301619529724,0.8961504697799683,-0.1547255516052246,0.9117330312728882,0.7762209177017212,-0.3413529694080353,0.7984421849250793,0.565705418586731,-0.4128090739250183,0.723540186882019,0.30702707171440125,0.1667446345090866,0.994727373123169,0.8465359210968018,0.367630273103714,1.206354022026062,0.7463160157203674,0.49925968050956726,1.1195642948150635,0.5515565276145935,0.12197698652744293,1.1173447370529175,0.24094519019126892,-0.027172178030014038,0.896592915058136,0.7132164835929871,0.08007141947746277,0.7532355785369873,0.7198266983032227,-0.19506396353244781,0.8513987064361572,0.686532735824585,-0.35928875207901,0.7517071962356567,0.5012874007225037,-0.3900730311870575,0.584172785282135,0.20109261572360992,0.14071960747241974,0.9417871236801147,0.7399002909660339,0.31111833453178406,1.0627970695495605,0.5710724592208862,0.4499261975288391,0.9942775964736938,0.25789687037467957,0.0,0.0,0.0,0.0,0.0,0.3370000123977661,-0.10067063570022583,0.1848665475845337,0.3371734917163849,-0.2288403958082199,0.4202311038970947,0.3373730182647705,-0.31229421496391296,0.573481559753418,0.3374878466129303,-0.37924855947494507,0.6964331865310669,0.33757996559143066,2.0694521507263186,1.5699771869659425,7.967227683402598e-05,9.894783580675722e-05,8.657935226801783e-05,-1.2368479475844652e-05
1636986705.0788722,5.0,0.0,0.11691472679376602,1.1328272819519043,0.25181466341018677,-0.017568368464708328,0.9160991311073303,0.6808574795722961,0.07361900061368942,0.7881563305854797,0.6895143985748291,-0.18882755935192108,0.8660085797309875,0.6462374329566956,-0.36041614413261414,0.8178827166557312,0.49260908365249634,-0.38724106550216675,0.6604259014129639,0.2275952249765396,0.15369082987308502,0.9661897420883179,0.715477466583252,0.3187935948371887,1.050931453704834,0.5489182472229004,0.4194710850715637,0.9923059344291687,0.32262250781059265,-0.04329638555645943,0.6405296921730042,0.19664454460144043,0.006009538192301989,0.9532302021980286,0.8113784193992615,0.14660051465034485,0.8804301619529724,0.8961504697799683,-0.1547255516052246,0.9117330312728882,0.7762209177017212,-0.3413529694080353,0.7984421849250793,0.565705418586731,-0.4128090739250183,0.723540186882019,0.30702707171440125,0.1667446345090866,0.994727373123169,0.8465359210968018,0.367630273103714,1.206354022026062,0.7463160157203674,0.49925968050956726,1.1195642948150635,0.5515565276145935,0.11691472679376602,1.1328272819519043,0.25181466341018677,-0.0313265435397625,0.9076605439186096,0.7222840785980225,0.07490906864404678,0.7636030316352844,0.7298755049705505,-0.1986120641231537,0.8614876866340637,0.6935470700263977,-0.3628368377685547,0.7617961764335632,0.5083017349243164,-0.39338916540145874,0.5918237566947937,0.20945680141448975,0.1359589695930481,0.9538334012031555,0.7510210275650024,0.309439480304718,1.0660903453826904,0.5793095231056213,0.44823163747787476,0.9939966201782227,0.26693040132522583,0.0,0.0,0.0,0.0,0.0,0.3370000123977661,-0.10067063570022583,0.1848665475845337,0.3371734917163849,-0.2288403958082199,0.4202311038970947,0.3373730182647705,-0.31229421496391296,0.573481559753418,0.3374878466129303,-0.37924855947494507,0.6964331865310669,0.33757996559143066,2.0694521507263186,1.5699771869659425,7.967227683402598e-05,9.894783580675722e-05,8.657935226801783e-05,-1.2368479475844652e-05
1636986705.102417,5.0,0.0,0.11691472679376602,1.1328272819519043,0.25181466341018677,-0.017568368464708328,0.9160991311073303,0.6808574795722961,0.07361900061368942,0.7881563305854797,0.6895143985748291,-0.18882755935192108,0.8660085797309875,0.6462374329566956,-0.36041614413261414,0.8178827166557312,0.49260908365249634,-0.38724106550216675,0.6604259014129639,0.2275952249765396,0.15369082987308502,0.9661897420883179,0.715477466583252,0.3187935948371887,1.050931453704834,0.5489182472229004,0.4194710850715637,0.9923059344291687,0.32262250781059265,-0.04329638555645943,0.6405296921730042,0.19664454460144043,0.006009538192301989,0.9532302021980286,0.8113784193992615,0.14660051465034485,0.8804301619529724,0.8961504697799683,-0.1547255516052246,0.9117330312728882,0.7762209177017212,-0.3413529694080353,0.7984421849250793,0.565705418586731,-0.4128090739250183,0.723540186882019,0.30702707171440125,0.1667446345090866,0.994727373123169,0.8465359210968018,0.367630273103714,1.206354022026062,0.7463160157203674,0.49925968050956726,1.1195642948150635,0.5515565276145935,0.11691472679376602,1.1328272819519043,0.25181466341018677,-0.02918081544339657,0.8973849415779114,0.7179047465324402,0.07464160770177841,0.7517142295837402,0.7277612090110779,-0.19492068886756897,0.8489086627960205,0.6844004988670349,-0.35914549231529236,0.74921715259552,0.4991551339626312,-0.3890678584575653,0.5735788941383362,0.20354020595550537,0.13655905425548553,0.9458612203598022,0.7514090538024902,0.3144427537918091,1.0371628999710083,0.5719561576843262,0.45262640714645386,0.9566972255706787,0.2613566815853119,0.0,0.0,0.0,0.0,0.0,0.3370000123977661,-0.10067064315080643,0.1848665475845337,0.33717241883277893,-0.2288403958082199,0.4202311038970947,0.3373706042766571,-0.31229421496391296,0.573481559753418,0.33748453855514526,-0.37924855947494507,0.6964331865310669,0.3375759422779083,2.0694521507263186,1.5699771869659425,7.967227683402598e-05,9.894783580675722e-05,8.657935226801783e-05,-1.2368479475844652e-05
1636986705.1118705,5.0,0.0,0.11691472679376602,1.1328272819519043,0.25181466341018677,-0.017568368464708328,0.9160991311073303,0.6808574795722961,0.07361900061368942,0.7881563305854797,0.6895143985748291,-0.18882755935192108,0.8660085797309875,0.6462374329566956,-0.36041614413261414,0.8178827166557312,0.49260908365249634,-0.38724106550216675,0.6604259014129639,0.2275952249765396,0.15369082987308502,0.9661897420883179,0.715477466583252,0.3187935948371887,1.050931453704834,0.5489182472229004,0.4194710850715637,0.9923059344291687,0.32262250781059265,-0.04329638555645943,0.6405296921730042,0.19664454460144043,0.006009538192301989,0.9532302021980286,0.8113784193992615,0.14660051465034485,0.8804301619529724,0.8961504697799683,-0.1547255516052246,0.9117330312728882,0.7762209177017212,-0.3413529694080353,0.7984421849250793,0.565705418586731,-0.4128090739250183,0.723540186882019,0.30702707171440125,0.1667446345090866,0.994727373123169,0.8465359210968018,0.367630273103714,1.206354022026062,0.7463160157203674,0.49925968050956726,1.1195642948150635,0.5515565276145935,0.11691472679376602,1.1328272819519043,0.25181466341018677,-0.02918081544339657,0.8973849415779114,0.7179047465324402,0.07464160770177841,0.7517142295837402,0.7277612090110779,-0.19492068886756897,0.8489086627960205,0.6844004988670349,-0.35914549231529236,0.74921715259552,0.4991551339626312,-0.3890678584575653,0.5735788941383362,0.20354020595550537,0.13655905425548553,0.9458612203598022,0.7514090538024902,0.3144427537918091,1.0371628999710083,0.5719561576843262,0.45262640714645386,0.9566972255706787,0.2613566815853119,0.0,0.0,0.0,0.0,0.0,0.3370000123977661,-0.10067064315080643,0.1848665475845337,0.33717241883277893,-0.2288403958082199,0.4202311038970947,0.3373706042766571,-0.31229421496391296,0.573481559753418,0.33748453855514526,-0.37924855947494507,0.6964331865310669,0.3375759422779083,2.0694521507263186,1.5699771869659425,7.967227683402598e-05,9.894783580675722e-05,8.657935226801783e-05,-1.2368479475844652e-05
1636986705.13545,5.0,0.0,0.11691472679376602,1.1328272819519043,0.25181466341018677,-0.017568368464708328,0.9160991311073303,0.6808574795722961,0.07361900061368942,0.7881563305854797,0.6895143985748291,-0.18882755935192108,0.8660085797309875,0.6462374329566956,-0.36041614413261414,0.8178827166557312,0.49260908365249634,-0.38724106550216675,0.6604259014129639,0.2275952249765396,0.15369082987308502,0.9661897420883179,0.715477466583252,0.3187935948371887,1.050931453704834,0.5489182472229004,0.4194710850715637,0.9923059344291687,0.32262250781059265,-0.08794134855270386,0.5127041339874268,0.1773153394460678,0.0027898713015019894,0.9375159740447998,0.8068618774414062,0.15425223112106323,0.9001536965370178,0.8997191190719604,-0.17001572251319885,0.879062831401825,0.7650906443595886,-0.3413313031196594,0.8023742437362671,0.5749437808990479,-0.4133909046649933,0.7231985926628113,0.3135389983654022,0.1755954623222351,0.9959691762924194,0.8486331701278687,0.3888857960700989,1.2345728874206543,0.7608343362808228,0.5224121809005737,1.1657330989837646,0.5788518786430359,0.11691472679376602,1.1328272819519043,0.25181466341018677,-0.02918081544339657,0.8973849415779114,0.7179047465324402,0.07464160770177841,0.7517142295837402,0.7277612090110779,-0.19492068886756897,0.8489086627960205,0.6844004988670349,-0.36604177951812744,0.7723071575164795,0.49446946382522583,-0.3959641754627228,0.5966688394546509,0.19885452091693878,0.13655905425548553,0.9458612203598022,0.7514090538024902,0.3144427537918091,1.0371628999710083,0.5719561576843262,0.45262640714645386,0.9566972255706787,0.2613566815853119,0.0,0.0,0.0,0.0,0.0,0.3370000123977661,-0.10067064315080643,0.1848665475845337,0.33717241883277893,-0.2288403958082199,0.4202311038970947,0.3373706042766571,-0.31229421496391296,0.573481559753418,0.33748453855514526,-0.37924855947494507,0.6964331865310669,0.3375759422779083,2.0694521507263186,1.5699771869659425,7.967227683402598e-05,9.894783580675722e-05,8.657935226801783e-05,-1.2368479475844652e-05
1636986705.144866,5.0,0.0,0.11296968907117844,1.1194653511047363,0.2548965513706207,-0.024636728689074516,0.9220817685127258,0.6889517307281494,0.07567856460809708,0.7847608327865601,0.6878839135169983,-0.1991840898990631,0.8705491423606873,0.6590897440910339,-0.3514045178890228,0.8228635787963867,0.49812307953834534,-0.389538049697876,0.6770965456962585,0.23579895496368408,0.14991062879562378,0.9736143946647644,0.7188137173652649,0.3148048520088196,1.0607603788375854,0.5523367524147034,0.41387462615966797,0.9921767711639404,0.33197879791259766,-0.08794134855270386,0.5127041339874268,0.1773153394460678,0.0027898713015019894,0.9375159740447998,0.8068618774414062,0.15425223112106323,0.9001536965370178,0.8997191190719604,-0.17001572251319885,0.879062831401825,0.7650906443595886,-0.3413313031196594,0.8023742437362671,0.5749437808990479,-0.4133909046649933,0.7231985926628113,0.3135389983654022,0.1755954623222351,0.9959691762924194,0.8486331701278687,0.3888857960700989,1.2345728874206543,0.7608343362808228,0.5224121809005737,1.1657330989837646,0.5788518786430359,0.11296968907117844,1.1194653511047363,0.2548965513706207,-0.03694478049874306,0.9017606973648071,0.7283385992050171,0.06856634467840195,0.7569725513458252,0.7283422946929932,-0.203354150056839,0.8526769876480103,0.6993402242660522,-0.37447524070739746,0.7760754823684692,0.5094091892242432,-0.41667041182518005,0.6087047457695007,0.21051298081874847,0.12946458160877228,0.950844407081604,0.7573369145393372,0.3067440986633301,1.0442571640014648,0.5783733129501343,0.44469597935676575,0.9503888487815857,0.2714539170265198,0.0,0.0,0.0,0.0,0.0,0.3370000123977661,-0.10067064315080643,0.1848665475845337,0.33717241883277893,-0.2288403958082199,0.4202311038970947,0.3373706042766571,-0.31229421496391296,0.573481559753418,0.33748453855514526,-0.37924855947494507,0.6964331865310669,0.3375759422779083,2.0694521507263186,1.5699771869659425,7.967227683402598e-05,9.894783580675722e-05,8.657935226801783e-05,-1.2368479475844652e-05
1636986705.168414,5.0,0.0,0.11296968907117844,1.1194653511047363,0.2548965513706207,-0.024636728689074516,0.9220817685127258,0.6889517307281494,0.07567856460809708,0.7847608327865601,0.6878839135169983,-0.1991840898990631,0.8705491423606873,0.6590897440910339,-0.3514045178890228,0.8228635787963867,0.49812307953834534,-0.389538049697876,0.6770965456962585,0.23579895496368408,0.14991062879562378,0.9736143946647644,0.7188137173652649,0.3148048520088196,1.0607603788375854,0.5523367524147034,0.41387462615966797,0.9921767711639404,0.33197879791259766,-0.08794134855270386,0.5127041339874268,0.1773153394460678,0.0027898713015019894,0.9375159740447998,0.8068618774414062,0.15425223112106323,0.9001536965370178,0.8997191190719604,-0.17001572251319885,0.879062831401825,0.7650906443595886,-0.3413313031196594,0.8023742437362671,0.5749437808990479,-0.4133909046649933,0.7231985926628113,0.3135389983654022,0.1755954623222351,0.9959691762924194,0.8486331701278687,0.3888857960700989,1.2345728874206543,0.7608343362808228,0.5224121809005737,1.1657330989837646,0.5788518786430359,0.11296968907117844,1.1194653511047363,0.2548965513706207,-0.03737668693065643,0.9038074612617493,0.729137659072876,0.06830135732889175,0.7591454982757568,0.7280128002166748,-0.20385555922985077,0.8546569347381592,0.7006561160087585,-0.37497666478157043,0.7780554294586182,0.5107250809669495,-0.41848501563072205,0.6117427349090576,0.2114267647266388,0.1291021853685379,0.9529579877853394,0.7576192617416382,0.3063099980354309,1.0466117858886719,0.5787105560302734,0.444114089012146,0.9512131810188293,0.2721969187259674,0.0,0.0,0.0,0.0,0.0,0.3370000123977661,-0.10067064315080643,0.1848665475845337,0.33717241883277893,-0.2288403958082199,0.4202311038970947,0.3373706042766571,-0.31229421496391296,0.573481559753418,0.33748453855514526,-0.37924855947494507,0.6964331865310669,0.3375759422779083,2.0694521507263186,1.5699771869659425,7.967227683402598e-05,9.894783580675722e-05,8.657935226801783e-05,-1.2368479475844652e-05
1636986705.1778934,5.0,0.0,0.11296968907117844,1.1194653511047363,0.2548965513706207,-0.024636728689074516,0.9220817685127258,0.6889517307281494,0.07567856460809708,0.7847608327865601,0.6878839135169983,-0.1991840898990631,0.8705491423606873,0.6590897440910339,-0.3514045178890228,0.8228635787963867,0.49812307953834534,-0.389538049697876,0.6770965456962585,0.23579895496368408,0.14991062879562378,0.9736143946647644,0.7188137173652649,0.3148048520088196,1.0607603788375854,0.5523367524147034,0.41387462615966797,0.9921767711639404,0.33197879791259766,-0.06745936721563339,0.5587591528892517,0.18814967572689056,-0.009043008089065552,0.9249101281166077,0.798841655254364,0.14789114892482758,0.8838147521018982,0.8982430100440979,-0.1789160817861557,0.8706494569778442,0.7511371374130249,-0.34713268280029297,0.8062026500701904,0.5682845115661621,-0.41224604845046997,0.7338852286338806,0.31730160117149353,0.1608300656080246,0.9791707396507263,0.8465462327003479,0.36435675621032715,1.1987487077713013,0.752088725566864,0.5019546151161194,1.124748945236206,0.5624415278434753,0.11296968907117844,1.1194653511047363,0.2548965513706207,-0.03737668693065643,0.9038074612617493,0.729137659072876,0.06830135732889175,0.7591454982757568,0.7280128002166748,-0.20385555922985077,0.8546569347381592,0.7006561160087585,-0.3762013912200928,0.7808876633644104,0.5107113122940063,-0.4197097718715668,0.6145749688148499,0.21141301095485687,0.1291021853685379,0.9529579877853394,0.7576192617416382,0.3063099980354309,1.0466117858886719,0.5787105560302734,0.444114089012146,0.9512131810188293,0.2721969187259674,0.0,0.0,0.0,0.0,0.0,0.3370000123977661,-0.10067064315080643,0.1848665475845337,0.33717241883277893,-0.2288403958082199,0.4202311038970947,0.3373706042766571,-0.31229421496391296,0.573481559753418,0.33748453855514526,-0.37924855947494507,0.6964331865310669,0.3375759422779083,2.0694521507263186,1.5699771869659425,7.967227683402598e-05,9.894783580675722e-05,8.657935226801783e-05,-1.2368479475844652e-05
1636986705.2014155,5.0,0.0,0.11296968907117844,1.1194653511047363,0.2548965513706207,-0.024636728689074516,0.9220817685127258,0.6889517307281494,0.07567856460809708,0.7847608327865601,0.6878839135169983,-0.1991840898990631,0.8705491423606873,0.6590897440910339,-0.3514045178890228,0.8228635787963867,0.49812307953834534,-0.389538049697876,0.6770965456962585,0.23579895496368408,0.14991062879562378,0.9736143946647644,0.7188137173652649,0.3148048520088196,1.0607603788375854,0.5523367524147034,0.41387462615966797,0.9921767711639404,0.33197879791259766,-0.06745936721563339,0.5587591528892517,0.18814967572689056,-0.009043008089065552,0.9249101281166077,0.798841655254364,0.14789114892482758,0.8838147521018982,0.8982430100440979,-0.1789160817861557,0.8706494569778442,0.7511371374130249,-0.34713268280029297,0.8062026500701904,0.5682845115661621,-0.41224604845046997,0.7338852286338806,0.31730160117149353,0.1608300656080246,0.9791707396507263,0.8465462327003479,0.36435675621032715,1.1987487077713013,0.752088725566864,0.5019546151161194,1.124748945236206,0.5624415278434753,0.11296968907117844,1.1194653511047363,0.2548965513706207,-0.03737668693065643,0.9038074612617493,0.729137659072876,0.06830135732889175,0.7591454982757568,0.7280128002166748,-0.20385555922985077,0.8546569347381592,0.7006561160087585,-0.37875476479530334,0.7876498699188232,0.5105394721031189,-0.42226314544677734,0.6213372349739075,0.21124114096164703,0.1291021853685379,0.9529579877853394,0.7576192617416382,0.3063099980354309,1.0466117858886719,0.5787105560302734,0.444114089012146,0.9512131810188293,0.2721969187259674,0.0,0.0,0.0,0.0,0.0,0.3370000123977661,-0.10067064315080643,0.1848665475845337,0.33717241883277893,-0.2288403958082199,0.4202311038970947,0.3373706042766571,-0.31229421496391296,0.573481559753418,0.33748453855514526,-0.37924855947494507,0.6964331865310669,0.3375759422779083,2.0694521507263186,1.5699771869659425,7.967227683402598e-05,9.894783580675722e-05,8.657935226801783e-05,-1.2368479475844652e-05
1636986705.21086,5.0,0.0,0.11374594271183014,1.1287100315093994,0.24873150885105133,-0.022593919187784195,0.9179081916809082,0.6870736479759216,0.06455124169588089,0.7860583066940308,0.6858449578285217,-0.19973063468933105,0.8712999224662781,0.6594216227531433,-0.36287063360214233,0.8208048343658447,0.4936659634113312,-0.38913074135780334,0.6624407768249512,0.22806590795516968,0.15454280376434326,0.9645164608955383,0.7147256135940552,0.3101605474948883,1.0574692487716675,0.5612532496452332,0.4315181374549866,0.9842860102653503,0.32462960481643677,-0.06745936721563339,0.5587591528892517,0.18814967572689056,-0.009043008089065552,0.9249101281166077,0.798841655254364,0.14789114892482758,0.8838147521018982,0.8982430100440979,-0.1789160817861557,0.8706494569778442,0.7511371374130249,-0.34713268280029297,0.8062026500701904,0.5682845115661621,-0.41224604845046997,0.7338852286338806,0.31730160117149353,0.1608300656080246,0.9791707396507263,0.8465462327003479,0.36435675621032715,1.1987487077713013,0.752088725566864,0.5019546151161194,1.124748945236206,0.5624415278434753,0.11374594271183014,1.1287100315093994,0.24873150885105133,-0.03301585093140602,0.9035159349441528,0.719651460647583,0.06648251414299011,0.75453782081604,0.7183043360710144,-0.2010539323091507,0.8587555885314941,0.6931579113006592,-0.37595313787460327,0.7917485237121582,0.5030412673950195,-0.40670889616012573,0.6165098547935486,0.20727470517158508,0.13502222299575806,0.9482762813568115,0.7461450099945068,0.31123101711273193,1.052243709564209,0.5720094442367554,0.4633304178714752,0.9591725468635559,0.2716013491153717,0.0,0.0,0.0,0.0,0.0,0.3370000123977661,-0.10067064315080643,0.1848665475845337,0.33717241883277893,-0.2288403958082199,0.4202311038970947,0.3373706042766571,-0.31229421496391296,0.573481559753418,0.33748453855514526,-0.37924855947494507,0.6964331865310669,0.3375759422779083,2.0694521507263186,1.5699771869659425,7.967227683402598e-05,9.894783580675722e-05,8.657935226801783e-05,-1.2368479475844652e-05
1636986705.2344525,5.0,0.0,0.11374594271183014,1.1287100315093994,0.24873150885105133,-0.022593919187784195,0.9179081916809082,0.6870736479759216,0.06455124169588089,0.7860583066940308,0.6858449578285217,-0.19973063468933105,0.8712999224662781,0.6594216227531433,-0.36287063360214233,0.8208048343658447,0.4936659634113312,-0.38913074135780334,0.6624407768249512,0.22806590795516968,0.15454280376434326,0.9645164608955383,0.7147256135940552,0.3101605474948883,1.0574692487716675,0.5612532496452332,0.4315181374549866,0.9842860102653503,0.32462960481643677,-0.06745936721563339,0.5587591528892517,0.18814967572689056,-0.009043008089065552,0.9249101281166077,0.798841655254364,0.14789114892482758,0.8838147521018982,0.8982430100440979,-0.1789160817861557,0.8706494569778442,0.7511371374130249,-0.34713268280029297,0.8062026500701904,0.5682845115661621,-0.41224604845046997,0.7338852286338806,0.31730160117149353,0.1608300656080246,0.9791707396507263,0.8465462327003479,0.36435675621032715,1.1987487077713013,0.752088725566864,0.5019546151161194,1.124748945236206,0.5624415278434753,0.11374594271183014,1.1287100315093994,0.24873150885105133,-0.0326046384871006,0.9024301171302795,0.7192587852478027,0.06617610901594162,0.7529757022857666,0.717866063117981,-0.20081239938735962,0.8581712245941162,0.6930006146430969,-0.375711590051651,0.7911641597747803,0.5028839707374573,-0.40491750836372375,0.6150351762771606,0.20748946070671082,0.135603129863739,0.9466890096664429,0.7455169558525085,0.311635285615921,1.0518356561660767,0.5719115734100342,0.46534526348114014,0.9591426849365234,0.272207111120224,0.0,0.0,0.0,0.0,0.0,0.3370000123977661,-0.10067064315080643,0.1848665475845337,0.33717241883277893,-0.2288403958082199,0.4202311038970947,0.3373706042766571,-0.31229421496391296,0.573481559753418,0.33748453855514526,-0.37924855947494507,0.6964331865310669,0.3375759422779083,2.0694521507263186,1.5699771869659425,7.967227683402598e-05,9.894783580675722e-05,8.657935226801783e-05,-1.2368479475844652e-05
1636986705.2439363,5.0,0.0,0.11374594271183014,1.1287100315093994,0.24873150885105133,-0.022593919187784195,0.9179081916809082,0.6870736479759216,0.06455124169588089,0.7860583066940308,0.6858449578285217,-0.19973063468933105,0.8712999224662781,0.6594216227531433,-0.36287063360214233,0.8208048343658447,0.4936659634113312,-0.38913074135780334,0.6624407768249512,0.22806590795516968,0.15454280376434326,0.9645164608955383,0.7147256135940552,0.3101605474948883,1.0574692487716675,0.5612532496452332,0.4315181374549866,0.9842860102653503,0.32462960481643677,-0.1059175506234169,0.4385249614715576,0.16429953277111053,-0.0037457698490470648,0.9291142225265503,0.7974578738212585,0.14064127206802368,0.8856160044670105,0.8893674612045288,-0.17126893997192383,0.871517539024353,0.7528758645057678,-0.3423498570919037,0.7913631200790405,0.5623716711997986,-0.4168677031993866,0.7450756430625916,0.31368592381477356,0.1637774109840393,0.9867109060287476,0.8420398235321045,0.36525705456733704,1.2008757591247559,0.7530884742736816,0.5294428467750549,1.1795976161956787,0.593467652797699,0.11374594271183014,1.1287100315093994,0.24873150885105133,-0.0326046384871006,0.9024301171302795,0.7192587852478027,0.06617610901594162,0.7529757022857666,0.717866063117981,-0.20081239938735962,0.8581712245941162,0.6930006146430969,-0.3744655251502991,0.7873027324676514,0.5031421184539795,-0.40367141366004944,0.6111737489700317,0.20774756371974945,0.135603129863739,0.9466890096664429,0.7455169558525085,0.311635285615921,1.0518356561660767,0.5719115734100342,0.46534526348114014,0.9591426849365234,0.272207111120224,0.0,0.0,0.0,0.0,0.0,0.3370000123977661,-0.10067064315080643,0.1848665475845337,0.33717241883277893,-0.2288403958082199,0.4202311038970947,0.3373706042766571,-0.31229421496391296,0.573481559753418,0.33748453855514526,-0.37924855947494507,0.6964331865310669,0.3375759422779083,2.0694521507263186,1.5699771869659425,7.967227683402598e-05,9.894783580675722e-05,8.657935226801783e-05,-1.2368479475844652e-05
1636986705.2674155,5.0,0.0,0.11374594271183014,1.1287100315093994,0.24873150885105133,-0.022593919187784195,0.9179081916809082,0.6870736479759216,0.06455124169588089,0.7860583066940308,0.6858449578285217,-0.19973063468933105,0.8712999224662781,0.6594216227531433,-0.36287063360214233,0.8208048343658447,0.4936659634113312,-0.38913074135780334,0.6624407768249512,0.22806590795516968,0.15454280376434326,0.9645164608955383,0.7147256135940552,0.3101605474948883,1.0574692487716675,0.5612532496452332,0.4315181374549866,0.9842860102653503,0.32462960481643677,-0.1059175506234169,0.4385249614715576,0.16429953277111053,-0.0037457698490470648,0.9291142225265503,0.7974578738212585,0.14064127206802368,0.8856160044670105,0.8893674612045288,-0.17126893997192383,0.871517539024353,0.7528758645057678,-0.3423498570919037,0.7913631200790405,0.5623716711997986,-0.4168677031993866,0.7450756430625916,0.31368592381477356,0.1637774109840393,0.9867109060287476,0.8420398235321045,0.36525705456733704,1.2008757591247559,0.7530884742736816,0.5294428467750549,1.1795976161956787,0.593467652797699,0.11374594271183014,1.1287100315093994,0.24873150885105133,-0.0326046384871006,0.9024301171302795,0.7192587852478027,0.06617610901594162,0.7529757022857666,0.717866063117981,-0.20081239938735962,0.8581712245941162,0.6930006146430969,-0.37098631262779236,0.7784417271614075,0.5035064220428467,-0.4001922011375427,0.6023126840591431,0.20811186730861664,0.135603129863739,0.9466890096664429,0.7455169558525085,0.311635285615921,1.0518356561660767,0.5719115734100342,0.46534526348114014,0.9591426849365234,0.272207111120224,0.0,0.0,0.0,0.0,0.0,0.3370000123977661,-0.10067064315080643,0.1848665475845337,0.33717241883277893,-0.2288403958082199,0.4202311038970947,0.3373706042766571,-0.31229421496391296,0.573481559753418,0.33748453855514526,-0.37924855947494507,0.6964331865310669,0.3375759422779083,2.0694521507263186,1.5699771869659425,7.967227683402598e-05,9.894783580675722e-05,8.657935226801783e-05,-1.2368479475844652e-05
1636986705.2768679,5.0,0.0,0.11801796406507492,1.1302165985107422,0.2512681782245636,-0.01753062568604946,0.909899890422821,0.6835080981254578,0.07343727350234985,0.7884559035301208,0.6896582245826721,-0.19317129254341125,0.8622897267341614,0.6554388403892517,-0.36019301414489746,0.8176170587539673,0.4925130009651184,-0.3925950229167938,0.6661344766616821,0.2289288491010666,0.15811005234718323,0.9575100541114807,0.7115773558616638,0.31140920519828796,1.0544143915176392,0.5601755380630493,0.4192359149456024,1.002617359161377,0.33852988481521606,-0.1059175506234169,0.4385249614715576,0.16429953277111053,-0.0037457698490470648,0.9291142225265503,0.7974578738212585,0.14064127206802368,0.8856160044670105,0.8893674612045288,-0.17126893997192383,0.871517539024353,0.7528758645057678,-0.3423498570919037,0.7913631200790405,0.5623716711997986,-0.4168677031993866,0.7450756430625916,0.31368592381477356,0.1637774109840393,0.9867109060287476,0.8420398235321045,0.36525705456733704,1.2008757591247559,0.7530884742736816,0.5294428467750549,1.1795976161956787,0.593467652797699,0.11801796406507492,1.1302165985107422,0.2512681782245636,-0.02782430686056614,0.8914909362792969,0.7157647609710693,0.08071503788232803,0.7492098808288574,0.724221408367157,-0.19555608928203583,0.8458302617073059,0.6888696551322937,-0.3657299876213074,0.7661007642745972,0.4993754029273987,-0.40333735942840576,0.5958815217018127,0.20147700607776642,0.13990746438503265,0.9371515512466431,0.7426599264144897,0.3139766454696655,1.0480822324752808,0.5706824064254761,0.462590754032135,0.9791709780693054,0.2621268033981323,0.0,0.0,0.0,0.0,0.0,0.3370000123977661,-0.10067064315080643,0.1848665475845337,0.33717241883277893,-0.2288403958082199,0.4202311038970947,0.3373706042766571,-0.31229421496391296,0.573481559753418,0.33748453855514526,-0.37924855947494507,0.6964331865310669,0.3375759422779083,2.0694521507263186,1.5699771869659425,7.967227683402598e-05,9.894783580675722e-05,8.657935226801783e-05,-1.2368479475844652e-05
1636986705.300427,5.0,0.0,0.11801796406507492,1.1302165985107422,0.2512681782245636,-0.01753062568604946,0.909899890422821,0.6835080981254578,0.07343727350234985,0.7884559035301208,0.6896582245826721,-0.19317129254341125,0.8622897267341614,0.6554388403892517,-0.36019301414489746,0.8176170587539673,0.4925130009651184,-0.3925950229167938,0.6661344766616821,0.2289288491010666,0.15811005234718323,0.9575100541114807,0.7115773558616638,0.31140920519828796,1.0544143915176392,0.5601755380630493,0.4192359149456024,1.002617359161377,0.33852988481521606,-0.1059175506234169,0.4385249614715576,0.16429953277111053,-0.0037457698490470648,0.9291142225265503,0.7974578738212585,0.14064127206802368,0.8856160044670105,0.8893674612045288,-0.17126893997192383,0.871517539024353,0.7528758645057678,-0.3423498570919037,0.7913631200790405,0.5623716711997986,-0.4168677031993866,0.7450756430625916,0.31368592381477356,0.1637774109840393,0.9867109060287476,0.8420398235321045,0.36525705456733704,1.2008757591247559,0.7530884742736816,0.5294428467750549,1.1795976161956787,0.593467652797699,0.11801796406507492,1.1302165985107422,0.2512681782245636,-0.02789139561355114,0.8930597901344299,0.7165467143058777,0.07942599803209305,0.7497889399528503,0.7238022089004517,-0.1956842690706253,0.847576916217804,0.6897315979003906,-0.36585816740989685,0.7678473591804504,0.5002374053001404,-0.40243804454803467,0.5968326926231384,0.20266681909561157,0.13990147411823273,0.9385427236557007,0.7433618307113647,0.31423628330230713,1.0487442016601562,0.5711847543716431,0.4637947380542755,0.9769002795219421,0.2637563645839691,0.0,0.0,0.0,0.0,0.0,0.3370000123977661,-0.10067064315080643,0.1848665475845337,0.33717241883277893,-0.2288403958082199,0.4202311038970947,0.3373706042766571,-0.31229421496391296,0.573481559753418,0.33748453855514526,-0.37924855947494507,0.6964331865310669,0.3375759422779083,2.0694521507263186,1.5699771869659425,7.967227683402598e-05,9.894783580675722e-05,8.657935226801783e-05,-1.2368479475844652e-05
1636986705.309864,5.0,0.0,0.11801796406507492,1.1302165985107422,0.2512681782245636,-0.01753062568604946,0.909899890422821,0.6835080981254578,0.07343727350234985,0.7884559035301208,0.6896582245826721,-0.19317129254341125,0.8622897267341614,0.6554388403892517,-0.36019301414489746,0.8176170587539673,0.4925130009651184,-0.3925950229167938,0.6661344766616821,0.2289288491010666,0.15811005234718323,0.9575100541114807,0.7115773558616638,0.31140920519828796,1.0544143915176392,0.5601755380630493,0.4192359149456024,1.002617359161377,0.33852988481521606,-0.0941641628742218,0.47893744707107544,0.17082971334457397,0.00248113926500082,0.9525913596153259,0.814521074295044,0.151344895362854,0.8925307989120483,0.8950390219688416,-0.16496148705482483,0.9018663167953491,0.7776890397071838,-0.3423498570919037,0.7913631200790405,0.5623716711997986,-0.4122007489204407,0.7292026877403259,0.309000164270401,0.16992376744747162,1.0033165216445923,0.851353108882904,0.36791470646858215,1.2072843313217163,0.7654692530632019,0.5285542011260986,1.1415456533432007,0.580495297908783,0.11801796406507492,1.1302165985107422,0.2512681782245636,-0.02789139561355114,0.8930597901344299,0.7165467143058777,0.07942599803209305,0.7497889399528503,0.7238022089004517,-0.1956842690706253,0.847576916217804,0.6897315979003906,-0.35136115550994873,0.7468487620353699,0.4977874755859375,-0.38794106245040894,0.5758340358734131,0.20021690428256989,0.13990147411823273,0.9385427236557007,0.7433618307113647,0.31423628330230713,1.0487442016601562,0.5711847543716431,0.4637947380542755,0.9769002795219421,0.2637563645839691,0.0,0.0,0.0,0.0,0.0,0.3370000123977661,-0.10067064315080643,0.1848665475845337,0.33717241883277893,-0.2288403958082199,0.4202311038970947,0.3373706042766571,-0.31229421496391296,0.573481559753418,0.33748453855514526,-0.37924855947494507,0.6964331865310669,0.3375759422779083,2.0694521507263186,1.5699771869659425,7.967227683402598e-05,9.894783580675722e-05,8.657935226801783e-05,-1.2368479475844652e-05
1636986705.3334248,5.0,0.0,0.11801796406507492,1.1302165985107422,0.2512681782245636,-0.01753062568604946,0.909899890422821,0.6835080981254578,0.07343727350234985,0.7884559035301208,0.6896582245826721,-0.19317129254341125,0.8622897267341614,0.6554388403892517,-0.36019301414489746,0.8176170587539673,0.4925130009651184,-0.3925950229167938,0.6661344766616821,0.2289288491010666,0.15811005234718323,0.9575100541114807,0.7115773558616638,0.31140920519828796,1.0544143915176392,0.5601755380630493,0.4192359149456024,1.002617359161377,0.33852988481521606,-0.0941641628742218,0.47893744707107544,0.17082971334457397,0.00248113926500082,0.9525913596153259,0.814521074295044,0.151344895362854,0.8925307989120483,0.8950390219688416,-0.16496148705482483,0.9018663167953491,0.7776890397071838,-0.3423498570919037,0.7913631200790405,0.5623716711997986,-0.4122007489204407,0.7292026877403259,0.309000164270401,0.16992376744747162,1.0033165216445923,0.851353108882904,0.36791470646858215,1.2072843313217163,0.7654692530632019,0.5285542011260986,1.1415456533432007,0.580495297908783,0.11801796406507492,1.1302165985107422,0.2512681782245636,-0.02789139561355114,0.8930597901344299,0.7165467143058777,0.07942599803209305,0.7497889399528503,0.7238022089004517,-0.1956842690706253,0.847576916217804,0.6897315979003906,-0.3534536063671112,0.7492952346801758,0.49822819232940674,-0.3900335133075714,0.5782805681228638,0.20065762102603912,0.13990147411823273,0.9385427236557007,0.7433618307113647,0.31423628330230713,1.0487442016601562,0.5711847543716431,0.4637947380542755,0.9769002795219421,0.2637563645839691,0.0,0.0,0.0,0.0,0.0,0.3370000123977661,-0.10067064315080643,0.1848665475845337,0.33717241883277893,-0.2288403958082199,0.4202311038970947,0.3373706042766571,-0.31229421496391296,0.573481559753418,0.33748453855514526,-0.37924855947494507,0.6964331865310669,0.3375759422779083,2.0694521507263186,1.5699771869659425,7.967227683402598e-05,9.894783580675722e-05,8.657935226801783e-05,-1.2368479475844652e-05
1636986705.3429074,5.0,0.0,0.11879734694957733,1.128345251083374,0.2508734464645386,-0.020240727812051773,0.914738655090332,0.6856741309165955,0.06863672286272049,0.7793876528739929,0.6826519966125488,-0.1948111653327942,0.8645423054695129,0.6564345359802246,-0.3476315438747406,0.8183319568634033,0.49647462368011475,-0.388185977935791,0.6614333987236023,0.22783060371875763,0.15432970225811005,0.9649349451065063,0.7149136662483215,0.3110969364643097,1.0551782846450806,0.5604450702667236,0.4186340272426605,0.9792925715446472,0.32879167795181274,-0.0941641628742218,0.47893744707107544,0.17082971334457397,0.00248113926500082,0.9525913596153259,0.814521074295044,0.151344895362854,0.8925307989120483,0.8950390219688416,-0.16496148705482483,0.9018663167953491,0.7776890397071838,-0.3423498570919037,0.7913631200790405,0.5623716711997986,-0.4122007489204407,0.7292026877403259,0.309000164270401,0.16992376744747162,1.0033165216445923,0.851353108882904,0.36791470646858215,1.2072843313217163,0.7654692530632019,0.5285542011260986,1.1415456533432007,0.580495297908783,0.11879734694957733,1.128345251083374,0.2508734464645386,-0.030945714563131332,0.8988454937934875,0.718766450881958,0.06698565930128098,0.7488750219345093,0.7149580717086792,-0.19781239330768585,0.8507465124130249,0.6907631754875183,-0.35558176040649414,0.7524648308753967,0.49925974011421204,-0.4005422294139862,0.5798013806343079,0.20379699766635895,0.13592097163200378,0.946944534778595,0.7467697858810425,0.3130898177623749,1.0485187768936157,0.5721965432167053,0.5371264815330505,0.9575247168540955,0.32006731629371643,0.0,0.0,0.0,0.0,0.0,0.3370000123977661,-0.10067064315080643,0.1848665475845337,0.33717241883277893,-0.2288403958082199,0.4202311038970947,0.3373706042766571,-0.31229421496391296,0.573481559753418,0.33748453855514526,-0.37924855947494507,0.6964331865310669,0.3375759422779083,2.0694521507263186,1.5699771869659425,7.967227683402598e-05,9.894783580675722e-05,8.657935226801783e-05,-1.2368479475844652e-05
1636986705.3664165,5.0,0.0,0.11879734694957733,1.128345251083374,0.2508734464645386,-0.020240727812051773,0.914738655090332,0.6856741309165955,0.06863672286272049,0.7793876528739929,0.6826519966125488,-0.1948111653327942,0.8645423054695129,0.6564345359802246,-0.3476315438747406,0.8183319568634033,0.49647462368011475,-0.388185977935791,0.6614333987236023,0.22783060371875763,0.15432970225811005,0.9649349451065063,0.7149136662483215,0.3110969364643097,1.0551782846450806,0.5604450702667236,0.4186340272426605,0.9792925715446472,0.32879167795181274,-0.0941641628742218,0.47893744707107544,0.17082971334457397,0.00248113926500082,0.9525913596153259,0.814521074295044,0.151344895362854,0.8925307989120483,0.8950390219688416,-0.16496148705482483,0.9018663167953491,0.7776890397071838,-0.3423498570919037,0.7913631200790405,0.5623716711997986,-0.4122007489204407,0.7292026877403259,0.309000164270401,0.16992376744747162,1.0033165216445923,0.851353108882904,0.36791470646858215,1.2072843313217163,0.7654692530632019,0.5285542011260986,1.1415456533432007,0.580495297908783,0.11879734694957733,1.128345251083374,0.2508734464645386,-0.030789604410529137,0.8985322117805481,0.7186626195907593,0.0675286129117012,0.7488039135932922,0.7153194546699524,-0.19769500195980072,0.8505399227142334,0.6907069087028503,-0.3554643392562866,0.75225830078125,0.49920347332954407,-0.4000799059867859,0.5796478986740112,0.20365743339061737,0.13611578941345215,0.9465245008468628,0.7466183304786682,0.31318238377571106,1.0484532117843628,0.5721479654312134,0.5344199538230896,0.9579159617424011,0.31739628314971924,0.0,0.0,0.0,0.0,0.0,0.3370000123977661,-0.10067064315080643,0.1848665475845337,0.33717241883277893,-0.2288403958082199,0.4202311038970947,0.3373706042766571,-0.31229421496391296,0.573481559753418,0.33748453855514526,-0.37924855947494507,0.6964331865310669,0.3375759422779083,2.0694521507263186,1.5699771869659425,7.967227683402598e-05,9.894783580675722e-05,8.657935226801783e-05,-1.2368479475844652e-05
1636986705.3758683,5.0,0.0,0.11879734694957733,1.128345251083374,0.2508734464645386,-0.020240727812051773,0.914738655090332,0.6856741309165955,0.06863672286272049,0.7793876528739929,0.6826519966125488,-0.1948111653327942,0.8645423054695129,0.6564345359802246,-0.3476315438747406,0.8183319568634033,0.49647462368011475,-0.388185977935791,0.6614333987236023,0.22783060371875763,0.15432970225811005,0.9649349451065063,0.7149136662483215,0.3110969364643097,1.0551782846450806,0.5604450702667236,0.4186340272426605,0.9792925715446472,0.32879167795181274,-0.06755112111568451,0.5744726061820984,0.18973465263843536,-0.006537914276123047,0.9316794276237488,0.8026667237281799,0.15522126853466034,0.9026945233345032,0.9012789726257324,-0.1789160817861557,0.8706494569778442,0.7511371374130249,-0.3478131592273712,0.8012436628341675,0.565951943397522,-0.4120655655860901,0.730461061000824,0.30943864583969116,0.1658402532339096,0.9927093982696533,0.854196310043335,0.37543898820877075,1.2034225463867188,0.7743862271308899,0.5351223349571228,1.1366443634033203,0.5797157287597656,0.11879734694957733,1.128345251083374,0.2508734464645386,-0.030789604410529137,0.8985322117805481,0.7186626195907593,0.0675286129117012,0.7488039135932922,0.7153194546699524,-0.19769500195980072,0.8505399227142334,0.6907069087028503,-0.3725963830947876,0.7835565805435181,0.5005838871002197,-0.41721194982528687,0.6109461784362793,0.20503787696361542,0.13611578941345215,0.9465245008468628,0.7466183304786682,0.31318238377571106,1.0484532117843628,0.5721479654312134,0.5262958407402039,0.9590544700622559,0.31017088890075684,0.0,0.0,0.0,0.0,0.0,0.3370000123977661,-0.10067064315080643,0.1848665475845337,0.33717241883277893,-0.2288403958082199,0.4202311038970947,0.3373706042766571,-0.31229421496391296,0.573481559753418,0.33748453855514526,-0.37924855947494507,0.6964331865310669,0.3375759422779083,2.0694521507263186,1.5699771869659425,7.967227683402598e-05,9.894783580675722e-05,8.657935226801783e-05,-1.2368479475844652e-05
1636986705.3994153,5.0,0.0,0.11854750663042068,1.1034433841705322,0.2573516368865967,-0.02806917205452919,0.9294688701629639,0.6922820210456848,0.07301319390535355,0.7891550660133362,0.6899939179420471,-0.19699762761592865,0.8675457239151001,0.6577621698379517,-0.35480746626853943,0.8269507884979248,0.4996098577976227,-0.4131830334663391,0.7088335752487183,0.2581491768360138,0.14085927605628967,0.9913920164108276,0.7268019318580627,0.3210538923740387,1.0453615188598633,0.5469810366630554,0.41363057494163513,0.9928374290466309,0.3321422040462494,-0.06755112111568451,0.5744726061820984,0.18973465263843536,-0.006537914276123047,0.9316794276237488,0.8026667237281799,0.15522126853466034,0.9026945233345032,0.9012789726257324,-0.1789160817861557,0.8706494569778442,0.7511371374130249,-0.3478131592273712,0.8012436628341675,0.565951943397522,-0.4120655655860901,0.730461061000824,0.30943864583969116,0.1658402532339096,0.9927093982696533,0.854196310043335,0.37543898820877075,1.2034225463867188,0.7743862271308899,0.5351223349571228,1.1366443634033203,0.5797157287597656,0.11879734694957733,1.128345251083374,0.2508734464645386,-0.030789604410529137,0.8985322117805481,0.7186626195907593,0.0675286129117012,0.7488039135932922,0.7153194546699524,-0.19769500195980072,0.8505399227142334,0.6907069087028503,-0.3710128962993622,0.7793174386024475,0.5006746053695679,-0.41562846302986145,0.6067070960998535,0.20512855052947998,0.13611578941345215,0.9465245008468628,0.7466183304786682,0.31318238377571106,1.0484532117843628,0.5721479654312134,0.527334988117218,0.9588964581489563,0.31107380986213684,0.0,0.0,0.0,0.0,0.0,0.3370000123977661,-0.10067064315080643,0.1848665475845337,0.33717241883277893,-0.2288403958082199,0.4202311038970947,0.3373706042766571,-0.31229421496391296,0.573481559753418,0.33748453855514526,-0.37924855947494507,0.6964331865310669,0.3375759422779083,2.0694521507263186,1.5699771869659425,7.967227683402598e-05,9.894783580675722e-05,8.657935226801783e-05,-1.2368479475844652e-05
