UF-SAMM-Lab/NSF_project_archive_data/MSEC_2022/skeleton_fusion_data/data_files/dynamic_left1/data_files_mp_2d/location_test_2021_11_15_14_37_05_MediaPipe2D.csv
Time,Test Joint,Touch Active,H1-Pelvis-x,H1-Pelvis-y,H1-Pelvis-z,H1-Spine-x,H1-Spine-y,H1-Spine-z,H1-Head-x,H1-Head-y,H1-Head-z,H1-R-Shoulder-x,H1-R-Shoulder-y,H1-R-Shoulder-z,H1-R-Elbow-x,H1-R-Elbow-y,H1-R-Elbow-z,H1-R-Wrist-x,H1-R-Wrist-y,H1-R-Wrist-z,H1-L-Shoulder-x,H1-L-Shoulder-y,H1-L-Shoulder-z,H1-L-Elbow-x,H1-L-Elbow-y,H1-L-Elbow-z,H1-L-Wrist-x,H1-L-Wrist-y,H1-L-Wrist-z,H2-Pelvis-x,H2-Pelvis-y,H2-Pelvis-z,H2-Spine-x,H2-Spine-y,H2-Spine-z,H2-Head-x,H2-Head-y,H2-Head-z,H2-R-Shoulder-x,H2-R-Shoulder-y,H2-R-Shoulder-z,H2-R-Elbow-x,H2-R-Elbow-y,H2-R-Elbow-z,H2-R-Wrist-x,H2-R-Wrist-y,H2-R-Wrist-z,H2-L-Shoulder-x,H2-L-Shoulder-y,H2-L-Shoulder-z,H2-L-Elbow-x,H2-L-Elbow-y,H2-L-Elbow-z,H2-L-Wrist-x,H2-L-Wrist-y,H2-L-Wrist-z,HC-Pelvis-x,HC-Pelvis-y,HC-Pelvis-z,HC-Spine-x,HC-Spine-y,HC-Spine-z,HC-Head-x,HC-Head-y,HC-Head-z,HC-R-Shoulder-x,HC-R-Shoulder-y,HC-R-Shoulder-z,HC-R-Elbow-x,HC-R-Elbow-y,HC-R-Elbow-z,HC-R-Wrist-x,HC-R-Wrist-y,HC-R-Wrist-z,HC-L-Shoulder-x,HC-L-Shoulder-y,HC-L-Shoulder-z,HC-L-Elbow-x,HC-L-Elbow-y,HC-L-Elbow-z,HC-L-Wrist-x,HC-L-Wrist-y,HC-L-Wrist-z,Robot-Base(x),Robot-Base(y),Robot-Base(z),Robot-J2(x),Robot-J2(y),Robot-J2(z),Robot-J3(x),Robot-J3(y),Robot-J3(z),Robot-J5(x),Robot-J5(y),Robot-J5(z),Robot-J6(x),Robot-J6(y),Robot-J6(z),Robot-EE(x),Robot-EE(y),Robot-EE(z),Robot-J1-angle,Robot-J2-angle,Robot-J3-angle,Robot-J4-angle,Robot-J5-angle,Robot-J6-angle
1637005025.5144346,8.0,0.0,0.20952528715133667,0.6355697512626648,0.03629708290100098,-0.043584153056144714,0.8607390522956848,0.47014114260673523,-0.1119934692978859,0.7478513121604919,0.481338232755661,-0.22307582199573517,0.8733291625976562,0.4446776509284973,-0.29249143600463867,0.9355514645576477,0.20642688870429993,0.10732897371053696,0.34551817178726196,0.04420406371355057,0.13590751588344574,0.8481489419937134,0.49560466408729553,0.355560839176178,0.8004570007324219,0.3743794560432434,0.3162652552127838,0.675049364566803,0.16493991017341614,-0.0020083182025700808,0.7421849966049194,-0.002255369909107685,-0.04260741546750069,0.800917387008667,0.5417900085449219,-0.10143066197633743,0.6972943544387817,0.5761339664459229,-0.23797425627708435,0.8135719895362854,0.4853891134262085,-0.23991067707538605,0.8823363184928894,0.21673592925071716,-0.1488022655248642,0.7367720603942871,0.043038856238126755,0.15275941789150238,0.7882627248764038,0.5981908440589905,0.34857237339019775,0.7192913293838501,0.4999169111251831,0.37302365899086,0.5286409258842468,0.3528440594673157,-0.0020083182025700808,0.7421849966049194,-0.002255369909107685,-0.0440194196999073,0.8029600381851196,0.5607114434242249,-0.11994563788175583,0.6776679754257202,0.5731388330459595,-0.22210657596588135,0.8154516220092773,0.5354471802711487,-0.30038273334503174,0.8856162428855896,0.26678499579429626,-0.1583871692419052,0.6587494015693665,-0.003927760291844606,0.13406774401664734,0.7904683947563171,0.585975706577301,0.3834068775177002,0.7026433944702148,0.4608381986618042,0.3248811960220337,0.5158649682998657,0.14890503883361816,0.0,0.0,0.0,0.0,0.0,0.3370000123977661,0.10107746720314026,0.1846444308757782,0.33717241883277893,0.2297651618719101,0.41972616314888,0.337399959564209,0.3135562241077423,0.5727924704551697,0.33755892515182495,0.3807811141014099,0.6955963373184204,0.3376864194869995,1.0699385383605957,1.5699771869659425,-2.987710584420711e-05,5.565815560985356e-05,-6.184239737922326e-05,3.7105438427533954e-05
1637005025.5367033,8.0,0.0,0.20952528715133667,0.6355697512626648,0.03629708290100098,-0.03223948925733566,0.8490476012229919,0.4684889316558838,-0.10978428274393082,0.7444340586662292,0.4805881083011627,-0.19579271972179413,0.852453351020813,0.442755788564682,-0.2856699228286743,0.9387940764427185,0.20204338431358337,0.10824093222618103,0.35171738266944885,0.04521263763308525,0.1313137412071228,0.8456418514251709,0.4942220449447632,0.356858491897583,0.8007713556289673,0.3694917559623718,0.3162652552127838,0.675049364566803,0.16493991017341614,0.004153020214289427,0.7608062028884888,-0.009310507215559483,-0.045825663954019547,0.7934730648994446,0.5393553972244263,-0.10067377239465714,0.7063204646110535,0.5769585371017456,-0.24440906941890717,0.7986859679222107,0.48441246151924133,-0.2328680455684662,0.9087154865264893,0.21149341762065887,-0.1488022655248642,0.7367720603942871,0.043038856238126755,0.15275774896144867,0.7882601022720337,0.5942983627319336,0.3519096374511719,0.7171409726142883,0.49594685435295105,0.3598521649837494,0.5073810815811157,0.3454292416572571,-0.0020083182025700808,0.7421849966049194,-0.002255369909107685,-0.0440194196999073,0.8029600381851196,0.5607114434242249,-0.11994563788175583,0.6776679754257202,0.5731388330459595,-0.22210657596588135,0.8154516220092773,0.5354471802711487,-0.30038273334503174,0.8856162428855896,0.26678499579429626,-0.1583871692419052,0.6587494015693665,-0.003927760291844606,0.13406774401664734,0.7904683947563171,0.585975706577301,0.3834068775177002,0.7026433944702148,0.4608381986618042,0.3248811960220337,0.5158649682998657,0.14890503883361816,0.0,0.0,0.0,0.0,0.0,0.3370000123977661,0.10107746720314026,0.1846444308757782,0.33717241883277893,0.2297651618719101,0.41972616314888,0.337399959564209,0.3135562241077423,0.5727924704551697,0.33755892515182495,0.3807811141014099,0.6955963373184204,0.3376864194869995,1.0699385383605957,1.5699771869659425,-2.987710584420711e-05,5.565815560985356e-05,-6.184239737922326e-05,3.7105438427533954e-05
1637005025.5480072,8.0,0.0,0.20952528715133667,0.6355697512626648,0.03629708290100098,-0.03223948925733566,0.8490476012229919,0.4684889316558838,-0.10978428274393082,0.7444340586662292,0.4805881083011627,-0.19579271972179413,0.852453351020813,0.442755788564682,-0.2856699228286743,0.9387940764427185,0.20204338431358337,0.10824093222618103,0.35171738266944885,0.04521263763308525,0.1313137412071228,0.8456418514251709,0.4942220449447632,0.356858491897583,0.8007713556289673,0.3694917559623718,0.3162652552127838,0.675049364566803,0.16493991017341614,0.004153020214289427,0.7608062028884888,-0.009310507215559483,-0.045825663954019547,0.7934730648994446,0.5393553972244263,-0.10067377239465714,0.7063204646110535,0.5769585371017456,-0.24440906941890717,0.7986859679222107,0.48441246151924133,-0.2328680455684662,0.9087154865264893,0.21149341762065887,-0.1488022655248642,0.7367720603942871,0.043038856238126755,0.15275774896144867,0.7882601022720337,0.5942983627319336,0.3519096374511719,0.7171409726142883,0.49594685435295105,0.3598521649837494,0.5073810815811157,0.3454292416572571,0.004153020214289427,0.7608062028884888,-0.009310507215559483,-0.04726451262831688,0.7944135069847107,0.555151104927063,-0.13444314897060394,0.6768031716346741,0.5687534809112549,-0.22533923387527466,0.7981216311454773,0.5271332263946533,-0.32099655270576477,0.8900150656700134,0.27094024419784546,-0.1954822540283203,0.6332951188087463,0.019429374486207962,0.1308102160692215,0.7907053828239441,0.5831690430641174,0.3805607855319977,0.7015169262886047,0.45982927083969116,0.31917110085487366,0.5113858580589294,0.15048281848430634,0.0,0.0,0.0,0.0,0.0,0.3370000123977661,0.10107746720314026,0.1846444308757782,0.33717241883277893,0.2297651618719101,0.41972616314888,0.337399959564209,0.3135562241077423,0.5727924704551697,0.33755892515182495,0.3807811141014099,0.6955963373184204,0.3376864194869995,1.0699385383605957,1.5699771869659425,-2.987710584420711e-05,5.565815560985356e-05,-6.184239737922326e-05,3.7105438427533954e-05
1637005025.5697105,8.0,0.0,0.20726127922534943,0.6385008692741394,0.030913928523659706,-0.035222411155700684,0.8479961156845093,0.4677491784095764,-0.10536579042673111,0.7375993728637695,0.47908785939216614,-0.20353271067142487,0.8539977669715881,0.44206058979034424,-0.2800397574901581,0.9304096102714539,0.20154409110546112,0.10824093222618103,0.35171738266944885,0.04521263763308525,0.1330878883600235,0.8419944047927856,0.4934377372264862,0.3547019958496094,0.8064844608306885,0.370368629693985,0.3109472095966339,0.6755715608596802,0.16382813453674316,0.0077000451274216175,0.7585248351097107,-0.009191670455038548,-0.04503725841641426,0.7935604453086853,0.539567768573761,-0.10067377239465714,0.7063204646110535,0.5769585371017456,-0.24762652814388275,0.7912428379058838,0.48392412066459656,-0.2328680455684662,0.9087154865264893,0.21149341762065887,-0.16867686808109283,0.7043784856796265,0.04833610728383064,0.15755200386047363,0.7958780527114868,0.5952114462852478,0.351911336183548,0.7171435952186584,0.4999169111251831,0.34876468777656555,0.49430325627326965,0.34912779927253723,0.0077000451274216175,0.7585248351097107,-0.009191670455038548,-0.04455208778381348,0.7928515672683716,0.555150032043457,-0.12918782234191895,0.6733766198158264,0.5685610175132751,-0.22264684736728668,0.7973516583442688,0.5273764729499817,-0.31472012400627136,0.8868421316146851,0.26902878284454346,-0.1984507143497467,0.6195778250694275,0.024145331233739853,0.13354265689849854,0.7883514761924744,0.5829235315322876,0.38248082995414734,0.6959267854690552,0.46032631397247314,0.32006028294563293,0.5046061873435974,0.15192098915576935,0.0,0.0,0.0,0.0,0.0,0.3370000123977661,0.10107746720314026,0.1846444308757782,0.33717241883277893,0.2297651618719101,0.41972616314888,0.337399959564209,0.3135562241077423,0.5727924704551697,0.33755892515182495,0.3807811141014099,0.6955963373184204,0.3376864194869995,1.0699385383605957,1.5699771869659425,-2.987710584420711e-05,5.565815560985356e-05,-6.184239737922326e-05,3.7105438427533954e-05
1637005025.580416,8.0,0.0,0.20726127922534943,0.6385008692741394,0.030913928523659706,-0.035222411155700684,0.8479961156845093,0.4677491784095764,-0.10536579042673111,0.7375993728637695,0.47908785939216614,-0.20353271067142487,0.8539977669715881,0.44206058979034424,-0.2800397574901581,0.9304096102714539,0.20154409110546112,0.10824093222618103,0.35171738266944885,0.04521263763308525,0.1330878883600235,0.8419944047927856,0.4934377372264862,0.3547019958496094,0.8064844608306885,0.370368629693985,0.3109472095966339,0.6755715608596802,0.16382813453674316,0.0077000451274216175,0.7585248351097107,-0.009191670455038548,-0.04503725841641426,0.7935604453086853,0.539567768573761,-0.10067377239465714,0.7063204646110535,0.5769585371017456,-0.24762652814388275,0.7912428379058838,0.48392412066459656,-0.2328680455684662,0.9087154865264893,0.21149341762065887,-0.16867686808109283,0.7043784856796265,0.04833610728383064,0.15755200386047363,0.7958780527114868,0.5952114462852478,0.351911336183548,0.7171435952186584,0.4999169111251831,0.34876468777656555,0.49430325627326965,0.34912779927253723,0.0077000451274216175,0.7585248351097107,-0.009191670455038548,-0.046506933867931366,0.794536828994751,0.554860532283783,-0.12506091594696045,0.6709028482437134,0.567558765411377,-0.2246357500553131,0.8008885979652405,0.5276733636856079,-0.3083350956439972,0.884483814239502,0.26454636454582214,-0.21757766604423523,0.5955795645713806,0.03386452794075012,0.13162188231945038,0.7881850600242615,0.5820476412773132,0.3784136176109314,0.6882103681564331,0.461045503616333,0.31355106830596924,0.49414384365081787,0.15486781299114227,0.0,0.0,0.0,0.0,0.0,0.3370000123977661,0.10107746720314026,0.1846444308757782,0.33717241883277893,0.2297651618719101,0.41972616314888,0.337399959564209,0.3135562241077423,0.5727924704551697,0.33755892515182495,0.3807811141014099,0.6955963373184204,0.3376864194869995,1.0699385383605957,1.5699771869659425,-2.987710584420711e-05,5.565815560985356e-05,-6.184239737922326e-05,3.7105438427533954e-05
1637005025.6027095,8.0,0.0,0.2063407301902771,0.6372445225715637,0.03566887974739075,-0.036340098828077316,0.8496936559677124,0.46806657314300537,-0.10757510364055634,0.7410168051719666,0.4798380434513092,-0.20576807856559753,0.8573929071426392,0.44269537925720215,-0.2856699228286743,0.9387940764427185,0.20204338431358337,0.11272485554218292,0.34504207968711853,0.045387621968984604,0.1330878883600235,0.8419944047927856,0.4934377372264862,0.36045268177986145,0.791249692440033,0.368030309677124,0.3162652552127838,0.675049364566803,0.16493991017341614,0.00508464127779007,0.7542628049850464,-0.008438101038336754,-0.04500545188784599,0.7971069812774658,0.5393872261047363,-0.09392967820167542,0.7114952206611633,0.5777830481529236,-0.23797425627708435,0.8135719895362854,0.4853891134262085,-0.24612422287464142,0.8768180012702942,0.2135399878025055,-0.14824208617210388,0.7459225654602051,0.04192366078495979,0.14796334505081177,0.7806419730186462,0.5933852791786194,0.3633756637573242,0.7323617935180664,0.5010766983032227,0.34876468777656555,0.49430325627326965,0.34912779927253723,0.00508464127779007,0.7542628049850464,-0.008438101038336754,-0.048326391726732254,0.792691171169281,0.5555305480957031,-0.12739548087120056,0.6694039106369019,0.5684014558792114,-0.22645887732505798,0.7995648384094238,0.5284948348999023,-0.31102627515792847,0.8845288753509521,0.2660847306251526,-0.19461418688297272,0.6147665977478027,0.02402433753013611,0.12980608642101288,0.7858174443244934,0.5825663208961487,0.38249754905700684,0.6975323557853699,0.46468767523765564,0.3164544999599457,0.5077074766159058,0.15611258149147034,0.0,0.0,0.0,0.0,0.0,0.3370000123977661,0.10107746720314026,0.1846444308757782,0.33717241883277893,0.2297651618719101,0.41972616314888,0.337399959564209,0.3135562241077423,0.5727924704551697,0.33755892515182495,0.3807811141014099,0.6955963373184204,0.3376864194869995,1.0699385383605957,1.5699771869659425,-2.987710584420711e-05,5.565815560985356e-05,-6.184239737922326e-05,3.7105438427533954e-05
1637005025.61342,8.0,0.0,0.2063407301902771,0.6372445225715637,0.03566887974739075,-0.036340098828077316,0.8496936559677124,0.46806657314300537,-0.10757510364055634,0.7410168051719666,0.4798380434513092,-0.20576807856559753,0.8573929071426392,0.44269537925720215,-0.2856699228286743,0.9387940764427185,0.20204338431358337,0.11272485554218292,0.34504207968711853,0.045387621968984604,0.1330878883600235,0.8419944047927856,0.4934377372264862,0.36045268177986145,0.791249692440033,0.368030309677124,0.3162652552127838,0.675049364566803,0.16493991017341614,0.00508464127779007,0.7542628049850464,-0.008438101038336754,-0.04500545188784599,0.7971069812774658,0.5393872261047363,-0.09392967820167542,0.7114952206611633,0.5777830481529236,-0.23797425627708435,0.8135719895362854,0.4853891134262085,-0.24612422287464142,0.8768180012702942,0.2135399878025055,-0.14824208617210388,0.7459225654602051,0.04192366078495979,0.14796334505081177,0.7806419730186462,0.5933852791786194,0.3633756637573242,0.7323617935180664,0.5010766983032227,0.34876468777656555,0.49430325627326965,0.34912779927253723,0.00508464127779007,0.7542628049850464,-0.008438101038336754,-0.04645953327417374,0.7983507513999939,0.5552902221679688,-0.1267322599887848,0.675885796546936,0.5685551166534424,-0.2245950698852539,0.8064456582069397,0.5286151170730591,-0.31115153431892395,0.8946263194084167,0.2679204046726227,-0.15392595529556274,0.6843723058700562,-0.007742553949356079,0.13167600333690643,0.7902557849884033,0.5819652676582336,0.39498013257980347,0.7312416434288025,0.46913406252861023,0.3266431391239166,0.5515347123146057,0.15504933893680573,0.0,0.0,0.0,0.0,0.0,0.3370000123977661,0.10107746720314026,0.1846444308757782,0.33717241883277893,0.2297651618719101,0.41972616314888,0.337399959564209,0.3135562241077423,0.5727924704551697,0.33755892515182495,0.3807811141014099,0.6955963373184204,0.3376864194869995,1.0699385383605957,1.5699771869659425,-2.987710584420711e-05,5.565815560985356e-05,-6.184239737922326e-05,3.7105438427533954e-05
1637005025.6357098,8.0,0.0,0.20807655155658722,0.6402544975280762,0.033562298864126205,-0.03744492679834366,0.8565902709960938,0.4698641300201416,-0.11224301904439926,0.750755250453949,0.47659993171691895,-0.21079736948013306,0.8650315999984741,0.44412359595298767,-0.2800397574901581,0.9304096102714539,0.20154409110546112,0.10824093222618103,0.35171738266944885,0.04521263763308525,0.13590751588344574,0.8481489419937134,0.49560466408729553,0.36425501108169556,0.7848962545394897,0.36216190457344055,0.3121418058872223,0.6727989912033081,0.16369885206222534,-0.001922844909131527,0.7504478096961975,-0.007749204058200121,-0.04571923986077309,0.7981607913970947,0.539599597454071,-0.10441344231367111,0.699212908744812,0.5761339664459229,-0.24419622123241425,0.808061420917511,0.4849007725715637,-0.23637866973876953,0.9002695083618164,0.2083302140235901,-0.144689679145813,0.7531453371047974,0.03722309693694115,0.15275774896144867,0.7882601022720337,0.5942983627319336,0.351911336183548,0.7171435952186584,0.4999169111251831,0.34876468777656555,0.49430325627326965,0.34912779927253723,0.00508464127779007,0.7542628049850464,-0.008438101038336754,-0.04645953327417374,0.7983507513999939,0.5552902221679688,-0.1267322599887848,0.675885796546936,0.5685551166534424,-0.2245950698852539,0.8064456582069397,0.5286151170730591,-0.31115153431892395,0.8946263194084167,0.2679204046726227,-0.15392595529556274,0.6843723058700562,-0.007742553949356079,0.13167600333690643,0.7902557849884033,0.5819652676582336,0.39498013257980347,0.7312416434288025,0.46913406252861023,0.3266431391239166,0.5515347123146057,0.15504933893680573,0.0,0.0,0.0,0.0,0.0,0.3370000123977661,0.10107746720314026,0.1846444308757782,0.33717241883277893,0.2297651618719101,0.41972616314888,0.337399959564209,0.3135562241077423,0.5727924704551697,0.33755892515182495,0.3807811141014099,0.6955963373184204,0.3376864194869995,1.0699385383605957,1.5699771869659425,-2.987710584420711e-05,5.565815560985356e-05,-6.184239737922326e-05,3.7105438427533954e-05
1637005025.6464179,8.0,0.0,0.20807655155658722,0.6402544975280762,0.033562298864126205,-0.03744492679834366,0.8565902709960938,0.4698641300201416,-0.11224301904439926,0.750755250453949,0.47659993171691895,-0.21079736948013306,0.8650315999984741,0.44412359595298767,-0.2800397574901581,0.9304096102714539,0.20154409110546112,0.10824093222618103,0.35171738266944885,0.04521263763308525,0.13590751588344574,0.8481489419937134,0.49560466408729553,0.36425501108169556,0.7848962545394897,0.36216190457344055,0.3121418058872223,0.6727989912033081,0.16369885206222534,-0.001922844909131527,0.7504478096961975,-0.007749204058200121,-0.04571923986077309,0.7981607913970947,0.539599597454071,-0.10441344231367111,0.699212908744812,0.5761339664459229,-0.24419622123241425,0.808061420917511,0.4849007725715637,-0.23637866973876953,0.9002695083618164,0.2083302140235901,-0.144689679145813,0.7531453371047974,0.03722309693694115,0.15275774896144867,0.7882601022720337,0.5942983627319336,0.351911336183548,0.7171435952186584,0.4999169111251831,0.34876468777656555,0.49430325627326965,0.34912779927253723,-0.001922844909131527,0.7504478096961975,-0.007749204058200121,-0.0470404289662838,0.7996001243591309,0.556111216545105,-0.13178370893001556,0.6796932220458984,0.5637426376342773,-0.22518201172351837,0.8082746863365173,0.5296595692634583,-0.3018355965614319,0.8806502223014832,0.2611161470413208,-0.15853795409202576,0.6507148146629333,-0.006301454268395901,0.13110114634037018,0.7909255623817444,0.5825628638267517,0.38262858986854553,0.7011067271232605,0.4633607864379883,0.300550252199173,0.5245534777641296,0.15078142285346985,0.0,0.0,0.0,0.0,0.0,0.3370000123977661,0.10107746720314026,0.1846444308757782,0.33717241883277893,0.2297651618719101,0.41972616314888,0.337399959564209,0.3135562241077423,0.5727924704551697,0.33755892515182495,0.3807811141014099,0.6955963373184204,0.3376864194869995,1.0699385383605957,1.5699771869659425,-2.987710584420711e-05,5.565815560985356e-05,-6.184239737922326e-05,3.7105438427533954e-05
1637005025.6687057,8.0,0.0,0.2077953815460205,0.6340571641921997,0.03572450950741768,-0.04174652323126793,0.8588579297065735,0.46988236904144287,-0.10978428274393082,0.7444340586662292,0.4805881083011627,-0.21303261816501617,0.8684266209602356,0.44475841522216797,-0.289326548576355,0.9363182187080383,0.1945062279701233,0.11272485554218292,0.34504207968711853,0.045387621968984604,0.1295395791530609,0.8492892980575562,0.49500635266304016,0.3629685938358307,0.7845845818519592,0.3670072853565216,0.3150772154331207,0.6778255105018616,0.16507117450237274,0.014608166180551052,0.7665625810623169,-0.012832784093916416,-0.0472889244556427,0.7896578907966614,0.5391112565994263,-0.10067377239465714,0.7063204646110535,0.5769585371017456,-0.25060930848121643,0.7931613922119141,0.48392412066459656,-0.2394946664571762,0.9022737741470337,0.2083302140235901,-0.15124815702438354,0.7478527426719666,0.038351256400346756,0.15603145956993103,0.7861543893814087,0.5942983627319336,0.35733839869499207,0.724346935749054,0.4924970865249634,0.33245399594306946,0.4750625193119049,0.3418891727924347,0.014608166180551052,0.7665625810623169,-0.012832784093916416,-0.03593342751264572,0.8080751895904541,0.5511817336082458,-0.11781653761863708,0.6862883567810059,0.5601513385772705,-0.21407026052474976,0.8171316981315613,0.5248262882232666,-0.29215312004089355,0.8895649909973145,0.25671055912971497,-0.15079832077026367,0.6568900942802429,-0.009368153288960457,0.1422034054994583,0.7990186810493469,0.5775371789932251,0.393909215927124,0.7129709720611572,0.4559535086154938,0.3137952387332916,0.5388029217720032,0.1415317952632904,0.0,0.0,0.0,0.0,0.0,0.3370000123977661,0.10107746720314026,0.1846444308757782,0.33717241883277893,0.2297651618719101,0.41972616314888,0.337399959564209,0.3135562241077423,0.5727924704551697,0.33755892515182495,0.3807811141014099,0.6955963373184204,0.3376864194869995,1.0699385383605957,1.5699771869659425,-2.987710584420711e-05,5.565815560985356e-05,-6.184239737922326e-05,3.7105438427533954e-05
1637005025.679414,8.0,0.0,0.2077953815460205,0.6340571641921997,0.03572450950741768,-0.04174652323126793,0.8588579297065735,0.46988236904144287,-0.10978428274393082,0.7444340586662292,0.4805881083011627,-0.21303261816501617,0.8684266209602356,0.44475841522216797,-0.289326548576355,0.9363182187080383,0.1945062279701233,0.11272485554218292,0.34504207968711853,0.045387621968984604,0.1295395791530609,0.8492892980575562,0.49500635266304016,0.3629685938358307,0.7845845818519592,0.3670072853565216,0.3150772154331207,0.6778255105018616,0.16507117450237274,0.014608166180551052,0.7665625810623169,-0.012832784093916416,-0.0472889244556427,0.7896578907966614,0.5391112565994263,-0.10067377239465714,0.7063204646110535,0.5769585371017456,-0.25060930848121643,0.7931613922119141,0.48392412066459656,-0.2394946664571762,0.9022737741470337,0.2083302140235901,-0.15124815702438354,0.7478527426719666,0.038351256400346756,0.15603145956993103,0.7861543893814087,0.5942983627319336,0.35733839869499207,0.724346935749054,0.4924970865249634,0.33245399594306946,0.4750625193119049,0.3418891727924347,0.014608166180551052,0.7665625810623169,-0.012832784093916416,-0.048615120351314545,0.7901527285575867,0.5509370565414429,-0.12351742386817932,0.6641842722892761,0.56272292137146,-0.22673793137073517,0.8001033067703247,0.5248103141784668,-0.3081709146499634,0.8725680112838745,0.2577015161514282,-0.17162293195724487,0.6336251497268677,-0.005314918234944344,0.12950770556926727,0.7802021503448486,0.5770638585090637,0.3812313377857208,0.7029151916503906,0.44976675510406494,0.3056641221046448,0.5344614386558533,0.1311342567205429,0.0,0.0,0.0,0.0,0.0,0.3370000123977661,0.10107746720314026,0.1846444308757782,0.33717241883277893,0.2297651618719101,0.41972616314888,0.337399959564209,0.3135562241077423,0.5727924704551697,0.33755892515182495,0.3807811141014099,0.6955963373184204,0.3376864194869995,1.0699385383605957,1.5699771869659425,-2.987710584420711e-05,5.565815560985356e-05,-6.184239737922326e-05,3.7105438427533954e-05
1637005025.701769,8.0,0.0,0.20403125882148743,0.6452268362045288,0.03019232675433159,-0.029114417731761932,0.8484618067741394,0.46899208426475525,-0.11442836374044418,0.7418995499610901,0.4791903495788574,-0.19728662073612213,0.852091372013092,0.4483826160430908,-0.2879219651222229,0.9421477913856506,0.2022431194782257,0.10374321043491364,0.35450857877731323,0.05362141132354736,0.13905778527259827,0.8448322415351868,0.4896015524864197,0.35509347915649414,0.7917699217796326,0.3671802878379822,0.3162652552127838,0.675049364566803,0.16493991017341614,0.005900816060602665,0.7513566613197327,-0.011772116646170616,-0.05032862350344658,0.7874513864517212,0.5388976335525513,-0.10067223757505417,0.7063228487968445,0.5805180072784424,-0.25341498851776123,0.7866426706314087,0.48349684476852417,-0.23288975656032562,0.9182373881340027,0.20727942883968353,-0.16131845116615295,0.7353048324584961,0.03706101328134537,0.15275774896144867,0.7882601022720337,0.5942983627319336,0.35734012722969055,0.7243496179580688,0.49648168683052063,0.36195608973503113,0.5155432224273682,0.349118173122406,0.014608166180551052,0.7665625810623169,-0.012832784093916416,-0.048615120351314545,0.7901527285575867,0.5509370565414429,-0.12351742386817932,0.6641842722892761,0.56272292137146,-0.22673793137073517,0.8001033067703247,0.5248103141784668,-0.3081709146499634,0.8725680112838745,0.2577015161514282,-0.17162293195724487,0.6336251497268677,-0.005314918234944344,0.12950770556926727,0.7802021503448486,0.5770638585090637,0.3812313377857208,0.7029151916503906,0.44976675510406494,0.3056641221046448,0.5344614386558533,0.1311342567205429,0.0,0.0,0.0,0.0,0.0,0.3370000123977661,0.10107746720314026,0.1846444308757782,0.33717241883277893,0.2297651618719101,0.41972616314888,0.337399959564209,0.3135562241077423,0.5727924704551697,0.33755892515182495,0.3807811141014099,0.6955963373184204,0.3376864194869995,1.0699385383605957,1.5699771869659425,-2.987710584420711e-05,5.565815560985356e-05,-6.184239737922326e-05,3.7105438427533954e-05
1637005025.7124262,8.0,0.0,0.20403125882148743,0.6452268362045288,0.03019232675433159,-0.029114417731761932,0.8484618067741394,0.46899208426475525,-0.11442836374044418,0.7418995499610901,0.4791903495788574,-0.19728662073612213,0.852091372013092,0.4483826160430908,-0.2879219651222229,0.9421477913856506,0.2022431194782257,0.10374321043491364,0.35450857877731323,0.05362141132354736,0.13905778527259827,0.8448322415351868,0.4896015524864197,0.35509347915649414,0.7917699217796326,0.3671802878379822,0.3162652552127838,0.675049364566803,0.16493991017341614,0.005900816060602665,0.7513566613197327,-0.011772116646170616,-0.05032862350344658,0.7874513864517212,0.5388976335525513,-0.10067223757505417,0.7063228487968445,0.5805180072784424,-0.25341498851776123,0.7866426706314087,0.48349684476852417,-0.23288975656032562,0.9182373881340027,0.20727942883968353,-0.16131845116615295,0.7353048324584961,0.03706101328134537,0.15275774896144867,0.7882601022720337,0.5942983627319336,0.35734012722969055,0.7243496179580688,0.49648168683052063,0.36195608973503113,0.5155432224273682,0.349118173122406,0.005900816060602665,0.7513566613197327,-0.011772116646170616,-0.051655057817697525,0.7883028388023376,0.5518877506256104,-0.14328965544700623,0.6738457083702087,0.5628415942192078,-0.23057866096496582,0.7921645045280457,0.5299606919288635,-0.3248644173145294,0.8858480453491211,0.2739076614379883,-0.22004306316375732,0.617929995059967,0.024610428139567375,0.12726853787899017,0.7844412326812744,0.5738148093223572,0.3812412917613983,0.7051014304161072,0.4523831307888031,0.3208354115486145,0.5235167741775513,0.13775339722633362,0.0,0.0,0.0,0.0,0.0,0.3370000123977661,0.10107746720314026,0.1846444308757782,0.33717241883277893,0.2297651618719101,0.41972616314888,0.337399959564209,0.3135562241077423,0.5727924704551697,0.33755892515182495,0.3807811141014099,0.6955963373184204,0.3376864194869995,1.0699385383605957,1.5699771869659425,-2.987710584420711e-05,5.565815560985356e-05,-6.184239737922326e-05,3.7105438427533954e-05
1637005025.7347093,8.0,0.0,0.201194167137146,0.6388012170791626,0.03965136408805847,-0.03685019537806511,0.8544697761535645,0.47511425614356995,-0.10536579042673111,0.7375993728637695,0.47908785939216614,-0.2000730186700821,0.856340229511261,0.4491918087005615,-0.28633686900138855,0.9425318241119385,0.1962728202342987,0.09220113605260849,0.3452441990375519,0.04067869856953621,0.12637262046337128,0.8525992631912231,0.5010367035865784,0.3548872172832489,0.7886041402816772,0.37160661816596985,0.31388920545578003,0.6806015372276306,0.16520242393016815,0.013454324565827847,0.7607643604278564,-0.013679305091500282,-0.046288516372442245,0.7902035713195801,0.539354145526886,-0.10067377239465714,0.7063204646110535,0.5769585371017456,-0.25341498851776123,0.7866426706314087,0.48349684476852417,-0.2394946664571762,0.9022737741470337,0.2083302140235901,-0.14365622401237488,0.7715026140213013,0.034966807812452316,0.16083796322345734,0.7937644720077515,0.5952114462852478,0.35734012722969055,0.7243496179580688,0.49648168683052063,0.348763108253479,0.4943007826805115,0.34546327590942383,0.005900816060602665,0.7513566613197327,-0.011772116646170616,-0.051655057817697525,0.7883028388023376,0.5518877506256104,-0.14328965544700623,0.6738457083702087,0.5628415942192078,-0.23057866096496582,0.7921645045280457,0.5299606919288635,-0.3248644173145294,0.8858480453491211,0.2739076614379883,-0.22004306316375732,0.617929995059967,0.024610428139567375,0.12726853787899017,0.7844412326812744,0.5738148093223572,0.3812412917613983,0.7051014304161072,0.4523831307888031,0.3208354115486145,0.5235167741775513,0.13775339722633362,0.0,0.0,0.0,0.0,0.0,0.3370000123977661,0.10107746720314026,0.1846444308757782,0.33717241883277893,0.2297651618719101,0.41972616314888,0.337399959564209,0.3135562241077423,0.5727924704551697,0.33755892515182495,0.3807811141014099,0.6955963373184204,0.3376864194869995,1.0699385383605957,1.5699771869659425,-2.987710584420711e-05,5.565815560985356e-05,-6.184239737922326e-05,3.7105438427533954e-05
1637005025.7454112,8.0,0.0,0.201194167137146,0.6388012170791626,0.03965136408805847,-0.03685019537806511,0.8544697761535645,0.47511425614356995,-0.10536579042673111,0.7375993728637695,0.47908785939216614,-0.2000730186700821,0.856340229511261,0.4491918087005615,-0.28633686900138855,0.9425318241119385,0.1962728202342987,0.09220113605260849,0.3452441990375519,0.04067869856953621,0.12637262046337128,0.8525992631912231,0.5010367035865784,0.3548872172832489,0.7886041402816772,0.37160661816596985,0.31388920545578003,0.6806015372276306,0.16520242393016815,0.013454324565827847,0.7607643604278564,-0.013679305091500282,-0.046288516372442245,0.7902035713195801,0.539354145526886,-0.10067377239465714,0.7063204646110535,0.5769585371017456,-0.25341498851776123,0.7866426706314087,0.48349684476852417,-0.2394946664571762,0.9022737741470337,0.2083302140235901,-0.14365622401237488,0.7715026140213013,0.034966807812452316,0.16083796322345734,0.7937644720077515,0.5952114462852478,0.35734012722969055,0.7243496179580688,0.49648168683052063,0.348763108253479,0.4943007826805115,0.34546327590942383,0.013454324565827847,0.7607643604278564,-0.013679305091500282,-0.047443047165870667,0.7907724976539612,0.5500414967536926,-0.12177050113677979,0.6639885306358337,0.5543521642684937,-0.22550342977046967,0.7928130030632019,0.5217626094818115,-0.3141370713710785,0.8813724517822266,0.2618955671787262,-0.16043251752853394,0.6716431379318237,-0.01614260859787464,0.13061733543872833,0.7887319922447205,0.5783204436302185,0.3798403739929199,0.7006933093070984,0.4531018137931824,0.3160107731819153,0.5325446724891663,0.13175223767757416,0.0,0.0,0.0,0.0,0.0,0.3370000123977661,0.10107746720314026,0.1846444308757782,0.33717241883277893,0.2297651618719101,0.41972616314888,0.337399959564209,0.3135562241077423,0.5727924704551697,0.33755892515182495,0.3807811141014099,0.6955963373184204,0.3376864194869995,1.0699385383605957,1.5699771869659425,-2.987710584420711e-05,5.565815560985356e-05,-6.184239737922326e-05,3.7105438427533954e-05
1637005025.7677104,8.0,0.0,0.201194167137146,0.6388012170791626,0.03965136408805847,-0.03685019537806511,0.8544697761535645,0.47511425614356995,-0.10536579042673111,0.7375993728637695,0.47908785939216614,-0.2000730186700821,0.856340229511261,0.4491918087005615,-0.28633686900138855,0.9425318241119385,0.1962728202342987,0.09220113605260849,0.3452441990375519,0.04067869856953621,0.12637262046337128,0.8525992631912231,0.5010367035865784,0.3548872172832489,0.7886041402816772,0.37160661816596985,0.31388920545578003,0.6806015372276306,0.16520242393016815,0.010240806266665459,0.7545109987258911,-0.01086072064936161,-0.037506550550460815,0.804174542427063,0.5405633449554443,-0.10366741567850113,0.7082460522651672,0.5769585371017456,-0.24119171500205994,0.8061288595199585,0.4849007725715637,-0.23599790036678314,0.9107251763343811,0.20777392387390137,-0.16026172041893005,0.753650426864624,0.038351256400346756,0.1661786139011383,0.8022202253341675,0.5962259769439697,0.3552486002445221,0.7149932980537415,0.49594685435295105,0.34567949175834656,0.4962807595729828,0.34179872274398804,0.013454324565827847,0.7607643604278564,-0.013679305091500282,-0.047443047165870667,0.7907724976539612,0.5500414967536926,-0.12177050113677979,0.6639885306358337,0.5543521642684937,-0.22550342977046967,0.7928130030632019,0.5217626094818115,-0.3141370713710785,0.8813724517822266,0.2618955671787262,-0.16043251752853394,0.6716431379318237,-0.01614260859787464,0.13061733543872833,0.7887319922447205,0.5783204436302185,0.3798403739929199,0.7006933093070984,0.4531018137931824,0.3160107731819153,0.5325446724891663,0.13175223767757416,0.0,0.0,0.0,0.0,0.0,0.3370000123977661,0.10107746720314026,0.1846444308757782,0.33717241883277893,0.2297651618719101,0.41972616314888,0.337399959564209,0.3135562241077423,0.5727924704551697,0.33755892515182495,0.3807811141014099,0.6955963373184204,0.3376864194869995,1.0699385383605957,1.5699771869659425,-2.987710584420711e-05,5.565815560985356e-05,-6.184239737922326e-05,3.7105438427533954e-05
1637005025.7784069,8.0,0.0,0.20709717273712158,0.6344155669212341,0.037857383489608765,-0.035128239542245865,0.8508096933364868,0.4745265543460846,-0.10978428274393082,0.7444340586662292,0.4805881083011627,-0.20157021284103394,0.855977475643158,0.4548310339450836,-0.27482256293296814,0.9332569241523743,0.2031143456697464,0.0960579663515091,0.35636112093925476,0.056670356541872025,0.1313137412071228,0.8456418514251709,0.4942220449447632,0.3547019958496094,0.8064844608306885,0.370368629693985,0.3150772154331207,0.6778255105018616,0.16507117450237274,0.010240806266665459,0.7545109987258911,-0.01086072064936161,-0.037506550550460815,0.804174542427063,0.5405633449554443,-0.10366741567850113,0.7082460522651672,0.5769585371017456,-0.24119171500205994,0.8061288595199585,0.4849007725715637,-0.23599790036678314,0.9107251763343811,0.20777392387390137,-0.16026172041893005,0.753650426864624,0.038351256400346756,0.1661786139011383,0.8022202253341675,0.5962259769439697,0.3552486002445221,0.7149932980537415,0.49594685435295105,0.34567949175834656,0.4962807595729828,0.34179872274398804,0.010240806266665459,0.7545109987258911,-0.01086072064936161,-0.03802890703082085,0.806134819984436,0.5525175929069519,-0.1228170245885849,0.6862174272537231,0.5594539046287537,-0.21702924370765686,0.8118382096290588,0.5316439270973206,-0.293875128030777,0.8930954337120056,0.26570868492126465,-0.17704860866069794,0.645878791809082,0.000846108712721616,0.14097142219543457,0.8004314303398132,0.573391318321228,0.37975889444351196,0.6891284584999084,0.4463685154914856,0.32058805227279663,0.4951108694076538,0.13900920748710632,0.0,0.0,0.0,0.0,0.0,0.3370000123977661,0.10107746720314026,0.1846444308757782,0.33717241883277893,0.2297651618719101,0.41972616314888,0.337399959564209,0.3135562241077423,0.5727924704551697,0.33755892515182495,0.3807811141014099,0.6955963373184204,0.3376864194869995,1.0699385383605957,1.5699721279144288,-2.987710584420711e-05,5.565815560985356e-05,-6.184239737922326e-05,3.7105438427533954e-05
1637005025.8007097,8.0,0.0,0.20709717273712158,0.6344155669212341,0.037857383489608765,-0.035128239542245865,0.8508096933364868,0.4745265543460846,-0.10978428274393082,0.7444340586662292,0.4805881083011627,-0.20157021284103394,0.855977475643158,0.4548310339450836,-0.27482256293296814,0.9332569241523743,0.2031143456697464,0.0960579663515091,0.35636112093925476,0.056670356541872025,0.1313137412071228,0.8456418514251709,0.4942220449447632,0.3547019958496094,0.8064844608306885,0.370368629693985,0.3150772154331207,0.6778255105018616,0.16507117450237274,0.012353052385151386,0.7513655424118042,-0.0143864955753088,-0.03911446034908295,0.800454318523407,0.5420989394187927,-0.10739468038082123,0.7011338472366333,0.5796805024147034,-0.2444075345993042,0.7986883521080017,0.4879719316959381,-0.2394946664571762,0.9022737741470337,0.2083302140235901,-0.16676416993141174,0.7483254671096802,0.043038856238126755,0.1661786139011383,0.8022202253341675,0.5962259769439697,0.35734012722969055,0.7243496179580688,0.49648168683052063,0.356747031211853,0.5093783736228943,0.3454292416572571,0.010240806266665459,0.7545109987258911,-0.01086072064936161,-0.03854473680257797,0.8052543997764587,0.5525531768798828,-0.12291476875543594,0.6850375533103943,0.5594034194946289,-0.21751394867897034,0.8108111619949341,0.5313752889633179,-0.29483577609062195,0.8923838138580322,0.2656746506690979,-0.1762525886297226,0.646445631980896,0.0004028400289826095,0.1404244750738144,0.7996976375579834,0.5737310647964478,0.37969809770584106,0.6893093585968018,0.44682490825653076,0.320259690284729,0.4963169991970062,0.13887237012386322,0.0,0.0,0.0,0.0,0.0,0.3370000123977661,0.10107746720314026,0.1846444308757782,0.3371734917163849,0.2297651618719101,0.41972616314888,0.3374023735523224,0.3135562241077423,0.5727924704551697,0.3375622034072876,0.3807811141014099,0.6955963373184204,0.33769044280052185,1.0699385383605957,1.5699721279144288,-3.485662213061005e-05,5.565815560985356e-05,-6.184239737922326e-05,3.7105438427533954e-05
1637005025.8114038,8.0,0.0,0.20690307021141052,0.6430253982543945,0.03352324664592743,-0.03387352451682091,0.8506903648376465,0.4716944992542267,-0.10978428274393082,0.7444340586662292,0.4805881083011627,-0.19728662073612213,0.852091372013092,0.4483826160430908,-0.2696053385734558,0.9361042380332947,0.20468460023403168,0.09811563044786453,0.3609066903591156,0.05775429308414459,0.1295395791530609,0.8492892980575562,0.49500635266304016,0.3493078351020813,0.8069854378700256,0.3695080578327179,0.3162652552127838,0.675049364566803,0.16493991017341614,0.012353052385151386,0.7513655424118042,-0.0143864955753088,-0.03911446034908295,0.800454318523407,0.5420989394187927,-0.10739468038082123,0.7011338472366333,0.5796805024147034,-0.2444075345993042,0.7986883521080017,0.4879719316959381,-0.2394946664571762,0.9022737741470337,0.2083302140235901,-0.16676416993141174,0.7483254671096802,0.043038856238126755,0.1661786139011383,0.8022202253341675,0.5962259769439697,0.35734012722969055,0.7243496179580688,0.49648168683052063,0.356747031211853,0.5093783736228943,0.3454292416572571,0.012353052385151386,0.7513655424118042,-0.0143864955753088,-0.03987707942724228,0.801002562046051,0.5488170981407166,-0.1251857727766037,0.6816825866699219,0.5589405298233032,-0.21834270656108856,0.8023597598075867,0.5231745839118958,-0.2962772250175476,0.8932713866233826,0.2607038915157318,-0.17968331277370453,0.6462621688842773,-0.004454524256289005,0.138588547706604,0.7996453642845154,0.5744596719741821,0.3826519548892975,0.7007734775543213,0.4471803903579712,0.3335503935813904,0.5028093457221985,0.14056503772735596,0.0,0.0,0.0,0.0,0.0,0.3370000123977661,0.10107746720314026,0.1846444308757782,0.3371734917163849,0.2297651618719101,0.41972616314888,0.3374023735523224,0.3135562241077423,0.5727924704551697,0.3375622034072876,0.3807811141014099,0.6955963373184204,0.33769044280052185,1.0699385383605957,1.5699721279144288,-3.485662213061005e-05,5.565815560985356e-05,-6.802663508569821e-05,3.7105438427533954e-05
1637005025.8337145,8.0,0.0,0.20690307021141052,0.6430253982543945,0.03352324664592743,-0.03387352451682091,0.8506903648376465,0.4716944992542267,-0.10978428274393082,0.7444340586662292,0.4805881083011627,-0.19728662073612213,0.852091372013092,0.4483826160430908,-0.2696053385734558,0.9361042380332947,0.20468460023403168,0.09811563044786453,0.3609066903591156,0.05775429308414459,0.1295395791530609,0.8492892980575562,0.49500635266304016,0.3493078351020813,0.8069854378700256,0.3695080578327179,0.3162652552127838,0.675049364566803,0.16493991017341614,0.012353052385151386,0.7513655424118042,-0.0143864955753088,-0.03911446034908295,0.800454318523407,0.5420989394187927,-0.10739468038082123,0.7011338472366333,0.5796805024147034,-0.2444075345993042,0.7986883521080017,0.4879719316959381,-0.2394946664571762,0.9022737741470337,0.2083302140235901,-0.16676416993141174,0.7483254671096802,0.043038856238126755,0.1661786139011383,0.8022202253341675,0.5962259769439697,0.35734012722969055,0.7243496179580688,0.49648168683052063,0.356747031211853,0.5093783736228943,0.3454292416572571,0.012353052385151386,0.7513655424118042,-0.0143864955753088,-0.039736635982990265,0.8010477423667908,0.5488261580467224,-0.12500756978988647,0.6816895008087158,0.5588163733482361,-0.2182266116142273,0.8025780320167542,0.523363471031189,-0.29615575075149536,0.8931085467338562,0.26075950264930725,-0.1794804334640503,0.6461424231529236,-0.004403290804475546,0.13875333964824677,0.7995173931121826,0.5742888450622559,0.38263699412345886,0.70017009973526,0.44703516364097595,0.33310365676879883,0.5023878812789917,0.14037185907363892,0.0,0.0,0.0,0.0,0.0,0.3370000123977661,0.10107746720314026,0.1846444308757782,0.3371734917163849,0.2297651618719101,0.41972616314888,0.33740371465682983,0.3135562241077423,0.5727924704551697,0.33756548166275024,0.3807811141014099,0.6955963373184204,0.33769530057907104,1.0699385383605957,1.5699721279144288,-3.485662213061005e-05,5.565815560985356e-05,-6.802663508569821e-05,3.7105438427533954e-05
1637005025.844407,8.0,0.0,0.2080405056476593,0.6449971795082092,0.03683564439415932,-0.03296545892953873,0.8540706634521484,0.4727917015552521,-0.1119934692978859,0.7478513121604919,0.481338232755661,-0.2000730186700821,0.856340229511261,0.4491918087005615,-0.2879219651222229,0.9421477913856506,0.2022431194782257,0.09980297833681107,0.3584049642086029,0.05779751390218735,0.13414210081100464,0.8518011569976807,0.4963915944099426,0.3563865125179291,0.792083203792572,0.362309992313385,0.3121418058872223,0.6727989912033081,0.16369885206222534,0.003719130763784051,0.7444395422935486,-0.009066661819815636,-0.045685622841119766,0.7933829426765442,0.5393553972244263,-0.10366588085889816,0.7082484364509583,0.5805180072784424,-0.24740269780158997,0.8006114959716797,0.48441246151924133,-0.23912453651428223,0.9127398133277893,0.21149341762065887,-0.1722782999277115,0.7613831162452698,0.04192366078495979,0.15603145956993103,0.7861543893814087,0.5942983627319336,0.360689640045166,0.722191333770752,0.4924970865249634,0.35397985577583313,0.5004537105560303,0.3417697846889496,0.003719130763784051,0.7444395422935486,-0.009066661819815636,-0.0468289852142334,0.794794499874115,0.5542266964912415,-0.13474275171756744,0.6773198843002319,0.5636184215545654,-0.22534817457199097,0.79734867811203,0.5290525555610657,-0.3192485272884369,0.8867871761322021,0.27134525775909424,-0.21316900849342346,0.6441895961761475,-0.0021693226881325245,0.13169020414352417,0.7922403216362,0.5794008374214172,0.3848697543144226,0.7164875268936157,0.45408421754837036,0.31318700313568115,0.5322368741035461,0.143396258354187,0.0,0.0,0.0,0.0,0.0,0.3370000123977661,0.10107746720314026,0.1846444308757782,0.3371734917163849,0.2297651618719101,0.41972616314888,0.33740371465682983,0.3135562241077423,0.5727924704551697,0.33756548166275024,0.3807811141014099,0.6955963373184204,0.33769530057907104,1.0699385383605957,1.5699721279144288,-3.983613841701299e-05,5.565815560985356e-05,-6.802663508569821e-05,3.7105438427533954e-05
1637005025.8667064,8.0,0.0,0.2080405056476593,0.6449971795082092,0.03683564439415932,-0.03296545892953873,0.8540706634521484,0.4727917015552521,-0.1119934692978859,0.7478513121604919,0.481338232755661,-0.2000730186700821,0.856340229511261,0.4491918087005615,-0.2879219651222229,0.9421477913856506,0.2022431194782257,0.09980297833681107,0.3584049642086029,0.05779751390218735,0.13414210081100464,0.8518011569976807,0.4963915944099426,0.3563865125179291,0.792083203792572,0.362309992313385,0.3121418058872223,0.6727989912033081,0.16369885206222534,0.003719130763784051,0.7444395422935486,-0.009066661819815636,-0.045685622841119766,0.7933829426765442,0.5393553972244263,-0.10366588085889816,0.7082484364509583,0.5805180072784424,-0.24740269780158997,0.8006114959716797,0.48441246151924133,-0.23912453651428223,0.9127398133277893,0.21149341762065887,-0.1722782999277115,0.7613831162452698,0.04192366078495979,0.15603145956993103,0.7861543893814087,0.5942983627319336,0.360689640045166,0.722191333770752,0.4924970865249634,0.35397985577583313,0.5004537105560303,0.3417697846889496,0.003719130763784051,0.7444395422935486,-0.009066661819815636,-0.04702441021800041,0.7947092652320862,0.554216742515564,-0.1346060186624527,0.676993191242218,0.563688337802887,-0.2255401909351349,0.79713374376297,0.5290057063102722,-0.3174338936805725,0.8868920803070068,0.2706869840621948,-0.21002651751041412,0.6436947584152222,-0.0017747798701748252,0.13149137794971466,0.7922847867012024,0.5794277787208557,0.38367271423339844,0.7134690284729004,0.4539874792098999,0.3145934045314789,0.527230441570282,0.14389558136463165,0.0,0.0,0.0,0.0,0.0,0.3370000123977661,0.10107746720314026,0.1846444308757782,0.3371734917163849,0.2297651618719101,0.41972616314888,0.3374050557613373,0.3135561943054199,0.5727924704551697,0.33756768703460693,0.3807811141014099,0.6955963373184204,0.33769819140434265,1.0699385383605957,1.5699721279144288,-3.983613841701299e-05,5.565815560985356e-05,-6.802663508569821e-05,3.7105438427533954e-05
1637005025.8774443,8.0,0.0,0.20587436854839325,0.6365929245948792,0.03777577355504036,-0.035822004079818726,0.8506416082382202,0.4771396219730377,-0.10734063386917114,0.7503905892372131,0.4827386438846588,-0.20157021284103394,0.855977475643158,0.4548310339450836,-0.2879219651222229,0.9421477913856506,0.2022431194782257,0.08621834218502045,0.34266284108161926,0.04804246500134468,0.12992620468139648,0.8453056812286377,0.4994482100009918,0.3514774441719055,0.8012796640396118,0.3686351478099823,0.3174533247947693,0.6722732186317444,0.16480864584445953,0.005734143778681755,0.7455245852470398,-0.0057326750829815865,-0.04339351877570152,0.7925048470497131,0.5413410663604736,-0.10366741567850113,0.7082460522651672,0.5769585371017456,-0.24762499332427979,0.7912452220916748,0.4874706566333771,-0.23912453651428223,0.9127398133277893,0.21149341762065887,-0.17182525992393494,0.7706062197685242,0.04439377412199974,0.16083796322345734,0.7937644720077515,0.5952114462852478,0.3519096374511719,0.7171409726142883,0.49594685435295105,0.3619544804096222,0.5155407190322876,0.3454132378101349,0.003719130763784051,0.7444395422935486,-0.009066661819815636,-0.04702441021800041,0.7947092652320862,0.554216742515564,-0.1346060186624527,0.676993191242218,0.563688337802887,-0.2255401909351349,0.79713374376297,0.5290057063102722,-0.3174338936805725,0.8868920803070068,0.2706869840621948,-0.21002651751041412,0.6436947584152222,-0.0017747798701748252,0.13149137794971466,0.7922847867012024,0.5794277787208557,0.38367271423339844,0.7134690284729004,0.4539874792098999,0.3145934045314789,0.527230441570282,0.14389558136463165,0.0,0.0,0.0,0.0,0.0,0.3370000123977661,0.10107746720314026,0.1846444308757782,0.3371734917163849,0.2297651618719101,0.41972616314888,0.3374050557613373,0.3135561943054199,0.5727924704551697,0.33756768703460693,0.3807811141014099,0.6955963373184204,0.33769819140434265,1.0699385383605957,1.5699721279144288,-3.983613841701299e-05,5.565815560985356e-05,-6.802663508569821e-05,3.7105438427533954e-05
1637005025.8997228,8.0,0.0,0.20587436854839325,0.6365929245948792,0.03777577355504036,-0.035822004079818726,0.8506416082382202,0.4771396219730377,-0.10734063386917114,0.7503905892372131,0.4827386438846588,-0.20157021284103394,0.855977475643158,0.4548310339450836,-0.2879219651222229,0.9421477913856506,0.2022431194782257,0.08621834218502045,0.34266284108161926,0.04804246500134468,0.12992620468139648,0.8453056812286377,0.4994482100009918,0.3514774441719055,0.8012796640396118,0.3686351478099823,0.3174533247947693,0.6722732186317444,0.16480864584445953,0.005734143778681755,0.7455245852470398,-0.0057326750829815865,-0.04339351877570152,0.7925048470497131,0.5413410663604736,-0.10366741567850113,0.7082460522651672,0.5769585371017456,-0.24762499332427979,0.7912452220916748,0.4874706566333771,-0.23912453651428223,0.9127398133277893,0.21149341762065887,-0.17182525992393494,0.7706062197685242,0.04439377412199974,0.16083796322345734,0.7937644720077515,0.5952114462852478,0.3519096374511719,0.7171409726142883,0.49594685435295105,0.3619544804096222,0.5155407190322876,0.3454132378101349,0.005734143778681755,0.7455245852470398,-0.0057326750829815865,-0.04486512765288353,0.7939121127128601,0.5577285289764404,-0.13016490638256073,0.6743434071540833,0.5644063949584961,-0.22346650063991547,0.7996618151664734,0.5336899757385254,-0.31227827072143555,0.8882870078086853,0.2739061713218689,-0.20062892138957977,0.6524876952171326,-0.003311786102131009,0.1337362378835678,0.7881624698638916,0.5817670226097107,0.3782566487789154,0.6901049613952637,0.45473507046699524,0.32682332396507263,0.49508944153785706,0.14661608636379242,0.0,0.0,0.0,0.0,0.0,0.3370000123977661,0.10107746720314026,0.1846444308757782,0.3371734917163849,0.2297651618719101,0.41972616314888,0.3374050557613373,0.3135561943054199,0.5727924704551697,0.33756768703460693,0.3807811141014099,0.6955963373184204,0.33769819140434265,1.0699385383605957,1.5699721279144288,-3.983613841701299e-05,5.565815560985356e-05,-6.802663508569821e-05,3.7105438427533954e-05
1637005025.9104235,8.0,0.0,0.2136901617050171,0.6276053786277771,0.03656785562634468,-0.03645806014537811,0.8575858473777771,0.47628599405288696,-0.11339883506298065,0.7475107908248901,0.4866316020488739,-0.20882363617420197,0.867022693157196,0.4569673240184784,-0.2792057693004608,0.9370723962783813,0.20931516587734222,0.08623861521482468,0.34073400497436523,0.05232100933790207,0.13590751588344574,0.8481489419937134,0.49560466408729553,0.356858491897583,0.8007713556289673,0.3694917559623718,0.3162652552127838,0.675049364566803,0.16493991017341614,0.0005057652597315609,0.7381864786148071,-0.00590783916413784,-0.044801127165555954,0.789248526096344,0.5411217212677002,-0.11065730452537537,0.6949087381362915,0.5789477229118347,-0.25044021010398865,0.7847325801849365,0.48703205585479736,-0.2426075041294098,0.9042829871177673,0.21574009954929352,-0.1679488569498062,0.7871382832527161,0.04580039530992508,0.16083796322345734,0.7937644720077515,0.5952114462852478,0.3606913387775421,0.7221940159797668,0.49648168683052063,0.3189893662929535,0.4646957516670227,0.3383488059043884,0.0005057652597315609,0.7381864786148071,-0.00590783916413784,-0.045587655156850815,0.791388988494873,0.5575059056282043,-0.1293705850839615,0.6711613535881042,0.5694664120674133,-0.2245367467403412,0.8017644882202148,0.5380396842956543,-0.29875802993774414,0.8756072521209717,0.26921260356903076,-0.16745677590370178,0.6774724721908569,-0.028141191229224205,0.13336144387722015,0.7810134887695312,0.5769720673561096,0.38374054431915283,0.6928909420967102,0.4541415274143219,0.32095223665237427,0.5035499930381775,0.14459128677845,0.0,0.0,0.0,0.0,0.0,0.3370000123977661,0.10107746720314026,0.1846444308757782,0.3371734917163849,0.2297651618719101,0.41972616314888,0.3374050557613373,0.3135561943054199,0.5727924704551697,0.33756768703460693,0.3807811141014099,0.6955963373184204,0.33769819140434265,1.0699385383605957,1.5699721279144288,-3.983613841701299e-05,5.565815560985356e-05,-6.802663508569821e-05,3.7105438427533954e-05
1637005025.932738,8.0,0.0,0.2136901617050171,0.6276053786277771,0.03656785562634468,-0.03645806014537811,0.8575858473777771,0.47628599405288696,-0.11339883506298065,0.7475107908248901,0.4866316020488739,-0.20882363617420197,0.867022693157196,0.4569673240184784,-0.2792057693004608,0.9370723962783813,0.20931516587734222,0.08623861521482468,0.34073400497436523,0.05232100933790207,0.13590751588344574,0.8481489419937134,0.49560466408729553,0.356858491897583,0.8007713556289673,0.3694917559623718,0.3162652552127838,0.675049364566803,0.16493991017341614,-0.0071971360594034195,0.734818696975708,-0.00514215650036931,-0.04628775268793106,0.7902047634124756,0.5411217212677002,-0.10666105896234512,0.710171639919281,0.5769585371017456,-0.25341346859931946,0.7866450548171997,0.48703205585479736,-0.23602400720119476,0.9202640056610107,0.21847672760486603,-0.19803385436534882,0.7315834760665894,0.04736031964421272,0.16083796322345734,0.7937644720077515,0.5952114462852478,0.355246901512146,0.7149906158447266,0.491976797580719,0.3272356688976288,0.4689071476459503,0.34191811084747314,0.0005057652597315609,0.7381864786148071,-0.00590783916413784,-0.046158965677022934,0.7907788753509521,0.5575161576271057,-0.13014322519302368,0.6706271171569824,0.5688088536262512,-0.22507594525814056,0.8005744218826294,0.5374631881713867,-0.3011760115623474,0.8763150572776794,0.26969143748283386,-0.17169009149074554,0.6731424331665039,-0.02504737675189972,0.1327580213546753,0.7809832692146301,0.5775690674781799,0.3824288845062256,0.6915724873542786,0.4542289674282074,0.32103919982910156,0.5014414191246033,0.14488251507282257,0.0,0.0,0.0,0.0,0.0,0.3370000123977661,0.10107746720314026,0.1846444308757782,0.3371734917163849,0.2297651618719101,0.41972616314888,0.3374050557613373,0.3135561943054199,0.5727924704551697,0.33756768703460693,0.3807811141014099,0.6955963373184204,0.33769819140434265,1.0699385383605957,1.5699721279144288,-3.983613841701299e-05,5.565815560985356e-05,-6.802663508569821e-05,3.7105438427533954e-05
1637005025.9434159,8.0,0.0,0.2158801257610321,0.6195111870765686,0.04138224944472313,-0.03557536005973816,0.8557597398757935,0.4758925139904022,-0.11726956069469452,0.7534899115562439,0.4879617393016815,-0.20882363617420197,0.867022693157196,0.4569673240184784,-0.2792057693004608,0.9370723962783813,0.20931516587734222,0.08511339128017426,0.340461403131485,0.05655919387936592,0.13767291605472565,0.8444967269897461,0.49481770396232605,0.35617828369140625,0.7889169454574585,0.3667438328266144,0.3179597854614258,0.6797772645950317,0.1710127890110016,-0.0071971360594034195,0.734818696975708,-0.00514215650036931,-0.04628775268793106,0.7902047634124756,0.5411217212677002,-0.10666105896234512,0.710171639919281,0.5769585371017456,-0.25341346859931946,0.7866450548171997,0.48703205585479736,-0.23602400720119476,0.9202640056610107,0.21847672760486603,-0.19803385436534882,0.7315834760665894,0.04736031964421272,0.16083796322345734,0.7937644720077515,0.5952114462852478,0.355246901512146,0.7149906158447266,0.491976797580719,0.3272356688976288,0.4689071476459503,0.34191811084747314,-0.0071971360594034195,0.734818696975708,-0.00514215650036931,-0.047249387949705124,0.7921423316001892,0.558329164981842,-0.13893480598926544,0.6780077815055847,0.5719093084335327,-0.22611090540885925,0.803848147392273,0.5388128161430359,-0.3022109866142273,0.8795888423919678,0.27104106545448303,-0.25026386976242065,0.5987361073493958,0.019366759806871414,0.1316121369600296,0.7804364562034607,0.577845573425293,0.37453538179397583,0.6815140247344971,0.4484420716762543,0.31262215971946716,0.50529545545578,0.13106606900691986,0.0,0.0,0.0,0.0,0.0,0.3370000123977661,0.10107746720314026,0.1846444308757782,0.3371734917163849,0.2297651618719101,0.41972616314888,0.3374050557613373,0.3135561943054199,0.5727924704551697,0.33756768703460693,0.3807811141014099,0.6955963373184204,0.33769819140434265,1.0699385383605957,1.5699721279144288,-3.983613841701299e-05,5.565815560985356e-05,-6.802663508569821e-05,3.7105438427533954e-05
1637005025.965712,8.0,0.0,0.20616105198860168,0.6305323243141174,0.03778555244207382,-0.03624419867992401,0.8525090217590332,0.4748552143573761,-0.11585956811904907,0.7538315057754517,0.4826509654521942,-0.20380213856697083,0.8593761920928955,0.455488383769989,-0.28601306676864624,0.9338365793228149,0.21368950605392456,0.08951340615749359,0.2874261438846588,0.04142442345619202,0.1313137412071228,0.8456418514251709,0.4942220449447632,0.3525622487068176,0.7984266877174377,0.3681986927986145,0.31914323568344116,0.6769980192184448,0.17087207734584808,-0.0071971360594034195,0.734818696975708,-0.00514215650036931,-0.04628775268793106,0.7902047634124756,0.5411217212677002,-0.10666105896234512,0.710171639919281,0.5769585371017456,-0.25341346859931946,0.7866450548171997,0.48703205585479736,-0.23602400720119476,0.9202640056610107,0.21847672760486603,-0.19803385436534882,0.7315834760665894,0.04736031964421272,0.16083796322345734,0.7937644720077515,0.5952114462852478,0.355246901512146,0.7149906158447266,0.491976797580719,0.3272356688976288,0.4689071476459503,0.34191811084747314,-0.0071971360594034195,0.734818696975708,-0.00514215650036931,-0.04751914367079735,0.791949450969696,0.5583295226097107,-0.13889601826667786,0.6775582432746887,0.5718291997909546,-0.2263832986354828,0.8035775423049927,0.5387908816337585,-0.30248337984085083,0.8793181777000427,0.2710191309452057,-0.2463276982307434,0.6004175543785095,0.01808108575642109,0.1313450187444687,0.7803213596343994,0.5778682231903076,0.3745555877685547,0.6817732453346252,0.4487190246582031,0.312646746635437,0.5049816370010376,0.131661057472229,0.0,0.0,0.0,0.0,0.0,0.3370000123977661,0.10107746720314026,0.1846444308757782,0.3371734917163849,0.2297651618719101,0.41972616314888,0.3374050557613373,0.3135561943054199,0.5727924704551697,0.33756768703460693,0.3807811141014099,0.6955963373184204,0.33769819140434265,1.0699385383605957,1.5699721279144288,-3.983613841701299e-05,5.565815560985356e-05,-6.802663508569821e-05,3.7105438427533954e-05
1637005025.9764388,8.0,0.0,0.20616105198860168,0.6305323243141174,0.03778555244207382,-0.03624419867992401,0.8525090217590332,0.4748552143573761,-0.11585956811904907,0.7538315057754517,0.4826509654521942,-0.20380213856697083,0.8593761920928955,0.455488383769989,-0.28601306676864624,0.9338365793228149,0.21368950605392456,0.08951340615749359,0.2874261438846588,0.04142442345619202,0.1313137412071228,0.8456418514251709,0.4942220449447632,0.3525622487068176,0.7984266877174377,0.3681986927986145,0.31914323568344116,0.6769980192184448,0.17087207734584808,-0.0020077405497431755,0.7421858906745911,-0.0009145192452706397,-0.04488490894436836,0.7934641242027283,0.5413410663604736,-0.10739468038082123,0.7011338472366333,0.5796805024147034,-0.25060778856277466,0.7931637763977051,0.4874706566333771,-0.2391197234392166,0.9127472639083862,0.2226518988609314,-0.1941370666027069,0.7481023669242859,0.048665110021829605,0.16083796322345734,0.7937644720077515,0.5952114462852478,0.3606913387775421,0.7221940159797668,0.49648168683052063,0.3456810712814331,0.4962832033634186,0.34546327590942383,-0.0020077405497431755,0.7421858906745911,-0.0009145192452706397,-0.047181930392980576,0.7949180603027344,0.562617838382721,-0.13936163485050201,0.6807155609130859,0.5714502930641174,-0.22614680230617523,0.8020694851875305,0.5418863892555237,-0.3158630132675171,0.882999837398529,0.27991145849227905,-0.24387136101722717,0.629203736782074,0.00546396104618907,0.13178293406963348,0.787766695022583,0.583349347114563,0.3823424279689789,0.6997329592704773,0.46082332730293274,0.33021241426467896,0.5081363320350647,0.15068314969539642,0.0,0.0,0.0,0.0,0.0,0.3370000123977661,0.10107746720314026,0.1846444308757782,0.3371734917163849,0.2297651618719101,0.41972616314888,0.3374050557613373,0.3135561943054199,0.5727924704551697,0.33756768703460693,0.3807811141014099,0.6955963373184204,0.33769819140434265,1.0699385383605957,1.5699721279144288,-3.983613841701299e-05,5.565815560985356e-05,-6.802663508569821e-05,3.7105438427533954e-05
1637005025.9987125,8.0,0.0,0.20616105198860168,0.6305323243141174,0.03778555244207382,-0.03624419867992401,0.8525090217590332,0.4748552143573761,-0.11585956811904907,0.7538315057754517,0.4826509654521942,-0.20380213856697083,0.8593761920928955,0.455488383769989,-0.28601306676864624,0.9338365793228149,0.21368950605392456,0.08951340615749359,0.2874261438846588,0.04142442345619202,0.1313137412071228,0.8456418514251709,0.4942220449447632,0.3525622487068176,0.7984266877174377,0.3681986927986145,0.31914323568344116,0.6769980192184448,0.17087207734584808,-0.0020077405497431755,0.7421858906745911,-0.0009145192452706397,-0.04488490894436836,0.7934641242027283,0.5413410663604736,-0.10739468038082123,0.7011338472366333,0.5796805024147034,-0.25060778856277466,0.7931637763977051,0.4874706566333771,-0.2391197234392166,0.9127472639083862,0.2226518988609314,-0.1941370666027069,0.7481023669242859,0.048665110021829605,0.16083796322345734,0.7937644720077515,0.5952114462852478,0.3606913387775421,0.7221940159797668,0.49648168683052063,0.3456810712814331,0.4962832033634186,0.34546327590942383,-0.0020077405497431755,0.7421858906745911,-0.0009145192452706397,-0.046567030251026154,0.7954758405685425,0.562614381313324,-0.1387161910533905,0.6812635660171509,0.5716373920440674,-0.22552986443042755,0.8028104305267334,0.541929304599762,-0.31468465924263,0.8835600018501282,0.27970707416534424,-0.24442584812641144,0.6263996362686157,0.007955512963235378,0.13239578902721405,0.7881412506103516,0.5832993984222412,0.38206666707992554,0.69873046875,0.4599592685699463,0.3294943869113922,0.5077078938484192,0.1495397686958313,0.0,0.0,0.0,0.0,0.0,0.3370000123977661,0.10107746720314026,0.1846444308757782,0.3371734917163849,0.2297651618719101,0.41972616314888,0.3374050557613373,0.3135561943054199,0.5727924704551697,0.33756768703460693,0.3807811141014099,0.6955963373184204,0.33769819140434265,1.0699385383605957,1.5699721279144288,-3.983613841701299e-05,5.565815560985356e-05,-6.802663508569821e-05,3.7105438427533954e-05
1637005026.009417,8.0,0.0,0.21128590404987335,0.634613037109375,0.03383054584264755,-0.03593703359365463,0.8576416969299316,0.4733803868293762,-0.13132409751415253,0.7777525782585144,0.48790183663368225,-0.2095469832420349,0.8707866668701172,0.4519430696964264,-0.28161561489105225,0.9300278425216675,0.20747952163219452,0.08951340615749359,0.2874261438846588,0.04142442345619202,0.13767291605472565,0.8444967269897461,0.49481770396232605,0.3563865125179291,0.792083203792572,0.362309992313385,0.3203887343406677,0.6772997379302979,0.16618096828460693,-0.007915576919913292,0.7358787655830383,-0.0016216946532949805,-0.047288160771131516,0.7896590828895569,0.5408844947814941,-0.10666105896234512,0.710171639919281,0.5769585371017456,-0.25060778856277466,0.7931637763977051,0.4874706566333771,-0.2553655505180359,0.8827726244926453,0.22453361749649048,-0.20986175537109375,0.7308759689331055,0.05533220246434212,0.15603145956993103,0.7861543893814087,0.5942983627319336,0.3552486002445221,0.7149932980537415,0.49594685435295105,0.32201719284057617,0.4627515971660614,0.3419470489025116,-0.007915576919913292,0.7358787655830383,-0.0016216946532949805,-0.04919153451919556,0.7914814352989197,0.5619337558746338,-0.16375428438186646,0.7010478377342224,0.5796669721603394,-0.227540522813797,0.8058908581733704,0.5397219657897949,-0.3054410219192505,0.869029700756073,0.2692139446735382,-0.23117442429065704,0.6188552379608154,-0.007939213886857033,0.12915745377540588,0.777072012424469,0.5841456055641174,0.3789074420928955,0.6878370046615601,0.46083834767341614,0.32060596346855164,0.5052106976509094,0.1464145928621292,0.0,0.0,0.0,0.0,0.0,0.3370000123977661,0.10107746720314026,0.1846444308757782,0.3371734917163849,0.2297651618719101,0.41972616314888,0.3374050557613373,0.3135561943054199,0.5727924704551697,0.33756768703460693,0.3807811141014099,0.6955963373184204,0.33769819140434265,1.0699385383605957,1.5699721279144288,-3.983613841701299e-05,5.565815560985356e-05,-6.802663508569821e-05,3.7105438427533954e-05
1637005026.0317104,8.0,0.0,0.21128590404987335,0.634613037109375,0.03383054584264755,-0.03593703359365463,0.8576416969299316,0.4733803868293762,-0.13132409751415253,0.7777525782585144,0.48790183663368225,-0.2095469832420349,0.8707866668701172,0.4519430696964264,-0.28161561489105225,0.9300278425216675,0.20747952163219452,0.08951340615749359,0.2874261438846588,0.04142442345619202,0.13767291605472565,0.8444967269897461,0.49481770396232605,0.3563865125179291,0.792083203792572,0.362309992313385,0.3203887343406677,0.6772997379302979,0.16618096828460693,-0.007915576919913292,0.7358787655830383,-0.0016216946532949805,-0.047288160771131516,0.7896590828895569,0.5408844947814941,-0.10666105896234512,0.710171639919281,0.5769585371017456,-0.25060778856277466,0.7931637763977051,0.4874706566333771,-0.2553655505180359,0.8827726244926453,0.22453361749649048,-0.20986175537109375,0.7308759689331055,0.05533220246434212,0.15603145956993103,0.7861543893814087,0.5942983627319336,0.3552486002445221,0.7149932980537415,0.49594685435295105,0.32201719284057617,0.4627515971660614,0.3419470489025116,-0.007915576919913292,0.7358787655830383,-0.0016216946532949805,-0.04881590977311134,0.7917459011077881,0.5619350075721741,-0.16077350080013275,0.6979784965515137,0.5789790749549866,-0.22725729644298553,0.8052566647529602,0.539901077747345,-0.3067172169685364,0.8705735802650452,0.27036556601524353,-0.23201604187488556,0.6212128400802612,-0.007403481286019087,0.12962546944618225,0.778235137462616,0.5839689373970032,0.37938448786735535,0.6890202164649963,0.46066540479660034,0.321768194437027,0.5053035616874695,0.14675095677375793,0.0,0.0,0.0,0.0,0.0,0.3370000123977661,0.10107746720314026,0.1846444308757782,0.3371734917163849,0.2297651618719101,0.41972616314888,0.3374050557613373,0.3135561943054199,0.5727924704551697,0.33756768703460693,0.3807811141014099,0.6955963373184204,0.33769819140434265,1.0699385383605957,1.5699721279144288,-3.983613841701299e-05,5.565815560985356e-05,-6.802663508569821e-05,3.7105438427533954e-05
1637005026.0424058,8.0,0.0,0.20652763545513153,0.6378721594810486,0.035201918333768845,-0.0414796844124794,0.865232527256012,0.47776496410369873,-0.11339883506298065,0.7475107908248901,0.4866316020488739,-0.21886688470840454,0.8823161721229553,0.4599252939224243,-0.2759787142276764,0.9216447472572327,0.20695532858371735,0.0779140517115593,0.27734237909317017,0.033036939799785614,0.13590751588344574,0.8481489419937134,0.49560466408729553,0.3563865125179291,0.792083203792572,0.362309992313385,0.3138297498226166,0.6775233149528503,0.169769749045372,-0.02092881128191948,0.7157199382781982,0.005751361604779959,-0.04328083619475365,0.7971903681755066,0.5433713793754578,-0.11336024105548859,0.7049710154533386,0.5796805024147034,-0.24739962816238403,0.8006162643432617,0.4915314018726349,-0.26192283630371094,0.8667814135551453,0.22911153733730316,-0.22899430990219116,0.6896864175796509,0.06488505005836487,0.16083796322345734,0.7937644720077515,0.5952114462852478,0.3552486002445221,0.7149932980537415,0.49594685435295105,0.3272356688976288,0.4689071476459503,0.34191811084747314,-0.02092881128191948,0.7157199382781982,0.005751361604779959,-0.04350176826119423,0.8019534945487976,0.5665047764778137,-0.12701444327831268,0.6895954012870789,0.6114338040351868,-0.2220848798751831,0.8193068504333496,0.548720121383667,-0.28409716486930847,0.8616836667060852,0.27017343044281006,-0.2338087409734726,0.5840829014778137,0.014584708027541637,0.13508135080337524,0.7846001386642456,0.5842893719673157,0.37988778948783875,0.6849030256271362,0.4590979218482971,0.31069111824035645,0.4998813271522522,0.1483045518398285,0.0,0.0,0.0,0.0,0.0,0.3370000123977661,0.10107746720314026,0.1846444308757782,0.3371734917163849,0.2297651618719101,0.41972616314888,0.3374050557613373,0.3135561943054199,0.5727924704551697,0.33756768703460693,0.3807811141014099,0.6955963373184204,0.33769819140434265,1.0699385383605957,1.5699721279144288,-3.983613841701299e-05,5.565815560985356e-05,-6.802663508569821e-05,3.7105438427533954e-05
1637005026.0647159,8.0,0.0,0.20652763545513153,0.6378721594810486,0.035201918333768845,-0.0414796844124794,0.865232527256012,0.47776496410369873,-0.11339883506298065,0.7475107908248901,0.4866316020488739,-0.21886688470840454,0.8823161721229553,0.4599252939224243,-0.2759787142276764,0.9216447472572327,0.20695532858371735,0.0779140517115593,0.27734237909317017,0.033036939799785614,0.13590751588344574,0.8481489419937134,0.49560466408729553,0.3563865125179291,0.792083203792572,0.362309992313385,0.3138297498226166,0.6775233149528503,0.169769749045372,-0.02092881128191948,0.7157199382781982,0.005751361604779959,-0.04328083619475365,0.7971903681755066,0.5433713793754578,-0.11336024105548859,0.7049710154533386,0.5796805024147034,-0.24739962816238403,0.8006162643432617,0.4915314018726349,-0.26192283630371094,0.8667814135551453,0.22911153733730316,-0.22899430990219116,0.6896864175796509,0.06488505005836487,0.16083796322345734,0.7937644720077515,0.5952114462852478,0.3552486002445221,0.7149932980537415,0.49594685435295105,0.3272356688976288,0.4689071476459503,0.34191811084747314,-0.02092881128191948,0.7157199382781982,0.005751361604779959,-0.04424918442964554,0.8007199168205261,0.5666624903678894,-0.12913453578948975,0.6890169978141785,0.6106427311897278,-0.22282975912094116,0.8179184198379517,0.5487027764320374,-0.2856447696685791,0.8611743450164795,0.2704712748527527,-0.23421964049339294,0.5846017599105835,0.013995660468935966,0.1343313753604889,0.7835213541984558,0.5846222043037415,0.3793521523475647,0.6842439770698547,0.4595164954662323,0.31063100695610046,0.4992513358592987,0.14860031008720398,0.0,0.0,0.0,0.0,0.0,0.3370000123977661,0.10107746720314026,0.1846444308757782,0.3371734917163849,0.2297651618719101,0.41972616314888,0.3374050557613373,0.3135561943054199,0.5727924704551697,0.33756768703460693,0.3807811141014099,0.6955963373184204,0.33769819140434265,1.0699385383605957,1.5699721279144288,-3.983613841701299e-05,5.565815560985356e-05,-6.802663508569821e-05,3.7105438427533954e-05
1637005026.075405,8.0,0.0,0.2043391764163971,0.640317440032959,0.030347246676683426,-0.04730422422289848,0.8664392232894897,0.4742435812950134,-0.13132409751415253,0.7777525782585144,0.48790183663368225,-0.22237388789653778,0.8799416422843933,0.4526965320110321,-0.2868328094482422,0.9271805286407471,0.20590928196907043,0.0779140517115593,0.27734237909317017,0.033036939799785614,0.1277654469013214,0.8529367446899414,0.49579063057899475,0.36087915301322937,0.77655428647995,0.3648524880409241,0.31920725107192993,0.680079460144043,0.16631419956684113,-0.017099501565098763,0.7251457571983337,0.004618420265614986,-0.05192950740456581,0.7837300896644592,0.5441219806671143,-0.10294173657894135,0.7172953486442566,0.5813554525375366,-0.2566184401512146,0.7791975140571594,0.49005308747291565,-0.252279132604599,0.8902988433837891,0.22409085929393768,-0.20691825449466705,0.7289859652519226,0.058830250054597855,0.15275941789150238,0.7882627248764038,0.5981908440589905,0.3458774983882904,0.7091341018676758,0.49930649995803833,0.34260064363479614,0.4982680678367615,0.34912779927253723,-0.017099501565098763,0.7251457571983337,0.004618420265614986,-0.04432288557291031,0.8030325770378113,0.5663858652114868,-0.1284032166004181,0.6927129626274109,0.6151445508003235,-0.2228735238313675,0.8192116022109985,0.5472216010093689,-0.2884146273136139,0.8651972413063049,0.2700587511062622,-0.23009920120239258,0.592924177646637,0.010475639253854752,0.13422775268554688,0.786853551864624,0.5855501294136047,0.3791157007217407,0.6872960925102234,0.46040692925453186,0.31016111373901367,0.5102337002754211,0.14495821297168732,0.0,0.0,0.0,0.0,0.0,0.3370000123977661,0.10107746720314026,0.1846444308757782,0.3371734917163849,0.2297651618719101,0.41972616314888,0.3374050557613373,0.3135561943054199,0.5727924704551697,0.33756768703460693,0.3807811141014099,0.6955963373184204,0.33769819140434265,1.0699385383605957,1.5699721279144288,-3.983613841701299e-05,5.565815560985356e-05,-6.802663508569821e-05,3.7105438427533954e-05
1637005026.097784,8.0,0.0,0.2043391764163971,0.640317440032959,0.030347246676683426,-0.04730422422289848,0.8664392232894897,0.4742435812950134,-0.13132409751415253,0.7777525782585144,0.48790183663368225,-0.22237388789653778,0.8799416422843933,0.4526965320110321,-0.2868328094482422,0.9271805286407471,0.20590928196907043,0.0779140517115593,0.27734237909317017,0.033036939799785614,0.1277654469013214,0.8529367446899414,0.49579063057899475,0.36087915301322937,0.77655428647995,0.3648524880409241,0.31920725107192993,0.680079460144043,0.16631419956684113,-0.017099501565098763,0.7251457571983337,0.004618420265614986,-0.05192950740456581,0.7837300896644592,0.5441219806671143,-0.10294173657894135,0.7172953486442566,0.5813554525375366,-0.2566184401512146,0.7791975140571594,0.49005308747291565,-0.252279132604599,0.8902988433837891,0.22409085929393768,-0.20691825449466705,0.7289859652519226,0.058830250054597855,0.15275941789150238,0.7882627248764038,0.5981908440589905,0.3458774983882904,0.7091341018676758,0.49930649995803833,0.34260064363479614,0.4982680678367615,0.34912779927253723,-0.017099501565098763,0.7251457571983337,0.004618420265614986,-0.05346687138080597,0.7863159775733948,0.5679351687431335,-0.1352907121181488,0.6797543168067932,0.6276578903198242,-0.23189809918403625,0.8000776767730713,0.5459744334220886,-0.30358588695526123,0.8526142835617065,0.27151066064834595,-0.2302151471376419,0.5916923880577087,0.0042033810168504715,0.12496434897184372,0.7725542783737183,0.5898959636688232,0.3695392906665802,0.6723415851593018,0.4646635949611664,0.30122435092926025,0.5141854286193848,0.13918940722942352,0.0,0.0,0.0,0.0,0.0,0.3370000123977661,0.10107746720314026,0.1846444308757782,0.3371734917163849,0.2297651618719101,0.41972616314888,0.3374050557613373,0.3135561943054199,0.5727924704551697,0.33756768703460693,0.3807811141014099,0.6955963373184204,0.33769819140434265,1.0699385383605957,1.5699721279144288,-3.983613841701299e-05,5.565815560985356e-05,-6.802663508569821e-05,3.7105438427533954e-05
1637005026.1084063,8.0,0.0,0.20954278111457825,0.6300607919692993,0.038020599633455276,-0.04217344895005226,0.8650644421577454,0.48037806153297424,-0.11119142174720764,0.7563791275024414,0.4840559661388397,-0.21886688470840454,0.8823161721229553,0.4599252939224243,-0.2759787142276764,0.9216447472572327,0.20695532858371735,0.08176136761903763,0.2911803126335144,0.040156614035367966,0.13451997935771942,0.8478127717971802,0.5008308291435242,0.3493078351020813,0.8069854378700256,0.3695080578327179,0.3215702176094055,0.6745200157165527,0.16604772210121155,-0.01002049632370472,0.7265329360961914,-0.00015208349213935435,-0.04488414525985718,0.7934653162956238,0.5431143045425415,-0.10294173657894135,0.7172953486442566,0.5813554525375366,-0.2506062388420105,0.7931661605834961,0.4910171926021576,-0.24918460845947266,0.8883118629455566,0.22776833176612854,-0.23196934163570404,0.683280885219574,0.06924092769622803,0.16083796322345734,0.7937644720077515,0.5952114462852478,0.35734012722969055,0.7243496179580688,0.49648168683052063,0.3536434769630432,0.5113781094551086,0.3491212725639343,-0.01002049632370472,0.7265329360961914,-0.00015208349213935435,-0.04607123136520386,0.7969992160797119,0.5620978474617004,-0.12897348403930664,0.6881208419799805,0.6158570051193237,-0.22431302070617676,0.8149312734603882,0.5416610240936279,-0.2857838571071625,0.8568776845932007,0.2629292607307434,-0.26886242628097534,0.5522964000701904,0.03520006686449051,0.13217055797576904,0.7790670990943909,0.582534670829773,0.3819962441921234,0.6928205490112305,0.4572698175907135,0.3454023599624634,0.4882622957229614,0.15324588119983673,0.0,0.0,0.0,0.0,0.0,0.3370000123977661,0.10107746720314026,0.1846444308757782,0.3371734917163849,0.2297651618719101,0.41972616314888,0.3374050557613373,0.3135561943054199,0.5727924704551697,0.33756768703460693,0.3807811141014099,0.6955963373184204,0.33769819140434265,1.0699385383605957,1.5699721279144288,-3.983613841701299e-05,5.565815560985356e-05,-6.802663508569821e-05,3.7105438427533954e-05
1637005026.1307614,8.0,0.0,0.20954278111457825,0.6300607919692993,0.038020599633455276,-0.04217344895005226,0.8650644421577454,0.48037806153297424,-0.11119142174720764,0.7563791275024414,0.4840559661388397,-0.21886688470840454,0.8823161721229553,0.4599252939224243,-0.2759787142276764,0.9216447472572327,0.20695532858371735,0.08176136761903763,0.2911803126335144,0.040156614035367966,0.13451997935771942,0.8478127717971802,0.5008308291435242,0.3493078351020813,0.8069854378700256,0.3695080578327179,0.3215702176094055,0.6745200157165527,0.16604772210121155,-0.01002049632370472,0.7265329360961914,-0.00015208349213935435,-0.04488414525985718,0.7934653162956238,0.5431143045425415,-0.10294173657894135,0.7172953486442566,0.5813554525375366,-0.2506062388420105,0.7931661605834961,0.4910171926021576,-0.24918460845947266,0.8883118629455566,0.22776833176612854,-0.23196934163570404,0.683280885219574,0.06924092769622803,0.16083796322345734,0.7937644720077515,0.5952114462852478,0.35734012722969055,0.7243496179580688,0.49648168683052063,0.3536434769630432,0.5113781094551086,0.3491212725639343,-0.01002049632370472,0.7265329360961914,-0.00015208349213935435,-0.04611162096261978,0.7958218455314636,0.5622415542602539,-0.12888535857200623,0.6872249841690063,0.6167626976966858,-0.22438271343708038,0.8132275938987732,0.5416061878204346,-0.28719770908355713,0.856483519077301,0.2633746564388275,-0.2619667649269104,0.5559870004653931,0.031034542247653008,0.13215947151184082,0.778416097164154,0.5828769207000732,0.3813824951648712,0.6903774738311768,0.4576583504676819,0.33958137035369873,0.4907494783401489,0.15103957056999207,0.0,0.0,0.0,0.0,0.0,0.3370000123977661,0.10107746720314026,0.1846444308757782,0.3371734917163849,0.2297651618719101,0.41972616314888,0.3374050557613373,0.3135561943054199,0.5727924704551697,0.33756768703460693,0.3807811141014099,0.6955963373184204,0.33769819140434265,1.0699385383605957,1.5699721279144288,-3.983613841701299e-05,5.565815560985356e-05,-6.802663508569821e-05,3.7105438427533954e-05
1637005026.1414104,8.0,0.0,0.21254131197929382,0.6313187479972839,0.03384906053543091,-0.04096746817231178,0.864934504032135,0.4777476191520691,-0.10899098217487335,0.7529571056365967,0.4833031892776489,-0.2160770446062088,0.8780679106712341,0.45910361409187317,-0.28036969900131226,0.9254552721977234,0.21314042806625366,0.0779140517115593,0.27734237909317017,0.033036939799785614,0.13414210081100464,0.8518011569976807,0.4963915944099426,0.3570799231529236,0.8039427995681763,0.3650349974632263,0.31914323568344116,0.6769980192184448,0.17087207734584808,-0.017344139516353607,0.7157850861549377,-0.0017336367163807154,-0.042477548122406006,0.800835371017456,0.5434290766716003,-0.10665953159332275,0.710174024105072,0.5805180072784424,-0.24098655581474304,0.8155163526535034,0.4925597906112671,-0.25227755308151245,0.8903013467788696,0.22776833176612854,-0.2261120229959488,0.6878357529640198,0.06831035017967224,0.15603145956993103,0.7861543893814087,0.5942983627319336,0.35734012722969055,0.7243496179580688,0.49648168683052063,0.34568265080451965,0.49628567695617676,0.34912779927253723,-0.017344139516353607,0.7157850861549377,-0.0017336367163807154,-0.0442337766289711,0.801358699798584,0.5589304566383362,-0.12504686415195465,0.6880441904067993,0.6063266396522522,-0.22297824919223785,0.8151773810386658,0.5397258996963501,-0.29382339119911194,0.8670337200164795,0.26491421461105347,-0.256714791059494,0.5691514611244202,0.03080783411860466,0.13451069593429565,0.7875399589538574,0.578135073184967,0.3876666724681854,0.7086279392242432,0.45473501086235046,0.33003824949264526,0.5095457434654236,0.1503356695175171,0.0,0.0,0.0,0.0,0.0,0.3370000123977661,0.10107746720314026,0.1846444308757782,0.3371734917163849,0.2297651618719101,0.41972616314888,0.3374050557613373,0.3135561943054199,0.5727924704551697,0.33756768703460693,0.3807811141014099,0.6955963373184204,0.33769819140434265,1.0699385383605957,1.5699721279144288,-3.983613841701299e-05,5.565815560985356e-05,-6.802663508569821e-05,3.7105438427533954e-05
1637005026.163747,8.0,0.0,0.21254131197929382,0.6313187479972839,0.03384906053543091,-0.04096746817231178,0.864934504032135,0.4777476191520691,-0.10899098217487335,0.7529571056365967,0.4833031892776489,-0.2160770446062088,0.8780679106712341,0.45910361409187317,-0.28036969900131226,0.9254552721977234,0.21314042806625366,0.0779140517115593,0.27734237909317017,0.033036939799785614,0.13414210081100464,0.8518011569976807,0.4963915944099426,0.3570799231529236,0.8039427995681763,0.3650349974632263,0.31914323568344116,0.6769980192184448,0.17087207734584808,-0.017344139516353607,0.7157850861549377,-0.0017336367163807154,-0.042477548122406006,0.800835371017456,0.5434290766716003,-0.10665953159332275,0.710174024105072,0.5805180072784424,-0.24098655581474304,0.8155163526535034,0.4925597906112671,-0.25227755308151245,0.8903013467788696,0.22776833176612854,-0.2261120229959488,0.6878357529640198,0.06831035017967224,0.15603145956993103,0.7861543893814087,0.5942983627319336,0.35734012722969055,0.7243496179580688,0.49648168683052063,0.34568265080451965,0.49628567695617676,0.34912779927253723,-0.017344139516353607,0.7157850861549377,-0.0017336367163807154,-0.04318126663565636,0.8032167553901672,0.5586932301521301,-0.12376096844673157,0.6893924474716187,0.6052579283714294,-0.22197489440441132,0.8166264295578003,0.5396569967269897,-0.2936984598636627,0.8694908022880554,0.265265554189682,-0.2552467882633209,0.5719566345214844,0.030933385714888573,0.1356123685836792,0.7898070216178894,0.5777294635772705,0.38918739557266235,0.7119556069374084,0.45451635122299194,0.32975390553474426,0.513077437877655,0.1503307819366455,0.0,0.0,0.0,0.0,0.0,0.3370000123977661,0.10107746720314026,0.1846444308757782,0.3371734917163849,0.2297651618719101,0.41972616314888,0.3374050557613373,0.3135561943054199,0.5727924704551697,0.33756768703460693,0.3807811141014099,0.6955963373184204,0.33769819140434265,1.0699385383605957,1.5699721279144288,-3.983613841701299e-05,5.565815560985356e-05,-6.802663508569821e-05,3.7105438427533954e-05
1637005026.1744173,8.0,0.0,0.2091783732175827,0.6283678412437439,0.040590520948171616,-0.048631295561790466,0.8692730069160461,0.4836927652359009,-0.11119142174720764,0.7563791275024414,0.4840559661388397,-0.2254120111465454,0.8895936012268066,0.46714305877685547,-0.2775479555130005,0.9212645888328552,0.2128658890724182,0.0779140517115593,0.27734237909317017,0.033036939799785614,0.12814940512180328,0.8489524722099304,0.5002424716949463,0.350392609834671,0.8041325807571411,0.3690716028213501,0.31914323568344116,0.6769980192184448,0.17087207734584808,-0.01208448875695467,0.7207224369049072,-0.004395401570945978,-0.047288160771131516,0.7896590828895569,0.5408844947814941,-0.10294173657894135,0.7172953486442566,0.5813554525375366,-0.25060778856277466,0.7931637763977051,0.4874706566333771,-0.2491861879825592,0.8883094191551208,0.22409085929393768,-0.22622528672218323,0.6795894503593445,0.07265490293502808,0.15603145956993103,0.7861543893814087,0.5942983627319336,0.3552486002445221,0.7149932980537415,0.49594685435295105,0.35674864053726196,0.5093808174133301,0.3491212725639343,-0.01208448875695467,0.7207224369049072,-0.004395401570945978,-0.04989510774612427,0.7894124984741211,0.557958722114563,-0.13199076056480408,0.6840302348136902,0.6193769574165344,-0.22816288471221924,0.8109336495399475,0.5416246056556702,-0.2833349406719208,0.8434855937957764,0.2603311538696289,-0.2502955496311188,0.5352648496627808,0.03936728090047836,0.1283726692199707,0.7678914070129395,0.5742928981781006,0.37751778960227966,0.677049458026886,0.450935423374176,0.330643892288208,0.4802943170070648,0.14319530129432678,0.0,0.0,0.0,0.0,0.0,0.3370000123977661,0.10107746720314026,0.1846444308757782,0.3371734917163849,0.2297651618719101,0.41972616314888,0.3374050557613373,0.3135561943054199,0.5727924704551697,0.33756768703460693,0.3807811141014099,0.6955963373184204,0.33769819140434265,1.0699385383605957,1.5699721279144288,-3.983613841701299e-05,5.565815560985356e-05,-6.802663508569821e-05,3.7105438427533954e-05
1637005026.196765,8.0,0.0,0.2091783732175827,0.6283678412437439,0.040590520948171616,-0.048631295561790466,0.8692730069160461,0.4836927652359009,-0.11119142174720764,0.7563791275024414,0.4840559661388397,-0.2254120111465454,0.8895936012268066,0.46714305877685547,-0.2775479555130005,0.9212645888328552,0.2128658890724182,0.0779140517115593,0.27734237909317017,0.033036939799785614,0.12814940512180328,0.8489524722099304,0.5002424716949463,0.350392609834671,0.8041325807571411,0.3690716028213501,0.31914323568344116,0.6769980192184448,0.17087207734584808,-0.01208448875695467,0.7207224369049072,-0.004395401570945978,-0.047288160771131516,0.7896590828895569,0.5408844947814941,-0.10294173657894135,0.7172953486442566,0.5813554525375366,-0.25060778856277466,0.7931637763977051,0.4874706566333771,-0.2491861879825592,0.8883094191551208,0.22409085929393768,-0.22622528672218323,0.6795894503593445,0.07265490293502808,0.15603145956993103,0.7861543893814087,0.5942983627319336,0.3552486002445221,0.7149932980537415,0.49594685435295105,0.35674864053726196,0.5093808174133301,0.3491212725639343,-0.01208448875695467,0.7207224369049072,-0.004395401570945978,-0.04837784171104431,0.7917929291725159,0.557762861251831,-0.1303202509880066,0.6852470636367798,0.6173509359359741,-0.22673214972019196,0.8122943639755249,0.5410658717155457,-0.28425198793411255,0.847235918045044,0.26053041219711304,-0.25048962235450745,0.5403282046318054,0.037854745984077454,0.12997648119926453,0.7712914943695068,0.5744599103927612,0.3797354996204376,0.682076632976532,0.451156347990036,0.3312886357307434,0.4849758744239807,0.14388135075569153,0.0,0.0,0.0,0.0,0.0,0.3370000123977661,0.10107746720314026,0.1846444308757782,0.3371734917163849,0.2297651618719101,0.41972616314888,0.3374050557613373,0.3135561943054199,0.5727924704551697,0.33756768703460693,0.3807811141014099,0.6955963373184204,0.33769819140434265,1.0699385383605957,1.5699721279144288,-3.983613841701299e-05,5.565815560985356e-05,-6.802663508569821e-05,3.7105438427533954e-05
1637005026.2074132,8.0,0.0,0.21314223110675812,0.6320042014122009,0.03125321865081787,-0.038444869220256805,0.8614657521247864,0.4741086959838867,-0.11119142174720764,0.7563791275024414,0.4840559661388397,-0.21456265449523926,0.8784348368644714,0.453399658203125,-0.2868328094482422,0.9271805286407471,0.20590928196907043,0.07910633832216263,0.27571210265159607,0.03309677541255951,0.13767291605472565,0.8444967269897461,0.49481770396232605,0.36216163635253906,0.7768650054931641,0.36002200841903687,0.31920725107192993,0.680079460144043,0.16631419956684113,-0.021478848531842232,0.7006102800369263,-0.0009810745250433683,-0.04488490894436836,0.7934641242027283,0.5413410663604736,-0.10294173657894135,0.7172953486442566,0.5813554525375366,-0.25060778856277466,0.7931637763977051,0.4874706566333771,-0.2553793489933014,0.8732731938362122,0.2286279797554016,-0.21390971541404724,0.6978232860565186,0.06976586580276489,0.16083796322345734,0.7937644720077515,0.5952114462852478,0.3519096374511719,0.7171409726142883,0.49594685435295105,0.34568265080451965,0.49628567695617676,0.34912779927253723,-0.021478848531842232,0.7006102800369263,-0.0009810745250433683,-0.043846141546964645,0.7999091744422913,0.5576149821281433,-0.12612536549568176,0.6918231248855591,0.6138721108436584,-0.22207510471343994,0.8165943026542664,0.5360417366027832,-0.3044975996017456,0.8730251789093018,0.2653913199901581,-0.23495614528656006,0.5999435782432556,0.009447736665606499,0.13438282907009125,0.7832241058349609,0.5791882276535034,0.37810295820236206,0.6839194297790527,0.4515884518623352,0.3042663335800171,0.5282172560691833,0.1261368691921234,0.0,0.0,0.0,0.0,0.0,0.3370000123977661,0.10107746720314026,0.1846444308757782,0.3371734917163849,0.2297651618719101,0.41972616314888,0.3374050557613373,0.3135561943054199,0.5727924704551697,0.33756768703460693,0.3807811141014099,0.6955963373184204,0.33769819140434265,1.0699335458755492,1.5699721279144288,-3.983613841701299e-05,5.565815560985356e-05,-6.802663508569821e-05,3.7105438427533954e-05
1637005026.2297566,8.0,0.0,0.21314223110675812,0.6320042014122009,0.03125321865081787,-0.038444869220256805,0.8614657521247864,0.4741086959838867,-0.11119142174720764,0.7563791275024414,0.4840559661388397,-0.21456265449523926,0.8784348368644714,0.453399658203125,-0.2868328094482422,0.9271805286407471,0.20590928196907043,0.07910633832216263,0.27571210265159607,0.03309677541255951,0.13767291605472565,0.8444967269897461,0.49481770396232605,0.36216163635253906,0.7768650054931641,0.36002200841903687,0.31920725107192993,0.680079460144043,0.16631419956684113,-0.021478848531842232,0.7006102800369263,-0.0009810745250433683,-0.04488490894436836,0.7934641242027283,0.5413410663604736,-0.10294173657894135,0.7172953486442566,0.5813554525375366,-0.25060778856277466,0.7931637763977051,0.4874706566333771,-0.2553793489933014,0.8732731938362122,0.2286279797554016,-0.21390971541404724,0.6978232860565186,0.06976586580276489,0.16083796322345734,0.7937644720077515,0.5952114462852478,0.3519096374511719,0.7171409726142883,0.49594685435295105,0.34568265080451965,0.49628567695617676,0.34912779927253723,-0.021478848531842232,0.7006102800369263,-0.0009810745250433683,-0.045610953122377396,0.7963443994522095,0.558163583278656,-0.12784983217716217,0.688449501991272,0.6148449778556824,-0.2238665074110031,0.8135194182395935,0.5372031927108765,-0.3033256530761719,0.8671140670776367,0.26509395241737366,-0.23762758076190948,0.5891583561897278,0.01341740321367979,0.13264459371566772,0.7791693806648254,0.5791239738464355,0.3771649897098541,0.6811118721961975,0.4520920217037201,0.3055114150047302,0.5196608901023865,0.12896189093589783,0.0,0.0,0.0,0.0,0.0,0.3370000123977661,0.10107838362455368,0.1846439242362976,0.3371734917163849,0.22976724803447723,0.4197250306606293,0.3374050557613373,0.31355905532836914,0.5727908611297607,0.33756768703460693,0.3807846009731293,0.6955944299697876,0.33769819140434265,1.0699335458755492,1.5699721279144288,-3.983613841701299e-05,5.565815560985356e-05,-6.802663508569821e-05,3.7105438427533954e-05
1637005026.240449,8.0,0.0,0.21244846284389496,0.6318361163139343,0.03386630490422249,-0.03866620361804962,0.8661904335021973,0.47844022512435913,-0.10899098217487335,0.7529571056365967,0.4833031892776489,-0.2160770446062088,0.8780679106712341,0.45910361409187317,-0.28998449444770813,0.9264169335365295,0.21778014302253723,0.07141176611185074,0.27754712104797363,0.03597627952694893,0.13874463737010956,0.8543129563331604,0.4977768659591675,0.3597943186759949,0.7794072031974792,0.36528894305229187,0.3232667148113251,0.6792483925819397,0.17211313545703888,-0.004314941819757223,0.7288057804107666,-0.002556090010330081,-0.04892425611615181,0.7907131314277649,0.5426577925682068,-0.10965319722890854,0.712099552154541,0.5805180072784424,-0.2506062388420105,0.7931661605834961,0.4910171926021576,-0.2588639259338379,0.8648138642311096,0.22911153733730316,-0.22035039961338043,0.6841297745704651,0.06831035017967224,0.15275774896144867,0.7882601022720337,0.5942983627319336,0.3519096374511719,0.7171409726142883,0.49594685435295105,0.3456810712814331,0.4962832033634186,0.34546327590942383,-0.004314941819757223,0.7288057804107666,-0.002556090010330081,-0.04807984456419945,0.7959389090538025,0.5595541596412659,-0.13189496099948883,0.6872942447662354,0.6123622059822083,-0.22687247395515442,0.8084450960159302,0.5399034023284912,-0.3094838261604309,0.8626589775085449,0.2688576877117157,-0.24901753664016724,0.5821099281311035,0.018752193078398705,0.13071279227733612,0.7834327220916748,0.5792048573493958,0.3799492418766022,0.6933147311210632,0.45550137758255005,0.317853718996048,0.5266702771186829,0.13303042948246002,0.0,0.0,0.0,0.0,0.0,0.3370000123977661,0.10107838362455368,0.1846439242362976,0.3371734917163849,0.22976724803447723,0.4197250306606293,0.3374050557613373,0.31355905532836914,0.5727908611297607,0.33756768703460693,0.3807846009731293,0.6955944299697876,0.33769819140434265,1.0699335458755492,1.5699721279144288,-3.983613841701299e-05,5.565815560985356e-05,-6.802663508569821e-05,3.7105438427533954e-05
1637005026.2627523,8.0,0.0,0.21244846284389496,0.6318361163139343,0.03386630490422249,-0.03866620361804962,0.8661904335021973,0.47844022512435913,-0.10899098217487335,0.7529571056365967,0.4833031892776489,-0.2160770446062088,0.8780679106712341,0.45910361409187317,-0.28998449444770813,0.9264169335365295,0.21778014302253723,0.07141176611185074,0.27754712104797363,0.03597627952694893,0.13874463737010956,0.8543129563331604,0.4977768659591675,0.3597943186759949,0.7794072031974792,0.36528894305229187,0.3232667148113251,0.6792483925819397,0.17211313545703888,-0.004314941819757223,0.7288057804107666,-0.002556090010330081,-0.04892425611615181,0.7907131314277649,0.5426577925682068,-0.10965319722890854,0.712099552154541,0.5805180072784424,-0.2506062388420105,0.7931661605834961,0.4910171926021576,-0.2588639259338379,0.8648138642311096,0.22911153733730316,-0.22035039961338043,0.6841297745704651,0.06831035017967224,0.15275774896144867,0.7882601022720337,0.5942983627319336,0.3519096374511719,0.7171409726142883,0.49594685435295105,0.3456810712814331,0.4962832033634186,0.34546327590942383,-0.004314941819757223,0.7288057804107666,-0.002556090010330081,-0.05032335966825485,0.7926547527313232,0.5597575902938843,-0.13431358337402344,0.6839295029640198,0.6121195554733276,-0.22916969656944275,0.8046283721923828,0.5402644872665405,-0.3121420741081238,0.8589074611663818,0.2693421244621277,-0.2522810995578766,0.5780730247497559,0.019411392509937286,0.12852297723293304,0.7806811928749084,0.579250693321228,0.37827354669570923,0.6914927363395691,0.45591092109680176,0.3173079490661621,0.524324893951416,0.1334952563047409,0.0,0.0,0.0,0.0,0.0,0.3370000123977661,0.10107838362455368,0.1846439242362976,0.3371734917163849,0.22976724803447723,0.4197250306606293,0.3374050557613373,0.31355905532836914,0.5727908611297607,0.33756768703460693,0.3807846009731293,0.6955944299697876,0.33769819140434265,1.0699335458755492,1.5699721279144288,-3.983613841701299e-05,5.565815560985356e-05,-6.802663508569821e-05,3.7105438427533954e-05
1637005026.273414,8.0,0.0,0.22969484329223633,0.5904731750488281,0.039666078984737396,-0.04775252193212509,0.8713873028755188,0.4755917489528656,-0.1087460070848465,0.7500500679016113,0.4880319833755493,-0.22964714467525482,0.8909734487533569,0.4547918736934662,-0.2892096936702728,0.9201536178588867,0.20408351719379425,0.0718875527381897,0.27177244424819946,0.030924100428819656,0.13414210081100464,0.8518011569976807,0.4963915944099426,0.36066746711730957,0.794419527053833,0.36359846591949463,0.3203887343406677,0.6772997379302979,0.16618096828460693,-0.006557827815413475,0.7225242853164673,0.002054154407233,-0.038566604256629944,0.8036706447601318,0.5438855886459351,-0.10665953159332275,0.710174024105072,0.5805180072784424,-0.23797115683555603,0.8135768175125122,0.4925597906112671,-0.2619612514972687,0.8572946190834045,0.2295413613319397,-0.2234971672296524,0.6695125102996826,0.07357412576675415,0.16083796322345734,0.7937644720077515,0.5952114462852478,0.35734012722969055,0.7243496179580688,0.49648168683052063,0.3456810712814331,0.4962832033634186,0.34546327590942383,-0.006557827815413475,0.7225242853164673,0.002054154407233,-0.04099772125482559,0.8044191002845764,0.5628547072410583,-0.12367513030767441,0.6915620565414429,0.6080770492553711,-0.21920427680015564,0.8228589296340942,0.5425629019737244,-0.28744828701019287,0.8573651909828186,0.2643873393535614,-0.22812217473983765,0.568943440914154,0.02311982400715351,0.13720883429050446,0.7859792709350586,0.5831465125083923,0.3864869177341461,0.6978227496147156,0.4581206142902374,0.32307374477386475,0.5145722031593323,0.14505232870578766,0.0,0.0,0.0,0.0,0.0,0.3370000123977661,0.10107838362455368,0.1846439242362976,0.3371734917163849,0.22976724803447723,0.4197250306606293,0.3374050557613373,0.31355905532836914,0.5727908611297607,0.33756768703460693,0.3807846009731293,0.6955944299697876,0.33769819140434265,1.0699335458755492,1.5699721279144288,-3.983613841701299e-05,5.565815560985356e-05,-6.802663508569821e-05,3.7105438427533954e-05
1637005026.2957416,8.0,0.0,0.22969484329223633,0.5904731750488281,0.039666078984737396,-0.04775252193212509,0.8713873028755188,0.4755917489528656,-0.1087460070848465,0.7500500679016113,0.4880319833755493,-0.22964714467525482,0.8909734487533569,0.4547918736934662,-0.2892096936702728,0.9201536178588867,0.20408351719379425,0.0718875527381897,0.27177244424819946,0.030924100428819656,0.13414210081100464,0.8518011569976807,0.4963915944099426,0.36066746711730957,0.794419527053833,0.36359846591949463,0.3203887343406677,0.6772997379302979,0.16618096828460693,-0.006557827815413475,0.7225242853164673,0.002054154407233,-0.038566604256629944,0.8036706447601318,0.5438855886459351,-0.10665953159332275,0.710174024105072,0.5805180072784424,-0.23797115683555603,0.8135768175125122,0.4925597906112671,-0.2619612514972687,0.8572946190834045,0.2295413613319397,-0.2234971672296524,0.6695125102996826,0.07357412576675415,0.16083796322345734,0.7937644720077515,0.5952114462852478,0.35734012722969055,0.7243496179580688,0.49648168683052063,0.3456810712814331,0.4962832033634186,0.34546327590942383,-0.006557827815413475,0.7225242853164673,0.002054154407233,-0.039673928171396255,0.8064778447151184,0.5626299977302551,-0.12219143658876419,0.693175196647644,0.6070224642753601,-0.21779365837574005,0.8256575465202332,0.5422617793083191,-0.2840539813041687,0.858119010925293,0.26336145401000977,-0.22480104863643646,0.5688454508781433,0.02309786155819893,0.13844579458236694,0.7872982025146484,0.5829981565475464,0.38766881823539734,0.6992595195770264,0.45777958631515503,0.32402217388153076,0.5141921639442444,0.14582939445972443,0.0,0.0,0.0,0.0,0.0,0.3370000123977661,0.10107838362455368,0.1846439242362976,0.3371734917163849,0.22976724803447723,0.4197250306606293,0.3374050557613373,0.31355905532836914,0.5727908611297607,0.33756768703460693,0.3807846009731293,0.6955944299697876,0.33769819140434265,1.0699335458755492,1.5699771869659425,-3.983613841701299e-05,5.565815560985356e-05,-6.802663508569821e-05,3.7105438427533954e-05
