UF-SAMM-Lab/NSF_project_archive_data/MSEC_2022/skeleton_fusion_data/data_files/left/data_files_op/location_test_2021_11_10_12_25_30_OpenPose.csv
Time,Test Joint,Touch Active,H1-Pelvis-x,H1-Pelvis-y,H1-Pelvis-z,H1-Spine-x,H1-Spine-y,H1-Spine-z,H1-Head-x,H1-Head-y,H1-Head-z,H1-R-Shoulder-x,H1-R-Shoulder-y,H1-R-Shoulder-z,H1-R-Elbow-x,H1-R-Elbow-y,H1-R-Elbow-z,H1-R-Wrist-x,H1-R-Wrist-y,H1-R-Wrist-z,H1-L-Shoulder-x,H1-L-Shoulder-y,H1-L-Shoulder-z,H1-L-Elbow-x,H1-L-Elbow-y,H1-L-Elbow-z,H1-L-Wrist-x,H1-L-Wrist-y,H1-L-Wrist-z,H2-Pelvis-x,H2-Pelvis-y,H2-Pelvis-z,H2-Spine-x,H2-Spine-y,H2-Spine-z,H2-Head-x,H2-Head-y,H2-Head-z,H2-R-Shoulder-x,H2-R-Shoulder-y,H2-R-Shoulder-z,H2-R-Elbow-x,H2-R-Elbow-y,H2-R-Elbow-z,H2-R-Wrist-x,H2-R-Wrist-y,H2-R-Wrist-z,H2-L-Shoulder-x,H2-L-Shoulder-y,H2-L-Shoulder-z,H2-L-Elbow-x,H2-L-Elbow-y,H2-L-Elbow-z,H2-L-Wrist-x,H2-L-Wrist-y,H2-L-Wrist-z,HC-Pelvis-x,HC-Pelvis-y,HC-Pelvis-z,HC-Spine-x,HC-Spine-y,HC-Spine-z,HC-Head-x,HC-Head-y,HC-Head-z,HC-R-Shoulder-x,HC-R-Shoulder-y,HC-R-Shoulder-z,HC-R-Elbow-x,HC-R-Elbow-y,HC-R-Elbow-z,HC-R-Wrist-x,HC-R-Wrist-y,HC-R-Wrist-z,HC-L-Shoulder-x,HC-L-Shoulder-y,HC-L-Shoulder-z,HC-L-Elbow-x,HC-L-Elbow-y,HC-L-Elbow-z,HC-L-Wrist-x,HC-L-Wrist-y,HC-L-Wrist-z,Robot-Base(x),Robot-Base(y),Robot-Base(z),Robot-J2(x),Robot-J2(y),Robot-J2(z),Robot-J3(x),Robot-J3(y),Robot-J3(z),Robot-J5(x),Robot-J5(y),Robot-J5(z),Robot-J6(x),Robot-J6(y),Robot-J6(z),Robot-EE(x),Robot-EE(y),Robot-EE(z),Robot-J1-angle,Robot-J2-angle,Robot-J3-angle,Robot-J4-angle,Robot-J5-angle,Robot-J6-angle
1636565130.6035542,5.0,0.0,0.25189268589019775,1.0518295764923096,0.23269741237163544,0.04772990569472313,1.0318386554718018,0.7686196565628052,0.06257320940494537,0.8660863637924194,0.7469273805618286,-0.1099778562784195,1.0275626182556152,0.7540065050125122,-0.16366326808929443,0.9865676164627075,0.5019896626472473,-1.4443237781524658,2.6484477519989014,0.9781398177146912,0.20543766021728516,1.0361148118972778,0.7832328081130981,0.3312898576259613,1.0630453824996948,0.5221154093742371,0.3186800479888916,1.0774749517440796,0.2937411665916443,-0.2856478691101074,0.07592200487852097,0.024065138772130013,0.06818442791700363,1.0727734565734863,0.9143173694610596,0.1336696892976761,0.9790181517601013,0.9481276273727417,-0.10440152883529663,1.067649006843567,0.891274631023407,-0.17756813764572144,1.117537260055542,0.6388664245605469,-0.07086966186761856,0.9582992792129517,0.5736017823219299,0.2407703846693039,1.0778977870941162,0.9373601078987122,0.390865296125412,1.175246000289917,0.7279360890388489,0.07389826327562332,0.349073201417923,0.2066742479801178,0.25189268589019775,1.0518295764923096,0.23269741237163544,0.39403456449508667,1.4522857666015625,0.5903304815292358,0.4085041582584381,1.2907062768936157,0.5691843032836914,0.22174109518527985,1.4471700191497803,0.5673267841339111,0.16811339557170868,1.4062191247940063,0.31558090448379517,0.3599527180194855,1.1199162006378174,0.19823788106441498,0.5663279891014099,1.4574013948440552,0.6133341193199158,0.6793878078460693,1.4815946817398071,0.37875834107398987,0.6600708961486816,1.5036991834640503,0.028912588953971863,0.0,0.0,0.0,0.0,0.0,0.3370000123977661,0.0001717002160148695,0.2104998528957367,0.3371734917163849,0.0003903019241988659,0.4784996807575226,0.3374063968658447,0.0005326381069608033,0.6529995203018188,0.3375698924064636,0.0006468332721851766,0.7929994463920593,0.33770108222961426,1.5699806484222412,1.5699672019958497,-4.4815658766310664e-05,3.092119868961163e-05,-6.802663508569821e-05,7.572257434949279e-05
1636565130.6323125,5.0,0.0,0.24907848238945007,1.046202540397644,0.22928491234779358,0.04693908244371414,1.026707410812378,0.771868884563446,0.06425514072179794,0.8526344895362854,0.7504380345344543,-0.114354208111763,1.0233039855957031,0.7633117437362671,-0.18586735427379608,1.04667067527771,0.5415963530540466,-0.5797339081764221,1.5061410665512085,0.6365562677383423,0.20823237299919128,1.0301109552383423,0.7804259657859802,0.33455297350883484,1.054830551147461,0.51938396692276,0.304436594247818,1.088029146194458,0.29164689779281616,-0.2856478691101074,0.07592200487852097,0.024065138772130013,0.06818442791700363,1.0727734565734863,0.9143173694610596,0.1336696892976761,0.9790181517601013,0.9481276273727417,-0.10440152883529663,1.067649006843567,0.891274631023407,-0.17756813764572144,1.117537260055542,0.6388664245605469,-0.07086966186761856,0.9582992792129517,0.5736017823219299,0.2407703846693039,1.0778977870941162,0.9373601078987122,0.390865296125412,1.175246000289917,0.7279360890388489,0.07389826327562332,0.349073201417923,0.2066742479801178,0.24907848238945007,1.046202540397644,0.22928491234779358,0.391220360994339,1.446658730506897,0.5869179368019104,0.407294362783432,1.285071849822998,0.5670243501663208,0.21892690658569336,1.4415429830551147,0.5639142990112305,0.1393197476863861,1.4675544500350952,0.31710466742515564,0.3311590552330017,1.1812515258789062,0.19976162910461426,0.5635138154029846,1.4517744779586792,0.6099216341972351,0.6770181655883789,1.4739861488342285,0.3753645122051239,0.6314652562141418,1.5242009162902832,0.030897973105311394,0.0,0.0,0.0,0.0,0.0,0.3370000123977661,0.0001717002160148695,0.2104998528957367,0.33717453479766846,0.0003903019241988659,0.4784996807575226,0.33740875124931335,0.0005326381069608033,0.6529995203018188,0.3375731110572815,0.0006468332721851766,0.7929994463920593,0.33770498633384705,1.5699806484222412,1.5699672019958497,-4.4815658766310664e-05,3.092119868961163e-05,-6.802663508569821e-05,7.572257434949279e-05
1636565130.6365588,5.0,0.0,0.24907848238945007,1.046202540397644,0.22928491234779358,0.04693908244371414,1.026707410812378,0.771868884563446,0.06425514072179794,0.8526344895362854,0.7504380345344543,-0.114354208111763,1.0233039855957031,0.7633117437362671,-0.18586735427379608,1.04667067527771,0.5415963530540466,-0.5797339081764221,1.5061410665512085,0.6365562677383423,0.20823237299919128,1.0301109552383423,0.7804259657859802,0.33455297350883484,1.054830551147461,0.51938396692276,0.304436594247818,1.088029146194458,0.29164689779281616,-0.2856478691101074,0.07592200487852097,0.024065138772130013,0.06818442791700363,1.0727734565734863,0.9143173694610596,0.1336696892976761,0.9790181517601013,0.9481276273727417,-0.10440152883529663,1.067649006843567,0.891274631023407,-0.17756813764572144,1.117537260055542,0.6388664245605469,-0.07086966186761856,0.9582992792129517,0.5736017823219299,0.2407703846693039,1.0778977870941162,0.9373601078987122,0.390865296125412,1.175246000289917,0.7279360890388489,0.07389826327562332,0.349073201417923,0.2066742479801178,0.24907848238945007,1.046202540397644,0.22928491234779358,0.391220360994339,1.446658730506897,0.5869179368019104,0.407294362783432,1.285071849822998,0.5670243501663208,0.21892690658569336,1.4415429830551147,0.5639142990112305,0.1393197476863861,1.4675544500350952,0.31710466742515564,0.3311590552330017,1.1812515258789062,0.19976162910461426,0.5635138154029846,1.4517744779586792,0.6099216341972351,0.6770181655883789,1.4739861488342285,0.3753645122051239,0.6314652562141418,1.5242009162902832,0.030897973105311394,0.0,0.0,0.0,0.0,0.0,0.3370000123977661,0.0001717002160148695,0.2104998528957367,0.33717453479766846,0.0003903019241988659,0.4784996807575226,0.33740875124931335,0.0005326381069608033,0.6529995203018188,0.3375731110572815,0.0006468332721851766,0.7929994463920593,0.33770498633384705,1.5699806484222412,1.5699672019958497,-4.4815658766310664e-05,3.092119868961163e-05,-6.802663508569821e-05,7.572257434949279e-05
1636565130.6653504,5.0,0.0,0.24907848238945007,1.046202540397644,0.22928491234779358,0.04693908244371414,1.026707410812378,0.771868884563446,0.06425514072179794,0.8526344895362854,0.7504380345344543,-0.114354208111763,1.0233039855957031,0.7633117437362671,-0.18586735427379608,1.04667067527771,0.5415963530540466,-0.5797339081764221,1.5061410665512085,0.6365562677383423,0.20823237299919128,1.0301109552383423,0.7804259657859802,0.33455297350883484,1.054830551147461,0.51938396692276,0.304436594247818,1.088029146194458,0.29164689779281616,0.03915702924132347,0.900925874710083,0.30024686455726624,0.07170906662940979,1.0847558975219727,0.9210034608840942,0.1295291781425476,0.96793532371521,0.9502081274986267,-0.10192317515611649,1.0802100896835327,0.9073141813278198,-0.1819828301668167,1.097439169883728,0.6385646462440491,-0.07128749787807465,0.9567000269889832,0.5729010105133057,0.24534131586551666,1.0893018245697021,0.9346926808357239,0.4020930230617523,1.2220319509506226,0.7577143907546997,0.057493578642606735,0.3507603704929352,0.20510539412498474,0.24907848238945007,1.046202540397644,0.22928491234779358,0.276969313621521,1.2037094831466675,0.7611538171768188,0.293043315410614,1.0421226024627686,0.7412601709365845,0.1036686897277832,1.1991722583770752,0.7474907040596008,0.024061523377895355,1.2251837253570557,0.5006811022758484,0.2353699803352356,0.9565240144729614,0.37533441185951233,0.4502699375152588,1.2082467079162598,0.7748169302940369,0.5637742877006531,1.230458378791809,0.540259838104248,0.518221378326416,1.2806731462478638,0.1957932710647583,0.0,0.0,0.0,0.0,0.0,0.3370000123977661,0.0001717002160148695,0.2104998528957367,0.33717453479766846,0.0003903019241988659,0.4784996807575226,0.33740875124931335,0.0005326381069608033,0.6529995203018188,0.3375731110572815,0.0006468332721851766,0.7929994463920593,0.33770498633384705,1.5699806484222412,1.5699672019958497,-4.4815658766310664e-05,3.092119868961163e-05,-6.802663508569821e-05,7.572257434949279e-05
1636565130.6695907,5.0,0.0,0.24907848238945007,1.046202540397644,0.22928491234779358,0.04693908244371414,1.026707410812378,0.771868884563446,0.06425514072179794,0.8526344895362854,0.7504380345344543,-0.114354208111763,1.0233039855957031,0.7633117437362671,-0.18586735427379608,1.04667067527771,0.5415963530540466,-0.5797339081764221,1.5061410665512085,0.6365562677383423,0.20823237299919128,1.0301109552383423,0.7804259657859802,0.33455297350883484,1.054830551147461,0.51938396692276,0.304436594247818,1.088029146194458,0.29164689779281616,0.03915702924132347,0.900925874710083,0.30024686455726624,0.07170906662940979,1.0847558975219727,0.9210034608840942,0.1295291781425476,0.96793532371521,0.9502081274986267,-0.10192317515611649,1.0802100896835327,0.9073141813278198,-0.1819828301668167,1.097439169883728,0.6385646462440491,-0.07128749787807465,0.9567000269889832,0.5729010105133057,0.24534131586551666,1.0893018245697021,0.9346926808357239,0.4020930230617523,1.2220319509506226,0.7577143907546997,0.057493578642606735,0.3507603704929352,0.20510539412498474,0.24907848238945007,1.046202540397644,0.22928491234779358,0.276969313621521,1.2037094831466675,0.7611538171768188,0.293043315410614,1.0421226024627686,0.7412601709365845,0.1036686897277832,1.1991722583770752,0.7474907040596008,0.024061523377895355,1.2251837253570557,0.5006811022758484,0.2353699803352356,0.9565240144729614,0.37533441185951233,0.4502699375152588,1.2082467079162598,0.7748169302940369,0.5637742877006531,1.230458378791809,0.540259838104248,0.518221378326416,1.2806731462478638,0.1957932710647583,0.0,0.0,0.0,0.0,0.0,0.3370000123977661,0.0001717002160148695,0.2104998528957367,0.33717453479766846,0.0003903019241988659,0.4784996807575226,0.33740875124931335,0.0005326381069608033,0.6529995203018188,0.3375731110572815,0.0006468332721851766,0.7929994463920593,0.33770498633384705,1.5699806484222412,1.5699672019958497,-4.4815658766310664e-05,3.092119868961163e-05,-6.802663508569821e-05,7.572257434949279e-05
1636565130.6983423,5.0,0.0,0.233229398727417,1.0751398801803589,0.2370690256357193,0.048703089356422424,1.0297479629516602,0.7676422595977783,0.06435061991214752,0.8630571365356445,0.7454397678375244,-0.1099778562784195,1.0275626182556152,0.7540065050125122,-0.19907362759113312,1.0747568607330322,0.5668329000473022,-0.10050568729639053,0.7767308354377747,0.3826015293598175,0.20738403499126434,1.0319334268569946,0.7812780141830444,0.33502405881881714,1.0686383247375488,0.5139603018760681,0.3075784146785736,1.0802805423736572,0.2899719774723053,0.03915702924132347,0.900925874710083,0.30024686455726624,0.07170906662940979,1.0847558975219727,0.9210034608840942,0.1295291781425476,0.96793532371521,0.9502081274986267,-0.10192317515611649,1.0802100896835327,0.9073141813278198,-0.1819828301668167,1.097439169883728,0.6385646462440491,-0.07128749787807465,0.9567000269889832,0.5729010105133057,0.24534131586551666,1.0893018245697021,0.9346926808357239,0.4020930230617523,1.2220319509506226,0.7577143907546997,0.057493578642606735,0.3507603704929352,0.20510539412498474,0.233229398727417,1.0751398801803589,0.2370690256357193,0.2611202299594879,1.2326468229293823,0.7689379453659058,0.2762775421142578,1.0711780786514282,0.7474309802055359,0.08781960606575012,1.22810959815979,0.7552748322486877,-0.02140447497367859,1.285965919494629,0.5258153676986694,0.18990397453308105,1.0173062086105347,0.40046873688697815,0.4344208538532257,1.237183928489685,0.7826010584831238,0.5462514758110046,1.2693426609039307,0.5483931303024292,0.5036097168922424,1.2874308824539185,0.20038694143295288,0.0,0.0,0.0,0.0,0.0,0.3370000123977661,0.0001717002160148695,0.2104998528957367,0.33717453479766846,0.0003903019241988659,0.4784996807575226,0.33740875124931335,0.0005326381069608033,0.6529995203018188,0.3375731110572815,0.0006468332721851766,0.7929994463920593,0.33770498633384705,1.5699806484222412,1.5699672019958497,-4.4815658766310664e-05,3.092119868961163e-05,-6.802663508569821e-05,7.572257434949279e-05
1636565130.7025893,5.0,0.0,0.233229398727417,1.0751398801803589,0.2370690256357193,0.048703089356422424,1.0297479629516602,0.7676422595977783,0.06435061991214752,0.8630571365356445,0.7454397678375244,-0.1099778562784195,1.0275626182556152,0.7540065050125122,-0.19907362759113312,1.0747568607330322,0.5668329000473022,-0.10050568729639053,0.7767308354377747,0.3826015293598175,0.20738403499126434,1.0319334268569946,0.7812780141830444,0.33502405881881714,1.0686383247375488,0.5139603018760681,0.3075784146785736,1.0802805423736572,0.2899719774723053,0.03915702924132347,0.900925874710083,0.30024686455726624,0.07170906662940979,1.0847558975219727,0.9210034608840942,0.1295291781425476,0.96793532371521,0.9502081274986267,-0.10192317515611649,1.0802100896835327,0.9073141813278198,-0.1819828301668167,1.097439169883728,0.6385646462440491,-0.07128749787807465,0.9567000269889832,0.5729010105133057,0.24534131586551666,1.0893018245697021,0.9346926808357239,0.4020930230617523,1.2220319509506226,0.7577143907546997,0.057493578642606735,0.3507603704929352,0.20510539412498474,0.233229398727417,1.0751398801803589,0.2370690256357193,0.2611202299594879,1.2326468229293823,0.7689379453659058,0.2762775421142578,1.0711780786514282,0.7474309802055359,0.08781960606575012,1.22810959815979,0.7552748322486877,-0.02140447497367859,1.285965919494629,0.5258153676986694,0.18990397453308105,1.0173062086105347,0.40046873688697815,0.4344208538532257,1.237183928489685,0.7826010584831238,0.5462514758110046,1.2693426609039307,0.5483931303024292,0.5036097168922424,1.2874308824539185,0.20038694143295288,0.0,0.0,0.0,0.0,0.0,0.3370000123977661,0.0001717002160148695,0.2104998528957367,0.33717453479766846,0.0003903019241988659,0.4784996807575226,0.33740875124931335,0.0005326381069608033,0.6529995203018188,0.3375731110572815,0.0006468332721851766,0.7929994463920593,0.33770498633384705,1.5699806484222412,1.5699672019958497,-4.4815658766310664e-05,3.092119868961163e-05,-6.802663508569821e-05,7.572257434949279e-05
1636565130.7313113,5.0,0.0,0.233229398727417,1.0751398801803589,0.2370690256357193,0.048703089356422424,1.0297479629516602,0.7676422595977783,0.06435061991214752,0.8630571365356445,0.7454397678375244,-0.1099778562784195,1.0275626182556152,0.7540065050125122,-0.19907362759113312,1.0747568607330322,0.5668329000473022,-0.10050568729639053,0.7767308354377747,0.3826015293598175,0.20738403499126434,1.0319334268569946,0.7812780141830444,0.33502405881881714,1.0686383247375488,0.5139603018760681,0.3075784146785736,1.0802805423736572,0.2899719774723053,0.050767701119184494,0.9642980098724365,0.3360684812068939,0.07255212217569351,1.086135983467102,0.921983540058136,0.13084284961223602,0.9716156125068665,0.9524834156036377,-0.10190752148628235,1.0783700942993164,0.8973065614700317,-0.1754649430513382,1.1283557415008545,0.6435850858688354,-0.06729155778884888,0.9719942808151245,0.5796029567718506,0.24701176583766937,1.0939018726348877,0.9466605186462402,0.3933519423007965,1.201949119567871,0.7483213543891907,0.061789244413375854,0.34763118624687195,0.2103193998336792,0.233229398727417,1.0751398801803589,0.2370690256357193,0.2534334659576416,1.1881389617919922,0.7804785370826721,0.2685907781124115,1.0266703367233276,0.7589715719223022,0.08019068837165833,1.1857529878616333,0.7655914425849915,-0.029033390805125237,1.2436093091964722,0.5361320376396179,0.16727763414382935,0.959847629070282,0.42001843452453613,0.4266762435436249,1.190524935722351,0.795365571975708,0.5385068655014038,1.2226836681365967,0.5611576437950134,0.4958651065826416,1.240771770477295,0.2131514698266983,0.0,0.0,0.0,0.0,0.0,0.3370000123977661,0.0001717002160148695,0.2104998528957367,0.33717453479766846,0.0003903019241988659,0.4784996807575226,0.33740875124931335,0.0005326381069608033,0.6529995203018188,0.3375731110572815,0.0006468332721851766,0.7929994463920593,0.33770498633384705,1.5699806484222412,1.5699672019958497,-4.4815658766310664e-05,3.092119868961163e-05,-6.802663508569821e-05,7.572257434949279e-05
1636565130.7355595,5.0,0.0,0.233229398727417,1.0751398801803589,0.2370690256357193,0.048703089356422424,1.0297479629516602,0.7676422595977783,0.06435061991214752,0.8630571365356445,0.7454397678375244,-0.1099778562784195,1.0275626182556152,0.7540065050125122,-0.19907362759113312,1.0747568607330322,0.5668329000473022,-0.10050568729639053,0.7767308354377747,0.3826015293598175,0.20738403499126434,1.0319334268569946,0.7812780141830444,0.33502405881881714,1.0686383247375488,0.5139603018760681,0.3075784146785736,1.0802805423736572,0.2899719774723053,0.050767701119184494,0.9642980098724365,0.3360684812068939,0.07255212217569351,1.086135983467102,0.921983540058136,0.13084284961223602,0.9716156125068665,0.9524834156036377,-0.10190752148628235,1.0783700942993164,0.8973065614700317,-0.1754649430513382,1.1283557415008545,0.6435850858688354,-0.06729155778884888,0.9719942808151245,0.5796029567718506,0.24701176583766937,1.0939018726348877,0.9466605186462402,0.3933519423007965,1.201949119567871,0.7483213543891907,0.061789244413375854,0.34763118624687195,0.2103193998336792,0.233229398727417,1.0751398801803589,0.2370690256357193,0.2534334659576416,1.1881389617919922,0.7804785370826721,0.2685907781124115,1.0266703367233276,0.7589715719223022,0.08019068837165833,1.1857529878616333,0.7655914425849915,-0.029033390805125237,1.2436093091964722,0.5361320376396179,0.16727763414382935,0.959847629070282,0.42001843452453613,0.4266762435436249,1.190524935722351,0.795365571975708,0.5385068655014038,1.2226836681365967,0.5611576437950134,0.4958651065826416,1.240771770477295,0.2131514698266983,0.0,0.0,0.0,0.0,0.0,0.3370000123977661,0.0001717002160148695,0.2104998528957367,0.33717453479766846,0.0003903019241988659,0.4784996807575226,0.33740875124931335,0.0005326381069608033,0.6529995203018188,0.3375731110572815,0.0006468332721851766,0.7929994463920593,0.33770498633384705,1.5699806484222412,1.5699672019958497,-4.4815658766310664e-05,3.092119868961163e-05,-6.802663508569821e-05,7.572257434949279e-05
1636565130.7643363,5.0,0.0,0.24954836070537567,1.0516390800476074,0.2376684993505478,0.04977349191904068,1.0275843143463135,0.7666357159614563,0.06342185288667679,0.8540464043617249,0.7511392831802368,-0.10948387533426285,1.0267733335494995,0.75364750623703,-0.18715520203113556,1.0759073495864868,0.5712329745292664,-1.4273138046264648,2.6918909549713135,1.0073121786117554,0.2090308517217636,1.028395414352417,0.7796239256858826,0.3311593234539032,1.0633739233016968,0.5222246646881104,0.3180314898490906,1.0790939331054688,0.29409459233283997,0.050767701119184494,0.9642980098724365,0.3360684812068939,0.07255212217569351,1.086135983467102,0.921983540058136,0.13084284961223602,0.9716156125068665,0.9524834156036377,-0.10190752148628235,1.0783700942993164,0.8973065614700317,-0.1754649430513382,1.1283557415008545,0.6435850858688354,-0.06729155778884888,0.9719942808151245,0.5796029567718506,0.24701176583766937,1.0939018726348877,0.9466605186462402,0.3933519423007965,1.201949119567871,0.7483213543891907,0.061789244413375854,0.34763118624687195,0.2103193998336792,0.24954836070537567,1.0516390800476074,0.2376684993505478,0.2697524130344391,1.1646382808685303,0.7810779809951782,0.28252890706062317,1.0021859407424927,0.7665714621543884,0.09643249213695526,1.1637555360794067,0.7669429183006287,-0.002674690680578351,1.226449728012085,0.5341852903366089,0.19363634288311005,0.9426880478858948,0.4180717468261719,0.4430723488330841,1.1655209064483643,0.7952130436897278,0.5543425679206848,1.1973896026611328,0.5606987476348877,0.5342206954956055,1.2214844226837158,0.21102985739707947,0.0,0.0,0.0,0.0,0.0,0.3370000123977661,0.0001717002160148695,0.2104998528957367,0.33717453479766846,0.0003903019241988659,0.4784996807575226,0.33740875124931335,0.0005326381069608033,0.6529995203018188,0.3375731110572815,0.0006468332721851766,0.7929994463920593,0.33770498633384705,1.5699806484222412,1.5699672019958497,-4.4815658766310664e-05,3.092119868961163e-05,-6.802663508569821e-05,7.572257434949279e-05
1636565130.768548,5.0,0.0,0.24954836070537567,1.0516390800476074,0.2376684993505478,0.04977349191904068,1.0275843143463135,0.7666357159614563,0.06342185288667679,0.8540464043617249,0.7511392831802368,-0.10948387533426285,1.0267733335494995,0.75364750623703,-0.18715520203113556,1.0759073495864868,0.5712329745292664,-1.4273138046264648,2.6918909549713135,1.0073121786117554,0.2090308517217636,1.028395414352417,0.7796239256858826,0.3311593234539032,1.0633739233016968,0.5222246646881104,0.3180314898490906,1.0790939331054688,0.29409459233283997,0.050767701119184494,0.9642980098724365,0.3360684812068939,0.07255212217569351,1.086135983467102,0.921983540058136,0.13084284961223602,0.9716156125068665,0.9524834156036377,-0.10190752148628235,1.0783700942993164,0.8973065614700317,-0.1754649430513382,1.1283557415008545,0.6435850858688354,-0.06729155778884888,0.9719942808151245,0.5796029567718506,0.24701176583766937,1.0939018726348877,0.9466605186462402,0.3933519423007965,1.201949119567871,0.7483213543891907,0.061789244413375854,0.34763118624687195,0.2103193998336792,0.24954836070537567,1.0516390800476074,0.2376684993505478,0.2697524130344391,1.1646382808685303,0.7810779809951782,0.28252890706062317,1.0021859407424927,0.7665714621543884,0.09643249213695526,1.1637555360794067,0.7669429183006287,-0.002674690680578351,1.226449728012085,0.5341852903366089,0.19363634288311005,0.9426880478858948,0.4180717468261719,0.4430723488330841,1.1655209064483643,0.7952130436897278,0.5543425679206848,1.1973896026611328,0.5606987476348877,0.5342206954956055,1.2214844226837158,0.21102985739707947,0.0,0.0,0.0,0.0,0.0,0.3370000123977661,0.0001717002160148695,0.2104998528957367,0.33717453479766846,0.0003903019241988659,0.4784996807575226,0.33740875124931335,0.0005326381069608033,0.6529995203018188,0.3375731110572815,0.0006468332721851766,0.7929994463920593,0.33770498633384705,1.5699806484222412,1.5699672019958497,-4.4815658766310664e-05,3.092119868961163e-05,-6.802663508569821e-05,7.572257434949279e-05
1636565130.7973163,5.0,0.0,0.24954836070537567,1.0516390800476074,0.2376684993505478,0.04977349191904068,1.0275843143463135,0.7666357159614563,0.06342185288667679,0.8540464043617249,0.7511392831802368,-0.10948387533426285,1.0267733335494995,0.75364750623703,-0.18715520203113556,1.0759073495864868,0.5712329745292664,-1.4273138046264648,2.6918909549713135,1.0073121786117554,0.2090308517217636,1.028395414352417,0.7796239256858826,0.3311593234539032,1.0633739233016968,0.5222246646881104,0.3180314898490906,1.0790939331054688,0.29409459233283997,0.038505326956510544,0.9172391891479492,0.3082706034183502,0.07231827080249786,1.082055926322937,0.9197721481323242,0.1360304206609726,0.9856303334236145,0.9521871209144592,-0.10592060536146164,1.0611189603805542,0.8876007199287415,-0.1780795156955719,1.1175410747528076,0.6474098563194275,-0.06663860380649567,0.9744933843612671,0.5806980729103088,0.25055715441703796,1.1029927730560303,0.9519435167312622,0.39868900179862976,1.2142112255096436,0.7540565133094788,0.06573167443275452,0.34386640787124634,0.20402349531650543,0.24954836070537567,1.0516390800476074,0.2376684993505478,0.27915889024734497,1.1959717273712158,0.7731702923774719,0.29193541407585144,1.0335193872451782,0.7586637735366821,0.10583897680044174,1.1950891017913818,0.7590352296829224,0.006731791887432337,1.25778329372406,0.5262776017189026,0.2167118936777115,0.9882486462593079,0.4005773663520813,0.45247882604599,1.1968544721603394,0.7873053550720215,0.5637490153312683,1.2287230491638184,0.5527910590171814,0.5436272025108337,1.252817988395691,0.20312216877937317,0.0,0.0,0.0,0.0,0.0,0.3370000123977661,0.0001717002160148695,0.2104998528957367,0.33717453479766846,0.0003903019241988659,0.4784996807575226,0.33740875124931335,0.0005326381069608033,0.6529995203018188,0.3375731110572815,0.0006468332721851766,0.7929994463920593,0.33770498633384705,1.5699806484222412,1.5699672019958497,-4.4815658766310664e-05,3.092119868961163e-05,-6.802663508569821e-05,7.572257434949279e-05
1636565130.8015478,5.0,0.0,0.24954836070537567,1.0516390800476074,0.2376684993505478,0.04977349191904068,1.0275843143463135,0.7666357159614563,0.06342185288667679,0.8540464043617249,0.7511392831802368,-0.10948387533426285,1.0267733335494995,0.75364750623703,-0.18715520203113556,1.0759073495864868,0.5712329745292664,-1.4273138046264648,2.6918909549713135,1.0073121786117554,0.2090308517217636,1.028395414352417,0.7796239256858826,0.3311593234539032,1.0633739233016968,0.5222246646881104,0.3180314898490906,1.0790939331054688,0.29409459233283997,0.038505326956510544,0.9172391891479492,0.3082706034183502,0.07231827080249786,1.082055926322937,0.9197721481323242,0.1360304206609726,0.9856303334236145,0.9521871209144592,-0.10592060536146164,1.0611189603805542,0.8876007199287415,-0.1780795156955719,1.1175410747528076,0.6474098563194275,-0.06663860380649567,0.9744933843612671,0.5806980729103088,0.25055715441703796,1.1029927730560303,0.9519435167312622,0.39868900179862976,1.2142112255096436,0.7540565133094788,0.06573167443275452,0.34386640787124634,0.20402349531650543,0.24954836070537567,1.0516390800476074,0.2376684993505478,0.27915889024734497,1.1959717273712158,0.7731702923774719,0.29193541407585144,1.0335193872451782,0.7586637735366821,0.10583897680044174,1.1950891017913818,0.7590352296829224,0.006731791887432337,1.25778329372406,0.5262776017189026,0.2167118936777115,0.9882486462593079,0.4005773663520813,0.45247882604599,1.1968544721603394,0.7873053550720215,0.5637490153312683,1.2287230491638184,0.5527910590171814,0.5436272025108337,1.252817988395691,0.20312216877937317,0.0,0.0,0.0,0.0,0.0,0.3370000123977661,0.0001717002160148695,0.2104998528957367,0.33717453479766846,0.0003903019241988659,0.4784996807575226,0.33740875124931335,0.0005326381069608033,0.6529995203018188,0.3375731110572815,0.0006468332721851766,0.7929994463920593,0.33770498633384705,1.5699806484222412,1.5699672019958497,-4.4815658766310664e-05,3.092119868961163e-05,-6.802663508569821e-05,7.572257434949279e-05
1636565130.8303082,5.0,0.0,0.2535753846168518,1.0598610639572144,0.23650231957435608,0.04382431134581566,1.032982587814331,0.7747942209243774,0.06502905488014221,0.8513231873512268,0.7497867345809937,-0.1158427745103836,1.0256690979003906,0.7644008994102478,-0.18911370635032654,1.0708881616592407,0.5539878010749817,-1.367264747619629,2.5732192993164062,0.9621683955192566,0.20349140465259552,1.040295958518982,0.7851875424385071,0.32711318135261536,1.0735602378845215,0.5256116390228271,0.31785857677459717,1.0795255899429321,0.29418882727622986,0.038505326956510544,0.9172391891479492,0.3082706034183502,0.07231827080249786,1.082055926322937,0.9197721481323242,0.1360304206609726,0.9856303334236145,0.9521871209144592,-0.10592060536146164,1.0611189603805542,0.8876007199287415,-0.1780795156955719,1.1175410747528076,0.6474098563194275,-0.06663860380649567,0.9744933843612671,0.5806980729103088,0.25055715441703796,1.1029927730560303,0.9519435167312622,0.39868900179862976,1.2142112255096436,0.7540565133094788,0.06573167443275452,0.34386640787124634,0.20402349531650543,0.2535753846168518,1.0598610639572144,0.23650231957435608,0.2831859290599823,1.2041937112808228,0.7720041275024414,0.30197879672050476,1.043196678161621,0.749841034412384,0.10983656346797943,1.1962535381317139,0.7607201933860779,0.025838740170001984,1.2480926513671875,0.5195025205612183,0.23581883311271667,0.9785580635070801,0.393802285194397,0.456535279750824,1.2121338844299316,0.7832880616188049,0.5682376623153687,1.2421908378601074,0.548740029335022,0.5542140007019043,1.251230239868164,0.1980614811182022,0.0,0.0,0.0,0.0,0.0,0.3370000123977661,0.0001717002160148695,0.2104998528957367,0.3371734917163849,0.0003903019241988659,0.4784996807575226,0.3374063968658447,0.0005326381069608033,0.6529995203018188,0.3375698924064636,0.0006468332721851766,0.7929994463920593,0.33770108222961426,1.5699806484222412,1.5699721279144288,-4.4815658766310664e-05,3.092119868961163e-05,-6.802663508569821e-05,7.572257434949279e-05
1636565130.83454,5.0,0.0,0.2535753846168518,1.0598610639572144,0.23650231957435608,0.04382431134581566,1.032982587814331,0.7747942209243774,0.06502905488014221,0.8513231873512268,0.7497867345809937,-0.1158427745103836,1.0256690979003906,0.7644008994102478,-0.18911370635032654,1.0708881616592407,0.5539878010749817,-1.367264747619629,2.5732192993164062,0.9621683955192566,0.20349140465259552,1.040295958518982,0.7851875424385071,0.32711318135261536,1.0735602378845215,0.5256116390228271,0.31785857677459717,1.0795255899429321,0.29418882727622986,0.038505326956510544,0.9172391891479492,0.3082706034183502,0.07231827080249786,1.082055926322937,0.9197721481323242,0.1360304206609726,0.9856303334236145,0.9521871209144592,-0.10592060536146164,1.0611189603805542,0.8876007199287415,-0.1780795156955719,1.1175410747528076,0.6474098563194275,-0.06663860380649567,0.9744933843612671,0.5806980729103088,0.25055715441703796,1.1029927730560303,0.9519435167312622,0.39868900179862976,1.2142112255096436,0.7540565133094788,0.06573167443275452,0.34386640787124634,0.20402349531650543,0.2535753846168518,1.0598610639572144,0.23650231957435608,0.2831859290599823,1.2041937112808228,0.7720041275024414,0.30197879672050476,1.043196678161621,0.749841034412384,0.10983656346797943,1.1962535381317139,0.7607201933860779,0.025838740170001984,1.2480926513671875,0.5195025205612183,0.23581883311271667,0.9785580635070801,0.393802285194397,0.456535279750824,1.2121338844299316,0.7832880616188049,0.5682376623153687,1.2421908378601074,0.548740029335022,0.5542140007019043,1.251230239868164,0.1980614811182022,0.0,0.0,0.0,0.0,0.0,0.3370000123977661,0.0001717002160148695,0.2104998528957367,0.3371734917163849,0.0003903019241988659,0.4784996807575226,0.3374063968658447,0.0005326381069608033,0.6529995203018188,0.3375698924064636,0.0006468332721851766,0.7929994463920593,0.33770108222961426,1.5699806484222412,1.5699721279144288,-4.4815658766310664e-05,3.092119868961163e-05,-6.802663508569821e-05,7.572257434949279e-05
1636565130.8633196,5.0,0.0,0.2535753846168518,1.0598610639572144,0.23650231957435608,0.04382431134581566,1.032982587814331,0.7747942209243774,0.06502905488014221,0.8513231873512268,0.7497867345809937,-0.1158427745103836,1.0256690979003906,0.7644008994102478,-0.18911370635032654,1.0708881616592407,0.5539878010749817,-1.367264747619629,2.5732192993164062,0.9621683955192566,0.20349140465259552,1.040295958518982,0.7851875424385071,0.32711318135261536,1.0735602378845215,0.5256116390228271,0.31785857677459717,1.0795255899429321,0.29418882727622986,0.03368161991238594,0.912796139717102,0.32678458094596863,0.07031884789466858,1.076535701751709,0.9165822267532349,0.12757551670074463,0.9624619483947754,0.9468241930007935,-0.10637407004833221,1.0591696500778198,0.8865039944648743,-0.1780795156955719,1.1175410747528076,0.6474098563194275,-0.07128749787807465,0.9567000269889832,0.5729010105133057,0.24701176583766937,1.0939018726348877,0.9466605186462402,0.39150291681289673,1.1977009773254395,0.746334433555603,0.06443028897047043,0.35333454608917236,0.21244175732135773,0.2535753846168518,1.0598610639572144,0.23650231957435608,0.28675928711891174,1.2081669569015503,0.770707368850708,0.3055521547794342,1.0471699237823486,0.7485442757606506,0.11340992897748947,1.200226902961731,0.7594234347343445,0.029412109404802322,1.252065896987915,0.5182057619094849,0.21728341281414032,0.9691100716590881,0.3871278166770935,0.4601086676120758,1.2161071300506592,0.7819913029670715,0.5718110799789429,1.246164083480835,0.5474432706832886,0.5577874183654785,1.2552034854888916,0.1967647522687912,0.0,0.0,0.0,0.0,0.0,0.3370000123977661,0.0001717002160148695,0.2104998528957367,0.3371734917163849,0.0003903019241988659,0.4784996807575226,0.3374063968658447,0.0005326381069608033,0.6529995203018188,0.3375698924064636,0.0006468332721851766,0.7929994463920593,0.33770108222961426,1.5699806484222412,1.5699721279144288,-4.4815658766310664e-05,3.092119868961163e-05,-6.802663508569821e-05,7.572257434949279e-05
1636565130.8676603,5.0,0.0,0.2535753846168518,1.0598610639572144,0.23650231957435608,0.04382431134581566,1.032982587814331,0.7747942209243774,0.06502905488014221,0.8513231873512268,0.7497867345809937,-0.1158427745103836,1.0256690979003906,0.7644008994102478,-0.18911370635032654,1.0708881616592407,0.5539878010749817,-1.367264747619629,2.5732192993164062,0.9621683955192566,0.20349140465259552,1.040295958518982,0.7851875424385071,0.32711318135261536,1.0735602378845215,0.5256116390228271,0.31785857677459717,1.0795255899429321,0.29418882727622986,0.03368161991238594,0.912796139717102,0.32678458094596863,0.07031884789466858,1.076535701751709,0.9165822267532349,0.12757551670074463,0.9624619483947754,0.9468241930007935,-0.10637407004833221,1.0591696500778198,0.8865039944648743,-0.1780795156955719,1.1175410747528076,0.6474098563194275,-0.07128749787807465,0.9567000269889832,0.5729010105133057,0.24701176583766937,1.0939018726348877,0.9466605186462402,0.39150291681289673,1.1977009773254395,0.746334433555603,0.06443028897047043,0.35333454608917236,0.21244175732135773,0.2535753846168518,1.0598610639572144,0.23650231957435608,0.28675928711891174,1.2081669569015503,0.770707368850708,0.3055521547794342,1.0471699237823486,0.7485442757606506,0.11340992897748947,1.200226902961731,0.7594234347343445,0.029412109404802322,1.252065896987915,0.5182057619094849,0.21728341281414032,0.9691100716590881,0.3871278166770935,0.4601086676120758,1.2161071300506592,0.7819913029670715,0.5718110799789429,1.246164083480835,0.5474432706832886,0.5577874183654785,1.2552034854888916,0.1967647522687912,0.0,0.0,0.0,0.0,0.0,0.3370000123977661,0.0001717002160148695,0.2104998528957367,0.3371734917163849,0.0003903019241988659,0.4784996807575226,0.3374063968658447,0.0005326381069608033,0.6529995203018188,0.3375698924064636,0.0006468332721851766,0.7929994463920593,0.33770108222961426,1.5699806484222412,1.5699721279144288,-4.4815658766310664e-05,3.092119868961163e-05,-6.802663508569821e-05,7.572257434949279e-05
1636565130.8963647,5.0,0.0,0.2505420744419098,1.0605645179748535,0.2415943592786789,0.045315828174352646,1.0303335189819336,0.7735668420791626,0.06458760797977448,0.8626533150672913,0.7452414035797119,-0.11385788023471832,1.0225154161453247,0.7629486322402954,-0.17743489146232605,1.0529588460922241,0.5477685332298279,-1.2048224210739136,2.343714714050293,0.8898854851722717,0.20448952913284302,1.0381516218185425,0.7841850519180298,0.3302457630634308,1.0656739473342896,0.5229893922805786,0.31582656502723694,1.0845980644226074,0.29529619216918945,0.03368161991238594,0.912796139717102,0.32678458094596863,0.07031884789466858,1.076535701751709,0.9165822267532349,0.12757551670074463,0.9624619483947754,0.9468241930007935,-0.10637407004833221,1.0591696500778198,0.8865039944648743,-0.1780795156955719,1.1175410747528076,0.6474098563194275,-0.07128749787807465,0.9567000269889832,0.5729010105133057,0.24701176583766937,1.0939018726348877,0.9466605186462402,0.39150291681289673,1.1977009773254395,0.746334433555603,0.06443028897047043,0.35333454608917236,0.21244175732135773,0.2505420744419098,1.0605645179748535,0.2415943592786789,0.2837259769439697,1.2088704109191895,0.7757994532585144,0.3021480441093445,1.0485833883285522,0.7487229108810425,0.11042200773954391,1.200358271598816,0.7642385959625244,0.03724239766597748,1.2353999614715576,0.5165579319000244,0.22511370480060577,0.9524440765380859,0.38547998666763306,0.45702993869781494,1.2173826694488525,0.7873602509498596,0.5699709057807922,1.2421002388000488,0.552781879901886,0.5478586554527283,1.2711210250854492,0.20360766351222992,0.0,0.0,0.0,0.0,0.0,0.3370000123977661,0.0001717002160148695,0.2104998528957367,0.3371734917163849,0.0003903019241988659,0.4784996807575226,0.3374063968658447,0.0005326381069608033,0.6529995203018188,0.3375698924064636,0.0006468332721851766,0.7929994463920593,0.33770108222961426,1.5699806484222412,1.5699721279144288,-4.4815658766310664e-05,3.092119868961163e-05,-6.802663508569821e-05,7.572257434949279e-05
1636565130.9005542,5.0,0.0,0.2505420744419098,1.0605645179748535,0.2415943592786789,0.045315828174352646,1.0303335189819336,0.7735668420791626,0.06458760797977448,0.8626533150672913,0.7452414035797119,-0.11385788023471832,1.0225154161453247,0.7629486322402954,-0.17743489146232605,1.0529588460922241,0.5477685332298279,-1.2048224210739136,2.343714714050293,0.8898854851722717,0.20448952913284302,1.0381516218185425,0.7841850519180298,0.3302457630634308,1.0656739473342896,0.5229893922805786,0.31582656502723694,1.0845980644226074,0.29529619216918945,0.03368161991238594,0.912796139717102,0.32678458094596863,0.07031884789466858,1.076535701751709,0.9165822267532349,0.12757551670074463,0.9624619483947754,0.9468241930007935,-0.10637407004833221,1.0591696500778198,0.8865039944648743,-0.1780795156955719,1.1175410747528076,0.6474098563194275,-0.07128749787807465,0.9567000269889832,0.5729010105133057,0.24701176583766937,1.0939018726348877,0.9466605186462402,0.39150291681289673,1.1977009773254395,0.746334433555603,0.06443028897047043,0.35333454608917236,0.21244175732135773,0.2505420744419098,1.0605645179748535,0.2415943592786789,0.2837259769439697,1.2088704109191895,0.7757994532585144,0.3021480441093445,1.0485833883285522,0.7487229108810425,0.11042200773954391,1.200358271598816,0.7642385959625244,0.03724239766597748,1.2353999614715576,0.5165579319000244,0.22511370480060577,0.9524440765380859,0.38547998666763306,0.45702993869781494,1.2173826694488525,0.7873602509498596,0.5699709057807922,1.2421002388000488,0.552781879901886,0.5478586554527283,1.2711210250854492,0.20360766351222992,0.0,0.0,0.0,0.0,0.0,0.3370000123977661,0.0001717002160148695,0.2104998528957367,0.3371734917163849,0.0003903019241988659,0.4784996807575226,0.3374063968658447,0.0005326381069608033,0.6529995203018188,0.3375698924064636,0.0006468332721851766,0.7929994463920593,0.33770108222961426,1.5699806484222412,1.5699721279144288,-4.4815658766310664e-05,3.092119868961163e-05,-6.802663508569821e-05,7.572257434949279e-05
1636565130.9293277,5.0,0.0,0.2505420744419098,1.0605645179748535,0.2415943592786789,0.045315828174352646,1.0303335189819336,0.7735668420791626,0.06458760797977448,0.8626533150672913,0.7452414035797119,-0.11385788023471832,1.0225154161453247,0.7629486322402954,-0.17743489146232605,1.0529588460922241,0.5477685332298279,-1.2048224210739136,2.343714714050293,0.8898854851722717,0.20448952913284302,1.0381516218185425,0.7841850519180298,0.3302457630634308,1.0656739473342896,0.5229893922805786,0.31582656502723694,1.0845980644226074,0.29529619216918945,0.08447447419166565,1.088612675666809,0.36883246898651123,0.0685793086886406,1.070114016532898,0.9038426280021667,0.12444290518760681,0.9536857008934021,0.9413984417915344,-0.10736927390098572,1.0530116558074951,0.8741955757141113,-0.1792563796043396,1.1114802360534668,0.6447429656982422,-0.06729155778884888,0.9719942808151245,0.5796029567718506,0.2445278912782669,1.0872163772583008,0.9334896802902222,0.4010646939277649,1.2196040153503418,0.7471703886985779,0.06198573485016823,0.348099023103714,0.20485492050647736,0.2505420744419098,1.0605645179748535,0.2415943592786789,0.050917696207761765,1.031158685684204,0.7590460777282715,0.06933975964784622,0.8708717226982117,0.7319695949554443,-0.12238627672195435,1.0226465463638306,0.7474852800369263,-0.19556587934494019,1.0576882362365723,0.4998045861721039,0.01856960915029049,0.7909178137779236,0.37522268295288086,0.22422166168689728,1.0396709442138672,0.7706069350242615,0.33716264367103577,1.0643885135650635,0.5360285639762878,0.3150503635406494,1.0934092998504639,0.1868543177843094,0.0,0.0,0.0,0.0,0.0,0.3370000123977661,0.0001717002160148695,0.2104998528957367,0.3371734917163849,0.0003903019241988659,0.4784996807575226,0.3374063968658447,0.0005326381069608033,0.6529995203018188,0.3375698924064636,0.0006468332721851766,0.7929994463920593,0.33770108222961426,1.5699806484222412,1.5699721279144288,-4.4815658766310664e-05,3.092119868961163e-05,-6.802663508569821e-05,7.572257434949279e-05
1636565130.9335718,5.0,0.0,0.2505420744419098,1.0605645179748535,0.2415943592786789,0.045315828174352646,1.0303335189819336,0.7735668420791626,0.06458760797977448,0.8626533150672913,0.7452414035797119,-0.11385788023471832,1.0225154161453247,0.7629486322402954,-0.17743489146232605,1.0529588460922241,0.5477685332298279,-1.2048224210739136,2.343714714050293,0.8898854851722717,0.20448952913284302,1.0381516218185425,0.7841850519180298,0.3302457630634308,1.0656739473342896,0.5229893922805786,0.31582656502723694,1.0845980644226074,0.29529619216918945,0.08447447419166565,1.088612675666809,0.36883246898651123,0.0685793086886406,1.070114016532898,0.9038426280021667,0.12444290518760681,0.9536857008934021,0.9413984417915344,-0.10736927390098572,1.0530116558074951,0.8741955757141113,-0.1792563796043396,1.1114802360534668,0.6447429656982422,-0.06729155778884888,0.9719942808151245,0.5796029567718506,0.2445278912782669,1.0872163772583008,0.9334896802902222,0.4010646939277649,1.2196040153503418,0.7471703886985779,0.06198573485016823,0.348099023103714,0.20485492050647736,0.2505420744419098,1.0605645179748535,0.2415943592786789,0.050917696207761765,1.031158685684204,0.7590460777282715,0.06933975964784622,0.8708717226982117,0.7319695949554443,-0.12238627672195435,1.0226465463638306,0.7474852800369263,-0.19556587934494019,1.0576882362365723,0.4998045861721039,0.01856960915029049,0.7909178137779236,0.37522268295288086,0.22422166168689728,1.0396709442138672,0.7706069350242615,0.33716264367103577,1.0643885135650635,0.5360285639762878,0.3150503635406494,1.0934092998504639,0.1868543177843094,0.0,0.0,0.0,0.0,0.0,0.3370000123977661,0.0001717002160148695,0.2104998528957367,0.3371734917163849,0.0003903019241988659,0.4784996807575226,0.3374063968658447,0.0005326381069608033,0.6529995203018188,0.3375698924064636,0.0006468332721851766,0.7929994463920593,0.33770108222961426,1.5699806484222412,1.5699721279144288,-4.4815658766310664e-05,3.092119868961163e-05,-6.802663508569821e-05,7.572257434949279e-05
1636565130.9623113,5.0,0.0,0.23376885056495667,1.080464482307434,0.24545536935329437,0.050892531871795654,1.0253841876983643,0.7656146287918091,0.06502905488014221,0.8513231873512268,0.7497867345809937,-0.10874293744564056,1.0255893468856812,0.7531089782714844,-0.1698807030916214,1.0223605632781982,0.533211886882782,-0.1041087955236435,0.7497962117195129,0.3668830692768097,0.21052800118923187,1.0251790285110474,0.7781202793121338,0.3343324363231659,1.0703924894332886,0.5145348906517029,0.31721001863479614,1.0811445713043213,0.29454222321510315,0.08447447419166565,1.088612675666809,0.36883246898651123,0.0685793086886406,1.070114016532898,0.9038426280021667,0.12444290518760681,0.9536857008934021,0.9413984417915344,-0.10736927390098572,1.0530116558074951,0.8741955757141113,-0.1792563796043396,1.1114802360534668,0.6447429656982422,-0.06729155778884888,0.9719942808151245,0.5796029567718506,0.2445278912782669,1.0872163772583008,0.9334896802902222,0.4010646939277649,1.2196040153503418,0.7471703886985779,0.06198573485016823,0.348099023103714,0.20485492050647736,0.23376885056495667,1.080464482307434,0.24545536935329437,0.050467878580093384,1.0252562761306763,0.7668225169181824,0.0636570006608963,0.8628605008125305,0.7520553469657898,-0.12289842218160629,1.0254790782928467,0.7532411813735962,-0.19270648062229156,1.0217924118041992,0.5021592974662781,0.021429013460874557,0.7550221085548401,0.37757736444473267,0.22383417189121246,1.0250334739685059,0.7804037928581238,0.33369970321655273,1.0651564598083496,0.5464949607849121,0.30648958683013916,1.0822430849075317,0.1968931257724762,0.0,0.0,0.0,0.0,0.0,0.3370000123977661,0.0001717002160148695,0.2104998528957367,0.3371734917163849,0.0003903019241988659,0.4784996807575226,0.3374063968658447,0.0005326381069608033,0.6529995203018188,0.3375698924064636,0.0006468332721851766,0.7929994463920593,0.33770108222961426,1.5699806484222412,1.5699721279144288,-4.4815658766310664e-05,3.092119868961163e-05,-6.802663508569821e-05,7.572257434949279e-05
1636565130.9665375,5.0,0.0,0.23376885056495667,1.080464482307434,0.24545536935329437,0.050892531871795654,1.0253841876983643,0.7656146287918091,0.06502905488014221,0.8513231873512268,0.7497867345809937,-0.10874293744564056,1.0255893468856812,0.7531089782714844,-0.1698807030916214,1.0223605632781982,0.533211886882782,-0.1041087955236435,0.7497962117195129,0.3668830692768097,0.21052800118923187,1.0251790285110474,0.7781202793121338,0.3343324363231659,1.0703924894332886,0.5145348906517029,0.31721001863479614,1.0811445713043213,0.29454222321510315,0.08447447419166565,1.088612675666809,0.36883246898651123,0.0685793086886406,1.070114016532898,0.9038426280021667,0.12444290518760681,0.9536857008934021,0.9413984417915344,-0.10736927390098572,1.0530116558074951,0.8741955757141113,-0.1792563796043396,1.1114802360534668,0.6447429656982422,-0.06729155778884888,0.9719942808151245,0.5796029567718506,0.2445278912782669,1.0872163772583008,0.9334896802902222,0.4010646939277649,1.2196040153503418,0.7471703886985779,0.06198573485016823,0.348099023103714,0.20485492050647736,0.23376885056495667,1.080464482307434,0.24545536935329437,0.050467878580093384,1.0252562761306763,0.7668225169181824,0.0636570006608963,0.8628605008125305,0.7520553469657898,-0.12289842218160629,1.0254790782928467,0.7532411813735962,-0.19270648062229156,1.0217924118041992,0.5021592974662781,0.021429013460874557,0.7550221085548401,0.37757736444473267,0.22383417189121246,1.0250334739685059,0.7804037928581238,0.33369970321655273,1.0651564598083496,0.5464949607849121,0.30648958683013916,1.0822430849075317,0.1968931257724762,0.0,0.0,0.0,0.0,0.0,0.3370000123977661,0.0001717002160148695,0.2104998528957367,0.3371734917163849,0.0003903019241988659,0.4784996807575226,0.3374063968658447,0.0005326381069608033,0.6529995203018188,0.3375698924064636,0.0006468332721851766,0.7929994463920593,0.33770108222961426,1.5699806484222412,1.5699721279144288,-4.4815658766310664e-05,3.092119868961163e-05,-6.802663508569821e-05,7.572257434949279e-05
1636565130.9953053,5.0,0.0,0.23376885056495667,1.080464482307434,0.24545536935329437,0.050892531871795654,1.0253841876983643,0.7656146287918091,0.06502905488014221,0.8513231873512268,0.7497867345809937,-0.10874293744564056,1.0255893468856812,0.7531089782714844,-0.1698807030916214,1.0223605632781982,0.533211886882782,-0.1041087955236435,0.7497962117195129,0.3668830692768097,0.21052800118923187,1.0251790285110474,0.7781202793121338,0.3343324363231659,1.0703924894332886,0.5145348906517029,0.31721001863479614,1.0811445713043213,0.29454222321510315,0.036963388323783875,0.9114923477172852,0.30019909143447876,0.07130511850118637,1.0807753801345825,0.918967604637146,0.12754182517528534,0.962367594242096,0.9467658996582031,-0.10440152883529663,1.067649006843567,0.891274631023407,-0.17751067876815796,1.1204705238342285,0.6486988663673401,-0.06880637258291245,0.9661964178085327,0.5770623087882996,0.24701176583766937,1.0939018726348877,0.9466605186462402,0.4043123722076416,1.2058589458465576,0.7421479225158691,0.06633660942316055,0.3452162444591522,0.19889949262142181,0.23376885056495667,1.080464482307434,0.24545536935329437,0.050467878580093384,1.0252562761306763,0.7668225169181824,0.0636570006608963,0.8628605008125305,0.7520553469657898,-0.12289842218160629,1.0254790782928467,0.7532411813735962,-0.19270648062229156,1.0217924118041992,0.5021592974662781,0.003342232434079051,0.743558406829834,0.3729625344276428,0.22383417189121246,1.0250334739685059,0.7804037928581238,0.33369970321655273,1.0651564598083496,0.5464949607849121,0.30648958683013916,1.0822430849075317,0.1968931257724762,0.0,0.0,0.0,0.0,0.0,0.3370000123977661,0.0001717002160148695,0.2104998528957367,0.3371734917163849,0.0003903019241988659,0.4784996807575226,0.3374063968658447,0.0005326381069608033,0.6529995203018188,0.3375698924064636,0.0006468332721851766,0.7929994463920593,0.33770108222961426,1.5699806484222412,1.5699721279144288,-4.4815658766310664e-05,3.092119868961163e-05,-6.802663508569821e-05,7.572257434949279e-05
1636565130.9995623,5.0,0.0,0.23376885056495667,1.080464482307434,0.24545536935329437,0.050892531871795654,1.0253841876983643,0.7656146287918091,0.06502905488014221,0.8513231873512268,0.7497867345809937,-0.10874293744564056,1.0255893468856812,0.7531089782714844,-0.1698807030916214,1.0223605632781982,0.533211886882782,-0.1041087955236435,0.7497962117195129,0.3668830692768097,0.21052800118923187,1.0251790285110474,0.7781202793121338,0.3343324363231659,1.0703924894332886,0.5145348906517029,0.31721001863479614,1.0811445713043213,0.29454222321510315,0.036963388323783875,0.9114923477172852,0.30019909143447876,0.07130511850118637,1.0807753801345825,0.918967604637146,0.12754182517528534,0.962367594242096,0.9467658996582031,-0.10440152883529663,1.067649006843567,0.891274631023407,-0.17751067876815796,1.1204705238342285,0.6486988663673401,-0.06880637258291245,0.9661964178085327,0.5770623087882996,0.24701176583766937,1.0939018726348877,0.9466605186462402,0.4043123722076416,1.2058589458465576,0.7421479225158691,0.06633660942316055,0.3452162444591522,0.19889949262142181,0.23376885056495667,1.080464482307434,0.24545536935329437,0.050467878580093384,1.0252562761306763,0.7668225169181824,0.0636570006608963,0.8628605008125305,0.7520553469657898,-0.12289842218160629,1.0254790782928467,0.7532411813735962,-0.19270648062229156,1.0217924118041992,0.5021592974662781,0.003342232434079051,0.743558406829834,0.3729625344276428,0.22383417189121246,1.0250334739685059,0.7804037928581238,0.33369970321655273,1.0651564598083496,0.5464949607849121,0.30648958683013916,1.0822430849075317,0.1968931257724762,0.0,0.0,0.0,0.0,0.0,0.3370000123977661,0.0001717002160148695,0.2104998528957367,0.3371734917163849,0.0003903019241988659,0.4784996807575226,0.3374063968658447,0.0005326381069608033,0.6529995203018188,0.3375698924064636,0.0006468332721851766,0.7929994463920593,0.33770108222961426,1.5699806484222412,1.5699721279144288,-4.4815658766310664e-05,3.092119868961163e-05,-6.802663508569821e-05,7.572257434949279e-05
1636565131.0283108,5.0,0.0,0.2964138090610504,0.9751416444778442,0.20689769089221954,0.05159372463822365,1.0237418413162231,0.7648418545722961,0.062469374388456345,0.8556602597236633,0.7519408464431763,-0.10923691838979721,1.0263786315917969,0.7534679770469666,-0.18415334820747375,1.0632730722427368,0.5513463020324707,-1.3542916774749756,2.587758779525757,0.9742944240570068,0.2124243676662445,1.0211050510406494,0.7762157320976257,0.33757469058036804,1.0621695518493652,0.5118412375450134,0.3161725103855133,1.0837345123291016,0.2951076626777649,0.036963388323783875,0.9114923477172852,0.30019909143447876,0.07130511850118637,1.0807753801345825,0.918967604637146,0.12754182517528534,0.962367594242096,0.9467658996582031,-0.10440152883529663,1.067649006843567,0.891274631023407,-0.17751067876815796,1.1204705238342285,0.6486988663673401,-0.06880637258291245,0.9661964178085327,0.5770623087882996,0.24701176583766937,1.0939018726348877,0.9466605186462402,0.4043123722076416,1.2058589458465576,0.7421479225158691,0.06633660942316055,0.3452162444591522,0.19889949262142181,0.2964138090610504,0.9751416444778442,0.20689769089221954,0.07395460456609726,1.0193029642105103,0.7138814926147461,0.08448722958564758,0.8565227389335632,0.701387345790863,-0.0994865745306015,1.022146463394165,0.7016158103942871,-0.18876950442790985,1.0661159753799438,0.4607338309288025,0.007279207929968834,0.7878818511962891,0.33153706789016724,0.24739578366279602,1.016459345817566,0.7261471748352051,0.35820481181144714,1.0528181791305542,0.49206802248954773,0.32387226819992065,1.0874119997024536,0.14439240097999573,0.0,0.0,0.0,0.0,0.0,0.3370000123977661,0.0001717002160148695,0.2104998528957367,0.3371734917163849,0.0003903019241988659,0.4784996807575226,0.3374063968658447,0.0005326381069608033,0.6529995203018188,0.3375698924064636,0.0006468332721851766,0.7929994463920593,0.33770108222961426,1.5699806484222412,1.5699721279144288,-4.4815658766310664e-05,3.092119868961163e-05,-6.802663508569821e-05,7.572257434949279e-05
1636565131.0325449,5.0,0.0,0.2964138090610504,0.9751416444778442,0.20689769089221954,0.05159372463822365,1.0237418413162231,0.7648418545722961,0.062469374388456345,0.8556602597236633,0.7519408464431763,-0.10923691838979721,1.0263786315917969,0.7534679770469666,-0.18415334820747375,1.0632730722427368,0.5513463020324707,-1.3542916774749756,2.587758779525757,0.9742944240570068,0.2124243676662445,1.0211050510406494,0.7762157320976257,0.33757469058036804,1.0621695518493652,0.5118412375450134,0.3161725103855133,1.0837345123291016,0.2951076626777649,0.036963388323783875,0.9114923477172852,0.30019909143447876,0.07130511850118637,1.0807753801345825,0.918967604637146,0.12754182517528534,0.962367594242096,0.9467658996582031,-0.10440152883529663,1.067649006843567,0.891274631023407,-0.17751067876815796,1.1204705238342285,0.6486988663673401,-0.06880637258291245,0.9661964178085327,0.5770623087882996,0.24701176583766937,1.0939018726348877,0.9466605186462402,0.4043123722076416,1.2058589458465576,0.7421479225158691,0.06633660942316055,0.3452162444591522,0.19889949262142181,0.2964138090610504,0.9751416444778442,0.20689769089221954,0.07395460456609726,1.0193029642105103,0.7138814926147461,0.08448722958564758,0.8565227389335632,0.701387345790863,-0.0994865745306015,1.022146463394165,0.7016158103942871,-0.18876950442790985,1.0661159753799438,0.4607338309288025,0.007279207929968834,0.7878818511962891,0.33153706789016724,0.24739578366279602,1.016459345817566,0.7261471748352051,0.35820481181144714,1.0528181791305542,0.49206802248954773,0.32387226819992065,1.0874119997024536,0.14439240097999573,0.0,0.0,0.0,0.0,0.0,0.3370000123977661,0.0001717002160148695,0.2104998528957367,0.3371734917163849,0.0003903019241988659,0.4784996807575226,0.3374063968658447,0.0005326381069608033,0.6529995203018188,0.3375698924064636,0.0006468332721851766,0.7929994463920593,0.33770108222961426,1.5699806484222412,1.5699721279144288,-4.4815658766310664e-05,3.092119868961163e-05,-6.802663508569821e-05,7.572257434949279e-05
1636565131.0613635,5.0,0.0,0.2964138090610504,0.9751416444778442,0.20689769089221954,0.05159372463822365,1.0237418413162231,0.7648418545722961,0.062469374388456345,0.8556602597236633,0.7519408464431763,-0.10923691838979721,1.0263786315917969,0.7534679770469666,-0.18415334820747375,1.0632730722427368,0.5513463020324707,-1.3542916774749756,2.587758779525757,0.9742944240570068,0.2124243676662445,1.0211050510406494,0.7762157320976257,0.33757469058036804,1.0621695518493652,0.5118412375450134,0.3161725103855133,1.0837345123291016,0.2951076626777649,0.030376827344298363,0.8756723999977112,0.2982032001018524,0.06997497379779816,1.0905647277832031,0.9238165616989136,0.12663236260414124,0.9598196148872375,0.9451906085014343,-0.10236098617315292,1.076420783996582,0.8962098360061646,-0.1792563796043396,1.1114802360534668,0.6447429656982422,-0.06927649676799774,0.9643970131874084,0.5762737989425659,0.24231094121932983,1.1047087907791138,0.9514232873916626,0.40100038051605225,1.2195215225219727,0.7565402984619141,0.05493759736418724,0.3576818108558655,0.2125847041606903,0.2964138090610504,0.9751416444778442,0.20689769089221954,0.07395460456609726,1.0193029642105103,0.7138814926147461,0.08448722958564758,0.8565227389335632,0.701387345790863,-0.0994865745306015,1.022146463394165,0.7016158103942871,-0.18876950442790985,1.0661159753799438,0.4607338309288025,0.015510734170675278,0.7929187417030334,0.33355697989463806,0.24739578366279602,1.016459345817566,0.7261471748352051,0.35820481181144714,1.0528181791305542,0.49206802248954773,0.32387226819992065,1.0874119997024536,0.14439240097999573,0.0,0.0,0.0,0.0,0.0,0.3370000123977661,0.0001717002160148695,0.2104998528957367,0.3371734917163849,0.0003903019241988659,0.4784996807575226,0.3374063968658447,0.0005326381069608033,0.6529995203018188,0.3375698924064636,0.0006468332721851766,0.7929994463920593,0.33770108222961426,1.5699806484222412,1.5699721279144288,-4.4815658766310664e-05,3.092119868961163e-05,-6.802663508569821e-05,7.572257434949279e-05
1636565131.065543,5.0,0.0,0.2964138090610504,0.9751416444778442,0.20689769089221954,0.05159372463822365,1.0237418413162231,0.7648418545722961,0.062469374388456345,0.8556602597236633,0.7519408464431763,-0.10923691838979721,1.0263786315917969,0.7534679770469666,-0.18415334820747375,1.0632730722427368,0.5513463020324707,-1.3542916774749756,2.587758779525757,0.9742944240570068,0.2124243676662445,1.0211050510406494,0.7762157320976257,0.33757469058036804,1.0621695518493652,0.5118412375450134,0.3161725103855133,1.0837345123291016,0.2951076626777649,0.030376827344298363,0.8756723999977112,0.2982032001018524,0.06997497379779816,1.0905647277832031,0.9238165616989136,0.12663236260414124,0.9598196148872375,0.9451906085014343,-0.10236098617315292,1.076420783996582,0.8962098360061646,-0.1792563796043396,1.1114802360534668,0.6447429656982422,-0.06927649676799774,0.9643970131874084,0.5762737989425659,0.24231094121932983,1.1047087907791138,0.9514232873916626,0.40100038051605225,1.2195215225219727,0.7565402984619141,0.05493759736418724,0.3576818108558655,0.2125847041606903,0.2964138090610504,0.9751416444778442,0.20689769089221954,0.07395460456609726,1.0193029642105103,0.7138814926147461,0.08448722958564758,0.8565227389335632,0.701387345790863,-0.0994865745306015,1.022146463394165,0.7016158103942871,-0.18876950442790985,1.0661159753799438,0.4607338309288025,0.015510734170675278,0.7929187417030334,0.33355697989463806,0.24739578366279602,1.016459345817566,0.7261471748352051,0.35820481181144714,1.0528181791305542,0.49206802248954773,0.32387226819992065,1.0874119997024536,0.14439240097999573,0.0,0.0,0.0,0.0,0.0,0.3370000123977661,0.0001717002160148695,0.2104998528957367,0.3371734917163849,0.0003903019241988659,0.4784996807575226,0.3374063968658447,0.0005326381069608033,0.6529995203018188,0.3375698924064636,0.0006468332721851766,0.7929994463920593,0.33770108222961426,1.5699806484222412,1.5699721279144288,-4.4815658766310664e-05,3.092119868961163e-05,-6.802663508569821e-05,7.572257434949279e-05
1636565131.0943227,5.0,0.0,0.29299458861351013,0.9819340109825134,0.22026696801185608,0.049962617456912994,1.0280787944793701,0.7669000029563904,0.06502905488014221,0.8513231873512268,0.7497867345809937,-0.10621116310358047,1.0215438604354858,0.7512689828872681,-0.1694900244474411,1.0328774452209473,0.525571882724762,-1.4332009553909302,2.6663765907287598,0.9915084838867188,0.20613639056682587,1.0346137285232544,0.7825310230255127,0.3338136076927185,1.0717084407806396,0.5149659514427185,0.31816115975379944,1.0787701606750488,0.29402393102645874,0.030376827344298363,0.8756723999977112,0.2982032001018524,0.06997497379779816,1.0905647277832031,0.9238165616989136,0.12663236260414124,0.9598196148872375,0.9451906085014343,-0.10236098617315292,1.076420783996582,0.8962098360061646,-0.1792563796043396,1.1114802360534668,0.6447429656982422,-0.06927649676799774,0.9643970131874084,0.5762737989425659,0.24231094121932983,1.1047087907791138,0.9514232873916626,0.40100038051605225,1.2195215225219727,0.7565402984619141,0.05493759736418724,0.3576818108558655,0.2125847041606903,0.29299458861351013,0.9819340109825134,0.22026696801185608,0.06802785396575928,1.024648666381836,0.7262672781944275,0.08185819536447525,0.8623946905136108,0.7105579972267151,-0.10485544055700302,1.0174145698547363,0.7089638113975525,-0.18040122091770172,1.0518587827682495,0.46191051602363586,0.02387901581823826,0.7786615490913391,0.33473366498947144,0.24091114103794098,1.031882882118225,0.7435707449913025,0.3526674211025238,1.0643519163131714,0.5093700885772705,0.32787060737609863,1.075539231300354,0.1593504548072815,0.0,0.0,0.0,0.0,0.0,0.3370000123977661,0.0001717002160148695,0.2104998528957367,0.3371734917163849,0.0003903019241988659,0.4784996807575226,0.3374063968658447,0.0005326381069608033,0.6529995203018188,0.3375698924064636,0.0006468332721851766,0.7929994463920593,0.33770108222961426,1.5699806484222412,1.5699721279144288,-4.4815658766310664e-05,3.092119868961163e-05,-6.802663508569821e-05,7.572257434949279e-05
1636565131.0985496,5.0,0.0,0.29299458861351013,0.9819340109825134,0.22026696801185608,0.049962617456912994,1.0280787944793701,0.7669000029563904,0.06502905488014221,0.8513231873512268,0.7497867345809937,-0.10621116310358047,1.0215438604354858,0.7512689828872681,-0.1694900244474411,1.0328774452209473,0.525571882724762,-1.4332009553909302,2.6663765907287598,0.9915084838867188,0.20613639056682587,1.0346137285232544,0.7825310230255127,0.3338136076927185,1.0717084407806396,0.5149659514427185,0.31816115975379944,1.0787701606750488,0.29402393102645874,0.030376827344298363,0.8756723999977112,0.2982032001018524,0.06997497379779816,1.0905647277832031,0.9238165616989136,0.12663236260414124,0.9598196148872375,0.9451906085014343,-0.10236098617315292,1.076420783996582,0.8962098360061646,-0.1792563796043396,1.1114802360534668,0.6447429656982422,-0.06927649676799774,0.9643970131874084,0.5762737989425659,0.24231094121932983,1.1047087907791138,0.9514232873916626,0.40100038051605225,1.2195215225219727,0.7565402984619141,0.05493759736418724,0.3576818108558655,0.2125847041606903,0.29299458861351013,0.9819340109825134,0.22026696801185608,0.06802785396575928,1.024648666381836,0.7262672781944275,0.08185819536447525,0.8623946905136108,0.7105579972267151,-0.10485544055700302,1.0174145698547363,0.7089638113975525,-0.18040122091770172,1.0518587827682495,0.46191051602363586,0.02387901581823826,0.7786615490913391,0.33473366498947144,0.24091114103794098,1.031882882118225,0.7435707449913025,0.3526674211025238,1.0643519163131714,0.5093700885772705,0.32787060737609863,1.075539231300354,0.1593504548072815,0.0,0.0,0.0,0.0,0.0,0.3370000123977661,0.0001717002160148695,0.2104998528957367,0.3371734917163849,0.0003903019241988659,0.4784996807575226,0.3374063968658447,0.0005326381069608033,0.6529995203018188,0.3375698924064636,0.0006468332721851766,0.7929994463920593,0.33770108222961426,1.5699806484222412,1.5699721279144288,-4.4815658766310664e-05,3.092119868961163e-05,-6.802663508569821e-05,7.572257434949279e-05
1636565131.1273088,5.0,0.0,0.29299458861351013,0.9819340109825134,0.22026696801185608,0.049962617456912994,1.0280787944793701,0.7669000029563904,0.06502905488014221,0.8513231873512268,0.7497867345809937,-0.10621116310358047,1.0215438604354858,0.7512689828872681,-0.1694900244474411,1.0328774452209473,0.525571882724762,-1.4332009553909302,2.6663765907287598,0.9915084838867188,0.20613639056682587,1.0346137285232544,0.7825310230255127,0.3338136076927185,1.0717084407806396,0.5149659514427185,0.31816115975379944,1.0787701606750488,0.29402393102645874,0.03632805496454239,0.886562705039978,0.30671095848083496,0.06801065057516098,1.0706171989440918,0.9131428003311157,0.14508391916751862,0.9873997569084167,0.9547695517539978,-0.10637407004833221,1.0591696500778198,0.8865039944648743,-0.17582382261753082,1.1291577816009521,0.6525213718414307,-0.07020775228738785,0.990729570388794,0.5866698026657104,0.24239537119865417,1.0820646286010742,0.9397815465927124,0.41008153557777405,1.2189925909042358,0.7482451796531677,0.052427325397729874,0.3521668314933777,0.21053802967071533,0.29299458861351013,0.9819340109825134,0.22026696801185608,0.06802785396575928,1.024648666381836,0.7262672781944275,0.08185819536447525,0.8623946905136108,0.7105579972267151,-0.10485544055700302,1.0174145698547363,0.7089638113975525,-0.17614416778087616,1.0892560482025146,0.46878549456596375,0.030408743768930435,0.8185324668884277,0.33999988436698914,0.24091114103794098,1.031882882118225,0.7435707449913025,0.3526674211025238,1.0643519163131714,0.5093700885772705,0.32787060737609863,1.075539231300354,0.1593504548072815,0.0,0.0,0.0,0.0,0.0,0.3370000123977661,0.0001717002160148695,0.2104998528957367,0.3371734917163849,0.0003903019241988659,0.4784996807575226,0.3374063968658447,0.0005326381069608033,0.6529995203018188,0.3375698924064636,0.0006468332721851766,0.7929994463920593,0.33770108222961426,1.5699806484222412,1.5699721279144288,-4.4815658766310664e-05,3.092119868961163e-05,-6.802663508569821e-05,7.572257434949279e-05
1636565131.1315446,5.0,0.0,0.29299458861351013,0.9819340109825134,0.22026696801185608,0.049962617456912994,1.0280787944793701,0.7669000029563904,0.06502905488014221,0.8513231873512268,0.7497867345809937,-0.10621116310358047,1.0215438604354858,0.7512689828872681,-0.1694900244474411,1.0328774452209473,0.525571882724762,-1.4332009553909302,2.6663765907287598,0.9915084838867188,0.20613639056682587,1.0346137285232544,0.7825310230255127,0.3338136076927185,1.0717084407806396,0.5149659514427185,0.31816115975379944,1.0787701606750488,0.29402393102645874,0.03632805496454239,0.886562705039978,0.30671095848083496,0.06801065057516098,1.0706171989440918,0.9131428003311157,0.14508391916751862,0.9873997569084167,0.9547695517539978,-0.10637407004833221,1.0591696500778198,0.8865039944648743,-0.17582382261753082,1.1291577816009521,0.6525213718414307,-0.07020775228738785,0.990729570388794,0.5866698026657104,0.24239537119865417,1.0820646286010742,0.9397815465927124,0.41008153557777405,1.2189925909042358,0.7482451796531677,0.052427325397729874,0.3521668314933777,0.21053802967071533,0.29299458861351013,0.9819340109825134,0.22026696801185608,0.06802785396575928,1.024648666381836,0.7262672781944275,0.08185819536447525,0.8623946905136108,0.7105579972267151,-0.10485544055700302,1.0174145698547363,0.7089638113975525,-0.17614416778087616,1.0892560482025146,0.46878549456596375,0.030408743768930435,0.8185324668884277,0.33999988436698914,0.24091114103794098,1.031882882118225,0.7435707449913025,0.3526674211025238,1.0643519163131714,0.5093700885772705,0.32787060737609863,1.075539231300354,0.1593504548072815,0.0,0.0,0.0,0.0,0.0,0.3370000123977661,0.0001717002160148695,0.2104998528957367,0.3371734917163849,0.0003903019241988659,0.4784996807575226,0.3374063968658447,0.0005326381069608033,0.6529995203018188,0.3375698924064636,0.0006468332721851766,0.7929994463920593,0.33770108222961426,1.5699806484222412,1.5699721279144288,-4.4815658766310664e-05,3.092119868961163e-05,-6.802663508569821e-05,7.572257434949279e-05
1636565131.1603124,5.0,0.0,0.30989623069763184,0.9481616020202637,0.2026953250169754,0.05456232652068138,1.0190807580947876,0.7627258896827698,0.06502905488014221,0.8513231873512268,0.7497867345809937,-0.10300031304359436,1.0164132118225098,0.748935341835022,-0.16221582889556885,1.002955436706543,0.5114635229110718,-1.3939523696899414,2.577937602996826,0.9560832381248474,0.21212495863437653,1.0217483043670654,0.7765163779258728,0.3336392939090729,1.0571308135986328,0.5201488137245178,0.31703707575798035,1.0815762281417847,0.29463648796081543,0.03632805496454239,0.886562705039978,0.30671095848083496,0.06801065057516098,1.0706171989440918,0.9131428003311157,0.14508391916751862,0.9873997569084167,0.9547695517539978,-0.10637407004833221,1.0591696500778198,0.8865039944648743,-0.17582382261753082,1.1291577816009521,0.6525213718414307,-0.07020775228738785,0.990729570388794,0.5866698026657104,0.24239537119865417,1.0820646286010742,0.9397815465927124,0.41008153557777405,1.2189925909042358,0.7482451796531677,0.052427325397729874,0.3521668314933777,0.21053802967071533,0.30989623069763184,0.9481616020202637,0.2026953250169754,0.08100475370883942,1.0117363929748535,0.7047290205955505,0.09116211533546448,0.8489371538162231,0.6921722888946533,-0.0922059491276741,1.0088039636611938,0.6895688772201538,-0.16349467635154724,1.0806453227996826,0.44939059019088745,0.043058235198259354,0.8099218010902405,0.32060497999191284,0.25421544909477234,1.0146688222885132,0.7198891043663025,0.36536628007888794,1.047033667564392,0.4853861331939697,0.33973923325538635,1.084767460823059,0.1372867077589035,0.0,0.0,0.0,0.0,0.0,0.3370000123977661,0.0001717002160148695,0.2104998528957367,0.3371734917163849,0.0003903019241988659,0.4784996807575226,0.3374063968658447,0.0005326381069608033,0.6529995203018188,0.3375698924064636,0.0006468332721851766,0.7929994463920593,0.33770108222961426,1.5699806484222412,1.5699721279144288,-4.4815658766310664e-05,3.092119868961163e-05,-6.802663508569821e-05,7.572257434949279e-05
1636565131.1645348,5.0,0.0,0.30989623069763184,0.9481616020202637,0.2026953250169754,0.05456232652068138,1.0190807580947876,0.7627258896827698,0.06502905488014221,0.8513231873512268,0.7497867345809937,-0.10300031304359436,1.0164132118225098,0.748935341835022,-0.16221582889556885,1.002955436706543,0.5114635229110718,-1.3939523696899414,2.577937602996826,0.9560832381248474,0.21212495863437653,1.0217483043670654,0.7765163779258728,0.3336392939090729,1.0571308135986328,0.5201488137245178,0.31703707575798035,1.0815762281417847,0.29463648796081543,0.03632805496454239,0.886562705039978,0.30671095848083496,0.06801065057516098,1.0706171989440918,0.9131428003311157,0.14508391916751862,0.9873997569084167,0.9547695517539978,-0.10637407004833221,1.0591696500778198,0.8865039944648743,-0.17582382261753082,1.1291577816009521,0.6525213718414307,-0.07020775228738785,0.990729570388794,0.5866698026657104,0.24239537119865417,1.0820646286010742,0.9397815465927124,0.41008153557777405,1.2189925909042358,0.7482451796531677,0.052427325397729874,0.3521668314933777,0.21053802967071533,0.30989623069763184,0.9481616020202637,0.2026953250169754,0.08100475370883942,1.0117363929748535,0.7047290205955505,0.09116211533546448,0.8489371538162231,0.6921722888946533,-0.0922059491276741,1.0088039636611938,0.6895688772201538,-0.16349467635154724,1.0806453227996826,0.44939059019088745,0.043058235198259354,0.8099218010902405,0.32060497999191284,0.25421544909477234,1.0146688222885132,0.7198891043663025,0.36536628007888794,1.047033667564392,0.4853861331939697,0.33973923325538635,1.084767460823059,0.1372867077589035,0.0,0.0,0.0,0.0,0.0,0.3370000123977661,0.0001717002160148695,0.2104998528957367,0.3371734917163849,0.0003903019241988659,0.4784996807575226,0.3374063968658447,0.0005326381069608033,0.6529995203018188,0.3375698924064636,0.0006468332721851766,0.7929994463920593,0.33770108222961426,1.5699806484222412,1.5699721279144288,-4.4815658766310664e-05,3.092119868961163e-05,-6.802663508569821e-05,7.572257434949279e-05
1636565131.1933339,5.0,0.0,0.30989623069763184,0.9481616020202637,0.2026953250169754,0.05456232652068138,1.0190807580947876,0.7627258896827698,0.06502905488014221,0.8513231873512268,0.7497867345809937,-0.10300031304359436,1.0164132118225098,0.748935341835022,-0.16221582889556885,1.002955436706543,0.5114635229110718,-1.3939523696899414,2.577937602996826,0.9560832381248474,0.21212495863437653,1.0217483043670654,0.7765163779258728,0.3336392939090729,1.0571308135986328,0.5201488137245178,0.31703707575798035,1.0815762281417847,0.29463648796081543,0.0347045473754406,0.9057580232620239,0.3014231026172638,0.06550727784633636,1.0625463724136353,0.9085283279418945,0.13665014505386353,0.9645272493362427,0.949589192867279,-0.10827858746051788,1.0509827136993408,0.8818977475166321,-0.17256778478622437,1.1459263563156128,0.6598998308181763,-0.07548916339874268,0.9702220559120178,0.5776946544647217,0.2392931431531906,1.0741100311279297,0.9351588487625122,0.4089008867740631,1.237673282623291,0.7650300860404968,0.06276051700115204,0.34977224469184875,0.20547105371952057,0.30989623069763184,0.9481616020202637,0.2026953250169754,0.08100475370883942,1.0117363929748535,0.7047290205955505,0.09116211533546448,0.8489371538162231,0.6921722888946533,-0.0922059491276741,1.0088039636611938,0.6895688772201538,-0.15926645696163177,1.1078402996063232,0.4580012559890747,0.0036634833086282015,0.8129506707191467,0.32003384828567505,0.25421544909477234,1.0146688222885132,0.7198891043663025,0.36536628007888794,1.047033667564392,0.4853861331939697,0.33973923325538635,1.084767460823059,0.1372867077589035,0.0,0.0,0.0,0.0,0.0,0.3370000123977661,0.0001717002160148695,0.2104998528957367,0.3371734917163849,0.0003903019241988659,0.4784996807575226,0.3374063968658447,0.0005326381069608033,0.6529995203018188,0.3375698924064636,0.0006468332721851766,0.7929994463920593,0.33770108222961426,1.5699806484222412,1.5699721279144288,-4.4815658766310664e-05,3.092119868961163e-05,-6.802663508569821e-05,7.572257434949279e-05
1636565131.1975474,5.0,0.0,0.30989623069763184,0.9481616020202637,0.2026953250169754,0.05456232652068138,1.0190807580947876,0.7627258896827698,0.06502905488014221,0.8513231873512268,0.7497867345809937,-0.10300031304359436,1.0164132118225098,0.748935341835022,-0.16221582889556885,1.002955436706543,0.5114635229110718,-1.3939523696899414,2.577937602996826,0.9560832381248474,0.21212495863437653,1.0217483043670654,0.7765163779258728,0.3336392939090729,1.0571308135986328,0.5201488137245178,0.31703707575798035,1.0815762281417847,0.29463648796081543,0.0347045473754406,0.9057580232620239,0.3014231026172638,0.06550727784633636,1.0625463724136353,0.9085283279418945,0.13665014505386353,0.9645272493362427,0.949589192867279,-0.10827858746051788,1.0509827136993408,0.8818977475166321,-0.17256778478622437,1.1459263563156128,0.6598998308181763,-0.07548916339874268,0.9702220559120178,0.5776946544647217,0.2392931431531906,1.0741100311279297,0.9351588487625122,0.4089008867740631,1.237673282623291,0.7650300860404968,0.06276051700115204,0.34977224469184875,0.20547105371952057,0.30989623069763184,0.9481616020202637,0.2026953250169754,0.08100475370883942,1.0117363929748535,0.7047290205955505,0.09116211533546448,0.8489371538162231,0.6921722888946533,-0.0922059491276741,1.0088039636611938,0.6895688772201538,-0.15926645696163177,1.1078402996063232,0.4580012559890747,0.0036634833086282015,0.8129506707191467,0.32003384828567505,0.25421544909477234,1.0146688222885132,0.7198891043663025,0.36536628007888794,1.047033667564392,0.4853861331939697,0.33973923325538635,1.084767460823059,0.1372867077589035,0.0,0.0,0.0,0.0,0.0,0.3370000123977661,0.0001717002160148695,0.2104998528957367,0.3371734917163849,0.0003903019241988659,0.4784996807575226,0.3374063968658447,0.0005326381069608033,0.6529995203018188,0.3375698924064636,0.0006468332721851766,0.7929994463920593,0.33770108222961426,1.5699806484222412,1.5699721279144288,-4.4815658766310664e-05,3.092119868961163e-05,-6.802663508569821e-05,7.572257434949279e-05
1636565131.2263157,5.0,0.0,0.28575801849365234,0.981719970703125,0.21079465746879578,0.04501846060156822,1.030764102935791,0.7737640142440796,0.06502905488014221,0.8513231873512268,0.7497867345809937,-0.11460233479738235,1.023698091506958,0.7634932994842529,-0.18151627480983734,1.0592246055603027,0.5499419569969177,-1.4582656621932983,2.6679635047912598,0.9842446446418762,0.2046392560005188,1.037830114364624,0.7840346693992615,0.3328193724155426,1.0742299556732178,0.5157919526100159,0.31703707575798035,1.0815762281417847,0.29463648796081543,0.0347045473754406,0.9057580232620239,0.3014231026172638,0.06550727784633636,1.0625463724136353,0.9085283279418945,0.13665014505386353,0.9645272493362427,0.949589192867279,-0.10827858746051788,1.0509827136993408,0.8818977475166321,-0.17256778478622437,1.1459263563156128,0.6598998308181763,-0.07548916339874268,0.9702220559120178,0.5776946544647217,0.2392931431531906,1.0741100311279297,0.9351588487625122,0.4089008867740631,1.237673282623291,0.7650300860404968,0.06276051700115204,0.34977224469184875,0.20547105371952057,0.28575801849365234,0.981719970703125,0.21079465746879578,0.068080373108387,1.0260658264160156,0.7198337316513062,0.08605407923460007,0.8648903369903564,0.6982970833778381,-0.1052892729640007,1.0183912515640259,0.7086783647537231,-0.17234979569911957,1.1174277067184448,0.47711071372032166,-0.009419845417141914,0.8225379586219788,0.3391433358192444,0.2414500117301941,1.0337404012680054,0.7309890985488892,0.3533705770969391,1.0655230283737183,0.49677276611328125,0.3283940851688385,1.0771489143371582,0.14678016304969788,0.0,0.0,0.0,0.0,0.0,0.3370000123977661,0.0001717002160148695,0.2104998528957367,0.33717453479766846,0.0003903019241988659,0.4784996807575226,0.33740875124931335,0.0005326381069608033,0.6529995203018188,0.3375731110572815,0.0006468332721851766,0.7929994463920593,0.33770498633384705,1.5699806484222412,1.5699672019958497,-4.4815658766310664e-05,3.092119868961163e-05,-6.802663508569821e-05,7.572257434949279e-05
1636565131.2305672,5.0,0.0,0.28575801849365234,0.981719970703125,0.21079465746879578,0.04501846060156822,1.030764102935791,0.7737640142440796,0.06502905488014221,0.8513231873512268,0.7497867345809937,-0.11460233479738235,1.023698091506958,0.7634932994842529,-0.18151627480983734,1.0592246055603027,0.5499419569969177,-1.4582656621932983,2.6679635047912598,0.9842446446418762,0.2046392560005188,1.037830114364624,0.7840346693992615,0.3328193724155426,1.0742299556732178,0.5157919526100159,0.31703707575798035,1.0815762281417847,0.29463648796081543,0.0347045473754406,0.9057580232620239,0.3014231026172638,0.06550727784633636,1.0625463724136353,0.9085283279418945,0.13665014505386353,0.9645272493362427,0.949589192867279,-0.10827858746051788,1.0509827136993408,0.8818977475166321,-0.17256778478622437,1.1459263563156128,0.6598998308181763,-0.07548916339874268,0.9702220559120178,0.5776946544647217,0.2392931431531906,1.0741100311279297,0.9351588487625122,0.4089008867740631,1.237673282623291,0.7650300860404968,0.06276051700115204,0.34977224469184875,0.20547105371952057,0.28575801849365234,0.981719970703125,0.21079465746879578,0.068080373108387,1.0260658264160156,0.7198337316513062,0.08605407923460007,0.8648903369903564,0.6982970833778381,-0.1052892729640007,1.0183912515640259,0.7086783647537231,-0.17234979569911957,1.1174277067184448,0.47711071372032166,-0.009419845417141914,0.8225379586219788,0.3391433358192444,0.2414500117301941,1.0337404012680054,0.7309890985488892,0.3533705770969391,1.0655230283737183,0.49677276611328125,0.3283940851688385,1.0771489143371582,0.14678016304969788,0.0,0.0,0.0,0.0,0.0,0.3370000123977661,0.0001717002160148695,0.2104998528957367,0.33717453479766846,0.0003903019241988659,0.4784996807575226,0.33740875124931335,0.0005326381069608033,0.6529995203018188,0.3375731110572815,0.0006468332721851766,0.7929994463920593,0.33770498633384705,1.5699806484222412,1.5699672019958497,-4.4815658766310664e-05,3.092119868961163e-05,-6.802663508569821e-05,7.572257434949279e-05
1636565131.259322,5.0,0.0,0.28575801849365234,0.981719970703125,0.21079465746879578,0.04501846060156822,1.030764102935791,0.7737640142440796,0.06502905488014221,0.8513231873512268,0.7497867345809937,-0.11460233479738235,1.023698091506958,0.7634932994842529,-0.18151627480983734,1.0592246055603027,0.5499419569969177,-1.4582656621932983,2.6679635047912598,0.9842446446418762,0.2046392560005188,1.037830114364624,0.7840346693992615,0.3328193724155426,1.0742299556732178,0.5157919526100159,0.31703707575798035,1.0815762281417847,0.29463648796081543,0.03212045878171921,0.8954861164093018,0.30165696144104004,0.07130511850118637,1.0807753801345825,0.918967604637146,0.14150550961494446,0.9774890542030334,0.9486778378486633,-0.10440152883529663,1.067649006843567,0.891274631023407,-0.17617690563201904,1.127339482307434,0.6517212986946106,-0.0695115253329277,0.9634974002838135,0.5758796334266663,0.24701176583766937,1.0939018726348877,0.9466605186462402,0.40738800168037415,1.2341974973678589,0.763404369354248,0.0564168281853199,0.3609316647052765,0.21379075944423676,0.28575801849365234,0.981719970703125,0.21079465746879578,0.068080373108387,1.0260658264160156,0.7198337316513062,0.08605407923460007,0.8648903369903564,0.6982970833778381,-0.1052892729640007,1.0183912515640259,0.7086783647537231,-0.1764039844274521,1.106354832649231,0.47387203574180603,-0.006744252983480692,0.8143219947814941,0.3379547595977783,0.2414500117301941,1.0337404012680054,0.7309890985488892,0.3533705770969391,1.0655230283737183,0.49677276611328125,0.3283940851688385,1.0771489143371582,0.14678016304969788,0.0,0.0,0.0,0.0,0.0,0.3370000123977661,0.0001717002160148695,0.2104998528957367,0.33717453479766846,0.0003903019241988659,0.4784996807575226,0.33740875124931335,0.0005326381069608033,0.6529995203018188,0.3375731110572815,0.0006468332721851766,0.7929994463920593,0.33770498633384705,1.5699806484222412,1.5699672019958497,-4.4815658766310664e-05,3.092119868961163e-05,-6.802663508569821e-05,7.572257434949279e-05
1636565131.2635624,5.0,0.0,0.28575801849365234,0.981719970703125,0.21079465746879578,0.04501846060156822,1.030764102935791,0.7737640142440796,0.06502905488014221,0.8513231873512268,0.7497867345809937,-0.11460233479738235,1.023698091506958,0.7634932994842529,-0.18151627480983734,1.0592246055603027,0.5499419569969177,-1.4582656621932983,2.6679635047912598,0.9842446446418762,0.2046392560005188,1.037830114364624,0.7840346693992615,0.3328193724155426,1.0742299556732178,0.5157919526100159,0.31703707575798035,1.0815762281417847,0.29463648796081543,0.03212045878171921,0.8954861164093018,0.30165696144104004,0.07130511850118637,1.0807753801345825,0.918967604637146,0.14150550961494446,0.9774890542030334,0.9486778378486633,-0.10440152883529663,1.067649006843567,0.891274631023407,-0.17617690563201904,1.127339482307434,0.6517212986946106,-0.0695115253329277,0.9634974002838135,0.5758796334266663,0.24701176583766937,1.0939018726348877,0.9466605186462402,0.40738800168037415,1.2341974973678589,0.763404369354248,0.0564168281853199,0.3609316647052765,0.21379075944423676,0.28575801849365234,0.981719970703125,0.21079465746879578,0.068080373108387,1.0260658264160156,0.7198337316513062,0.08605407923460007,0.8648903369903564,0.6982970833778381,-0.1052892729640007,1.0183912515640259,0.7086783647537231,-0.17851261794567108,1.0828852653503418,0.46700140833854675,0.004423449747264385,0.797249972820282,0.334759384393692,0.2414500117301941,1.0337404012680054,0.7309890985488892,0.3533705770969391,1.0655230283737183,0.49677276611328125,0.3283940851688385,1.0771489143371582,0.14678016304969788,0.0,0.0,0.0,0.0,0.0,0.3370000123977661,0.0001717002160148695,0.2104998528957367,0.33717453479766846,0.0003903019241988659,0.4784996807575226,0.33740875124931335,0.0005326381069608033,0.6529995203018188,0.3375731110572815,0.0006468332721851766,0.7929994463920593,0.33770498633384705,1.5699806484222412,1.5699672019958497,-4.4815658766310664e-05,3.092119868961163e-05,-6.802663508569821e-05,7.572257434949279e-05
1636565131.2923167,5.0,0.0,0.2917119860649109,0.9795582890510559,0.21261145174503326,0.04745068773627281,1.03135085105896,0.7683516144752502,0.06526705622673035,0.8509198427200317,0.7495864629745483,-0.11392990499734879,1.0338774919509888,0.7568787932395935,-0.18561461567878723,1.0462863445281982,0.5414637923240662,-0.5374236702919006,1.348453402519226,0.5480991005897522,0.2088312804698944,1.0288242101669312,0.779824435710907,0.33477047085762024,1.0542829036712646,0.519201934337616,0.3177288770675659,1.079849362373352,0.29425951838493347,0.03212045878171921,0.8954861164093018,0.30165696144104004,0.07130511850118637,1.0807753801345825,0.918967604637146,0.14150550961494446,0.9774890542030334,0.9486778378486633,-0.10440152883529663,1.067649006843567,0.891274631023407,-0.17617690563201904,1.127339482307434,0.6517212986946106,-0.0695115253329277,0.9634974002838135,0.5758796334266663,0.24701176583766937,1.0939018726348877,0.9466605186462402,0.40738800168037415,1.2341974973678589,0.763404369354248,0.0564168281853199,0.3609316647052765,0.21379075944423676,0.2917119860649109,0.9795582890510559,0.21261145174503326,0.06831946223974228,1.0271883010864258,0.7188703417778015,0.0840153843164444,0.8651486039161682,0.7027085423469543,-0.10508044809103012,1.0314161777496338,0.7064216136932373,-0.17784175276756287,1.0919265747070312,0.46357765793800354,0.007341759745031595,0.8074777126312256,0.3319076597690582,0.24171938002109528,1.0229604244232178,0.7313190698623657,0.3551653325557709,1.0445753335952759,0.4966779351234436,0.330962598323822,1.0874427556991577,0.14907126128673553,0.0,0.0,0.0,0.0,0.0,0.3370000123977661,0.0001717002160148695,0.2104998528957367,0.33717453479766846,0.0003903019241988659,0.4784996807575226,0.33740875124931335,0.0005326381069608033,0.6529995203018188,0.3375731110572815,0.0006468332721851766,0.7929994463920593,0.33770498633384705,1.5699806484222412,1.5699672019958497,-4.4815658766310664e-05,3.092119868961163e-05,-6.802663508569821e-05,7.572257434949279e-05
1636565131.2965972,5.0,0.0,0.2917119860649109,0.9795582890510559,0.21261145174503326,0.04745068773627281,1.03135085105896,0.7683516144752502,0.06526705622673035,0.8509198427200317,0.7495864629745483,-0.11392990499734879,1.0338774919509888,0.7568787932395935,-0.18561461567878723,1.0462863445281982,0.5414637923240662,-0.5374236702919006,1.348453402519226,0.5480991005897522,0.2088312804698944,1.0288242101669312,0.779824435710907,0.33477047085762024,1.0542829036712646,0.519201934337616,0.3177288770675659,1.079849362373352,0.29425951838493347,0.03212045878171921,0.8954861164093018,0.30165696144104004,0.07130511850118637,1.0807753801345825,0.918967604637146,0.14150550961494446,0.9774890542030334,0.9486778378486633,-0.10440152883529663,1.067649006843567,0.891274631023407,-0.17617690563201904,1.127339482307434,0.6517212986946106,-0.0695115253329277,0.9634974002838135,0.5758796334266663,0.24701176583766937,1.0939018726348877,0.9466605186462402,0.40738800168037415,1.2341974973678589,0.763404369354248,0.0564168281853199,0.3609316647052765,0.21379075944423676,0.2917119860649109,0.9795582890510559,0.21261145174503326,0.06883029639720917,1.026894450187683,0.7191229462623596,0.08473480492830276,0.8649238348007202,0.7024800777435303,-0.10459829866886139,1.030052900314331,0.7067567706108093,-0.17735961079597473,1.090563178062439,0.46391284465789795,0.007823907770216465,0.8061143159866333,0.33224284648895264,0.24225889146327972,1.0237361192703247,0.7314891219139099,0.3556382656097412,1.046269178390503,0.4969022572040558,0.32987380027770996,1.0868290662765503,0.1491309404373169,0.0,0.0,0.0,0.0,0.0,0.3370000123977661,0.0001717002160148695,0.2104998528957367,0.33717453479766846,0.0003903019241988659,0.4784996807575226,0.33740875124931335,0.0005326381069608033,0.6529995203018188,0.3375731110572815,0.0006468332721851766,0.7929994463920593,0.33770498633384705,1.5699806484222412,1.5699672019958497,-4.4815658766310664e-05,3.092119868961163e-05,-6.802663508569821e-05,7.572257434949279e-05
1636565131.3253148,5.0,0.0,0.2917119860649109,0.9795582890510559,0.21261145174503326,0.04745068773627281,1.03135085105896,0.7683516144752502,0.06526705622673035,0.8509198427200317,0.7495864629745483,-0.11392990499734879,1.0338774919509888,0.7568787932395935,-0.18561461567878723,1.0462863445281982,0.5414637923240662,-0.5374236702919006,1.348453402519226,0.5480991005897522,0.2088312804698944,1.0288242101669312,0.779824435710907,0.33477047085762024,1.0542829036712646,0.519201934337616,0.3177288770675659,1.079849362373352,0.29425951838493347,0.06560846418142319,0.9890278577804565,0.32576701045036316,0.07157256454229355,1.0795913934707642,0.9136879444122314,0.12885548174381256,0.9660478830337524,0.9490412473678589,-0.10637407004833221,1.0591696500778198,0.8865039944648743,-0.17664429545402527,1.1222892999649048,0.6409391164779663,-0.06481041759252548,0.9814907312393188,0.5837642550468445,0.2495191991329193,1.100013017654419,0.9408718943595886,0.4016116261482239,1.220860481262207,0.7477529644966125,0.06271494925022125,0.3496738374233246,0.20543481409549713,0.2917119860649109,0.9795582890510559,0.21261145174503326,0.06904197484254837,1.0267727375030518,0.7192274332046509,0.0850326269865036,0.8648311495780945,0.7023851871490479,-0.10439669340848923,1.0294880867004395,0.7068973779678345,-0.1743364781141281,1.0918185710906982,0.4636850655078888,0.038354817777872086,0.8185591697692871,0.35128942131996155,0.24248063564300537,1.0240572690963745,0.7315574884414673,0.3558283746242523,1.0469706058502197,0.4969921112060547,0.32947567105293274,1.0865057706832886,0.1491468846797943,0.0,0.0,0.0,0.0,0.0,0.3370000123977661,0.0001717002160148695,0.2104998528957367,0.33717453479766846,0.0003903019241988659,0.4784996807575226,0.33740875124931335,0.0005326381069608033,0.6529995203018188,0.3375731110572815,0.0006468332721851766,0.7929994463920593,0.33770498633384705,1.5699806484222412,1.5699672019958497,-4.4815658766310664e-05,3.092119868961163e-05,-6.802663508569821e-05,7.572257434949279e-05
1636565131.329581,5.0,0.0,0.2917119860649109,0.9795582890510559,0.21261145174503326,0.04745068773627281,1.03135085105896,0.7683516144752502,0.06526705622673035,0.8509198427200317,0.7495864629745483,-0.11392990499734879,1.0338774919509888,0.7568787932395935,-0.18561461567878723,1.0462863445281982,0.5414637923240662,-0.5374236702919006,1.348453402519226,0.5480991005897522,0.2088312804698944,1.0288242101669312,0.779824435710907,0.33477047085762024,1.0542829036712646,0.519201934337616,0.3177288770675659,1.079849362373352,0.29425951838493347,0.06560846418142319,0.9890278577804565,0.32576701045036316,0.07157256454229355,1.0795913934707642,0.9136879444122314,0.12885548174381256,0.9660478830337524,0.9490412473678589,-0.10637407004833221,1.0591696500778198,0.8865039944648743,-0.17664429545402527,1.1222892999649048,0.6409391164779663,-0.06481041759252548,0.9814907312393188,0.5837642550468445,0.2495191991329193,1.100013017654419,0.9408718943595886,0.4016116261482239,1.220860481262207,0.7477529644966125,0.06271494925022125,0.3496738374233246,0.20543481409549713,0.2917119860649109,0.9795582890510559,0.21261145174503326,0.06904197484254837,1.0267727375030518,0.7192274332046509,0.0850326269865036,0.8648311495780945,0.7023851871490479,-0.10439669340848923,1.0294880867004395,0.7068973779678345,-0.1738692969083786,1.092094898223877,0.463622123003006,0.04319431632757187,0.8210949301719666,0.3541529178619385,0.24248063564300537,1.0240572690963745,0.7315574884414673,0.3558283746242523,1.0469706058502197,0.4969921112060547,0.32947567105293274,1.0865057706832886,0.1491468846797943,0.0,0.0,0.0,0.0,0.0,0.3370000123977661,0.0001717002160148695,0.2104998528957367,0.33717453479766846,0.0003903019241988659,0.4784996807575226,0.33740875124931335,0.0005326381069608033,0.6529995203018188,0.3375731110572815,0.0006468332721851766,0.7929994463920593,0.33770498633384705,1.5699806484222412,1.5699672019958497,-4.4815658766310664e-05,3.092119868961163e-05,-6.802663508569821e-05,7.572257434949279e-05
1636565131.3583035,5.0,0.0,0.25295886397361755,1.0505152940750122,0.23255310952663422,0.049591269344091415,1.028383731842041,0.7670244574546814,0.06240985170006752,0.8557611107826233,0.7519909143447876,-0.10800188034772873,1.0244052410125732,0.7525704503059387,-0.17724652588367462,1.0526697635650635,0.5476682782173157,-0.1041087955236435,0.7497962117195129,0.3668830692768097,0.20718441903591156,1.0323622226715088,0.7814784646034241,0.3299846351146698,1.0663312673568726,0.5232080221176147,0.31574010848999023,1.0848139524459839,0.2953433394432068,0.06560846418142319,0.9890278577804565,0.32576701045036316,0.07157256454229355,1.0795913934707642,0.9136879444122314,0.12885548174381256,0.9660478830337524,0.9490412473678589,-0.10637407004833221,1.0591696500778198,0.8865039944648743,-0.17664429545402527,1.1222892999649048,0.6409391164779663,-0.06481041759252548,0.9814907312393188,0.5837642550468445,0.2495191991329193,1.100013017654419,0.9408718943595886,0.4016116261482239,1.220860481262207,0.7477529644966125,0.06271494925022125,0.3496738374233246,0.20543481409549713,0.25295886397361755,1.0505152940750122,0.23255310952663422,0.0594361275434494,1.0190247297286987,0.7521954774856567,0.07092978805303574,0.8564127683639526,0.7384225726127625,-0.11360493302345276,1.0136154890060425,0.7358275651931763,-0.18321466445922852,1.0761418342590332,0.4925708770751953,0.032571468502283096,0.8044676184654236,0.3822506368160248,0.23247718811035156,1.024433970451355,0.7685633301734924,0.34363865852355957,1.0564086437225342,0.5340119004249573,0.3225901126861572,1.083164930343628,0.1845911741256714,0.0,0.0,0.0,0.0,0.0,0.3370000123977661,0.0001717002160148695,0.2104998528957367,0.33717453479766846,0.0003903019241988659,0.4784996807575226,0.33740875124931335,0.0005326381069608033,0.6529995203018188,0.3375731110572815,0.0006468332721851766,0.7929994463920593,0.33770498633384705,1.5699806484222412,1.5699672019958497,-4.4815658766310664e-05,3.092119868961163e-05,-6.802663508569821e-05,7.572257434949279e-05
1636565131.3625534,5.0,0.0,0.25295886397361755,1.0505152940750122,0.23255310952663422,0.049591269344091415,1.028383731842041,0.7670244574546814,0.06240985170006752,0.8557611107826233,0.7519909143447876,-0.10800188034772873,1.0244052410125732,0.7525704503059387,-0.17724652588367462,1.0526697635650635,0.5476682782173157,-0.1041087955236435,0.7497962117195129,0.3668830692768097,0.20718441903591156,1.0323622226715088,0.7814784646034241,0.3299846351146698,1.0663312673568726,0.5232080221176147,0.31574010848999023,1.0848139524459839,0.2953433394432068,0.06560846418142319,0.9890278577804565,0.32576701045036316,0.07157256454229355,1.0795913934707642,0.9136879444122314,0.12885548174381256,0.9660478830337524,0.9490412473678589,-0.10637407004833221,1.0591696500778198,0.8865039944648743,-0.17664429545402527,1.1222892999649048,0.6409391164779663,-0.06481041759252548,0.9814907312393188,0.5837642550468445,0.2495191991329193,1.100013017654419,0.9408718943595886,0.4016116261482239,1.220860481262207,0.7477529644966125,0.06271494925022125,0.3496738374233246,0.20543481409549713,0.25295886397361755,1.0505152940750122,0.23255310952663422,0.05559028312563896,1.029036521911621,0.7512584328651428,0.06765995174646378,0.8664992451667786,0.7371031641960144,-0.11752578616142273,1.0246661901474,0.7353806495666504,-0.1871355175971985,1.0871925354003906,0.49212396144866943,0.028650615364313126,0.815518319606781,0.3818037509918213,0.22870634496212006,1.0334069728851318,0.7671361565589905,0.34022095799446106,1.0642541646957397,0.5326013565063477,0.31838834285736084,1.0925825834274292,0.18335267901420593,0.0,0.0,0.0,0.0,0.0,0.3370000123977661,0.0001717002160148695,0.2104998528957367,0.33717453479766846,0.0003903019241988659,0.4784996807575226,0.33740875124931335,0.0005326381069608033,0.6529995203018188,0.3375731110572815,0.0006468332721851766,0.7929994463920593,0.33770498633384705,1.5699806484222412,1.5699672019958497,-4.4815658766310664e-05,3.092119868961163e-05,-6.802663508569821e-05,7.572257434949279e-05
1636565131.3913121,5.0,0.0,0.25295886397361755,1.0505152940750122,0.23255310952663422,0.049591269344091415,1.028383731842041,0.7670244574546814,0.06240985170006752,0.8557611107826233,0.7519909143447876,-0.10800188034772873,1.0244052410125732,0.7525704503059387,-0.17724652588367462,1.0526697635650635,0.5476682782173157,-0.1041087955236435,0.7497962117195129,0.3668830692768097,0.20718441903591156,1.0323622226715088,0.7814784646034241,0.3299846351146698,1.0663312673568726,0.5232080221176147,0.31574010848999023,1.0848139524459839,0.2953433394432068,0.05567442253232002,0.9404758214950562,0.3075312674045563,0.06870356947183609,1.0725709199905396,0.9142700433731079,0.13828402757644653,0.9690534472465515,0.952390730381012,-0.10617003589868546,1.0600467920303345,0.8869974613189697,-0.17472539842128754,1.1348146200180054,0.655010461807251,-0.066873699426651,0.9735935926437378,0.5803037285804749,0.24357716739177704,1.085094928741455,0.9415425658226013,0.41008153557777405,1.2189925909042358,0.7482451796531677,0.06738516688346863,0.3474070429801941,0.205329030752182,0.25295886397361755,1.0505152940750122,0.23255310952663422,0.05559028312563896,1.029036521911621,0.7512584328651428,0.06765995174646378,0.8664992451667786,0.7371031641960144,-0.11752578616142273,1.0246661901474,0.7353806495666504,-0.18813221156597137,1.1001460552215576,0.496118426322937,0.0035508135333657265,0.8186429142951965,0.3674532473087311,0.22870634496212006,1.0334069728851318,0.7671361565589905,0.34022095799446106,1.0642541646957397,0.5326013565063477,0.31838834285736084,1.0925825834274292,0.18335267901420593,0.0,0.0,0.0,0.0,0.0,0.3370000123977661,0.0001717002160148695,0.2104998528957367,0.33717453479766846,0.0003903019241988659,0.4784996807575226,0.33740875124931335,0.0005326381069608033,0.6529995203018188,0.3375731110572815,0.0006468332721851766,0.7929994463920593,0.33770498633384705,1.5699806484222412,1.5699672019958497,-4.4815658766310664e-05,3.092119868961163e-05,-6.802663508569821e-05,7.572257434949279e-05
1636565131.3955562,5.0,0.0,0.25295886397361755,1.0505152940750122,0.23255310952663422,0.049591269344091415,1.028383731842041,0.7670244574546814,0.06240985170006752,0.8557611107826233,0.7519909143447876,-0.10800188034772873,1.0244052410125732,0.7525704503059387,-0.17724652588367462,1.0526697635650635,0.5476682782173157,-0.1041087955236435,0.7497962117195129,0.3668830692768097,0.20718441903591156,1.0323622226715088,0.7814784646034241,0.3299846351146698,1.0663312673568726,0.5232080221176147,0.31574010848999023,1.0848139524459839,0.2953433394432068,0.05567442253232002,0.9404758214950562,0.3075312674045563,0.06870356947183609,1.0725709199905396,0.9142700433731079,0.13828402757644653,0.9690534472465515,0.952390730381012,-0.10617003589868546,1.0600467920303345,0.8869974613189697,-0.17472539842128754,1.1348146200180054,0.655010461807251,-0.066873699426651,0.9735935926437378,0.5803037285804749,0.24357716739177704,1.085094928741455,0.9415425658226013,0.41008153557777405,1.2189925909042358,0.7482451796531677,0.06738516688346863,0.3474070429801941,0.205329030752182,0.25295886397361755,1.0505152940750122,0.23255310952663422,0.05559028312563896,1.029036521911621,0.7512584328651428,0.06765995174646378,0.8664992451667786,0.7371031641960144,-0.11752578616142273,1.0246661901474,0.7353806495666504,-0.18806985020637512,1.1022439002990723,0.4967719316482544,-0.000322172389132902,0.8195210099220276,0.3650157153606415,0.22870634496212006,1.0334069728851318,0.7671361565589905,0.34022095799446106,1.0642541646957397,0.5326013565063477,0.31838834285736084,1.0925825834274292,0.18335267901420593,0.0,0.0,0.0,0.0,0.0,0.3370000123977661,0.0001717002160148695,0.2104998528957367,0.33717453479766846,0.0003903019241988659,0.4784996807575226,0.33740875124931335,0.0005326381069608033,0.6529995203018188,0.3375731110572815,0.0006468332721851766,0.7929994463920593,0.33770498633384705,1.5699806484222412,1.5699672019958497,-4.4815658766310664e-05,3.092119868961163e-05,-6.802663508569821e-05,7.572257434949279e-05
