UF-SAMM-Lab/NSF_project_archive_data/MSEC_2022/skeleton_fusion_data/data_files/left/data_files_op/location_test_2021_11_16_16_14_44_OpenPose.csv
Time,Test Joint,Touch Active,H1-Pelvis-x,H1-Pelvis-y,H1-Pelvis-z,H1-Spine-x,H1-Spine-y,H1-Spine-z,H1-Head-x,H1-Head-y,H1-Head-z,H1-R-Shoulder-x,H1-R-Shoulder-y,H1-R-Shoulder-z,H1-R-Elbow-x,H1-R-Elbow-y,H1-R-Elbow-z,H1-R-Wrist-x,H1-R-Wrist-y,H1-R-Wrist-z,H1-L-Shoulder-x,H1-L-Shoulder-y,H1-L-Shoulder-z,H1-L-Elbow-x,H1-L-Elbow-y,H1-L-Elbow-z,H1-L-Wrist-x,H1-L-Wrist-y,H1-L-Wrist-z,H2-Pelvis-x,H2-Pelvis-y,H2-Pelvis-z,H2-Spine-x,H2-Spine-y,H2-Spine-z,H2-Head-x,H2-Head-y,H2-Head-z,H2-R-Shoulder-x,H2-R-Shoulder-y,H2-R-Shoulder-z,H2-R-Elbow-x,H2-R-Elbow-y,H2-R-Elbow-z,H2-R-Wrist-x,H2-R-Wrist-y,H2-R-Wrist-z,H2-L-Shoulder-x,H2-L-Shoulder-y,H2-L-Shoulder-z,H2-L-Elbow-x,H2-L-Elbow-y,H2-L-Elbow-z,H2-L-Wrist-x,H2-L-Wrist-y,H2-L-Wrist-z,HC-Pelvis-x,HC-Pelvis-y,HC-Pelvis-z,HC-Spine-x,HC-Spine-y,HC-Spine-z,HC-Head-x,HC-Head-y,HC-Head-z,HC-R-Shoulder-x,HC-R-Shoulder-y,HC-R-Shoulder-z,HC-R-Elbow-x,HC-R-Elbow-y,HC-R-Elbow-z,HC-R-Wrist-x,HC-R-Wrist-y,HC-R-Wrist-z,HC-L-Shoulder-x,HC-L-Shoulder-y,HC-L-Shoulder-z,HC-L-Elbow-x,HC-L-Elbow-y,HC-L-Elbow-z,HC-L-Wrist-x,HC-L-Wrist-y,HC-L-Wrist-z,Robot-Base(x),Robot-Base(y),Robot-Base(z),Robot-J2(x),Robot-J2(y),Robot-J2(z),Robot-J3(x),Robot-J3(y),Robot-J3(z),Robot-J5(x),Robot-J5(y),Robot-J5(z),Robot-J6(x),Robot-J6(y),Robot-J6(z),Robot-EE(x),Robot-EE(y),Robot-EE(z),Robot-J1-angle,Robot-J2-angle,Robot-J3-angle,Robot-J4-angle,Robot-J5-angle,Robot-J6-angle
1637097284.4874613,8.0,0.0,0.038043104112148285,1.0487890243530273,0.27315253019332886,0.11553419381380081,0.5318370461463928,0.5171241760253906,0.07911822199821472,0.4744085371494293,0.5504069328308105,0.09828108549118042,0.42040228843688965,0.4224410355091095,-0.27328622341156006,0.9759718775749207,0.42007601261138916,-0.09457974135875702,0.9831640124320984,0.217373788356781,0.1327873021364212,0.643271803855896,0.6118073463439941,0.1879115104675293,0.7242458462715149,0.6452646255493164,0.07902274280786514,0.4944862425327301,0.6235000491142273,0.021588517352938652,1.0579978227615356,0.2790340483188629,-0.1280689388513565,0.9402781128883362,0.8057281970977783,-0.05975818261504173,0.9001564979553223,0.8365691900253296,-0.28629636764526367,0.9158384799957275,0.7071806788444519,-0.2469879686832428,0.9486261010169983,0.434884250164032,-0.021485768258571625,0.9570114612579346,0.2983582019805908,0.03015848994255066,0.9647176861763,0.9042757749557495,0.1648200899362564,0.8239969611167908,0.8267213702201843,0.11939611285924911,0.6081718802452087,0.8473101258277893,0.038043104112148285,1.0487890243530273,0.27315253019332886,0.11123716831207275,0.5605030059814453,0.5035955309867859,0.24968820810317993,0.4791852831840515,0.5661033987998962,-0.0347791351377964,0.5379495024681091,0.4126533567905426,0.0038660361897200346,0.5701838731765747,0.1449512541294098,0.3254663348197937,0.58214271068573,-0.049755584448575974,0.2572534680366516,0.5830565094947815,0.5945376753807068,0.39878225326538086,0.790953516960144,0.6804376244544983,0.2410448044538498,0.45812126994132996,0.6489091515541077,0.0,0.0,0.0,0.0,0.0,0.3370000123977661,0.05892191827297211,0.13904030621051788,0.4836500883102417,0.15211835503578186,0.35895949602127075,0.605198323726654,0.21280208230018616,0.5021572113037109,0.6843320727348328,0.2614881694316864,0.6170436143875122,0.7478204369544983,1.169963042831421,0.8000441310882569,0.3000209259033203,-9.27635899744928e-05,5.565815560985356e-05,-1.2505906890146434e-05
1637097284.5002353,8.0,0.0,0.02713204361498356,1.045699119567871,0.28068822622299194,0.11427539587020874,0.5337971448898315,0.5180386900901794,0.0811380073428154,0.4847489297389984,0.5577284097671509,0.09786408394575119,0.42095834016799927,0.42267173528671265,-0.30107244849205017,0.996078372001648,0.4216483533382416,-0.10177919268608093,0.9833539128303528,0.22801299393177032,0.1306867003440857,0.6466359496116638,0.6134056448936462,0.18384116888046265,0.7314907908439636,0.6486852765083313,0.07833530008792877,0.4954344928264618,0.624004065990448,0.021588517352938652,1.0579978227615356,0.2790340483188629,-0.1280689388513565,0.9402781128883362,0.8057281970977783,-0.05975818261504173,0.9001564979553223,0.8365691900253296,-0.28629636764526367,0.9158384799957275,0.7071806788444519,-0.2469879686832428,0.9486261010169983,0.434884250164032,-0.021485768258571625,0.9570114612579346,0.2983582019805908,0.03015848994255066,0.9647176861763,0.9042757749557495,0.1648200899362564,0.8239969611167908,0.8267213702201843,0.11939611285924911,0.6081718802452087,0.8473101258277893,0.038043104112148285,1.0487890243530273,0.27315253019332886,0.11123716831207275,0.5605030059814453,0.5035955309867859,0.24968820810317993,0.4791852831840515,0.5661033987998962,-0.0347791351377964,0.5379495024681091,0.4126533567905426,0.0038660361897200346,0.5701838731765747,0.1449512541294098,0.3254663348197937,0.58214271068573,-0.049755584448575974,0.2572534680366516,0.5830565094947815,0.5945376753807068,0.39878225326538086,0.790953516960144,0.6804376244544983,0.2410448044538498,0.45812126994132996,0.6489091515541077,0.0,0.0,0.0,0.0,0.0,0.3370000123977661,0.05892191827297211,0.13904030621051788,0.4836500883102417,0.15211835503578186,0.35895949602127075,0.605198323726654,0.21280208230018616,0.5021572113037109,0.6843320727348328,0.2614881694316864,0.6170436143875122,0.7478204369544983,1.169963042831421,0.8000441310882569,0.3000209259033203,-9.27635899744928e-05,5.565815560985356e-05,-1.2505906890146434e-05
1637097284.5204473,8.0,0.0,0.02713204361498356,1.045699119567871,0.28068822622299194,0.11427539587020874,0.5337971448898315,0.5180386900901794,0.0811380073428154,0.4847489297389984,0.5577284097671509,0.09786408394575119,0.42095834016799927,0.42267173528671265,-0.30107244849205017,0.996078372001648,0.4216483533382416,-0.10177919268608093,0.9833539128303528,0.22801299393177032,0.1306867003440857,0.6466359496116638,0.6134056448936462,0.18384116888046265,0.7314907908439636,0.6486852765083313,0.07833530008792877,0.4954344928264618,0.624004065990448,0.021588517352938652,1.0579978227615356,0.2790340483188629,-0.1280689388513565,0.9402781128883362,0.8057281970977783,-0.05975818261504173,0.9001564979553223,0.8365691900253296,-0.28629636764526367,0.9158384799957275,0.7071806788444519,-0.2469879686832428,0.9486261010169983,0.434884250164032,-0.021485768258571625,0.9570114612579346,0.2983582019805908,0.03015848994255066,0.9647176861763,0.9042757749557495,0.1648200899362564,0.8239969611167908,0.8267213702201843,0.11939611285924911,0.6081718802452087,0.8473101258277893,0.02713204361498356,1.045699119567871,0.28068822622299194,0.11029642075300217,0.5571706891059875,0.5072012543678284,0.24874745309352875,0.47585293650627136,0.5697091817855835,-0.03571988642215729,0.5346171855926514,0.4162590801715851,0.002925287466496229,0.5668515563011169,0.14855699241161346,0.3245255947113037,0.5788103938102722,-0.046149853616952896,0.2563127279281616,0.579724133014679,0.5981433987617493,0.3893783688545227,0.7921478748321533,0.6864615082740784,0.23921921849250793,0.45618537068367004,0.6513345241546631,0.0,0.0,0.0,0.0,0.0,0.3370000123977661,0.05892191827297211,0.13904030621051788,0.4836500883102417,0.15211835503578186,0.35895949602127075,0.605198323726654,0.21280208230018616,0.5021572113037109,0.6843320727348328,0.2614881694316864,0.6170436143875122,0.7478204369544983,1.169963042831421,0.8000441310882569,0.3000209259033203,-9.27635899744928e-05,5.565815560985356e-05,-1.2505906890146434e-05
1637097284.533238,8.0,0.0,0.02713204361498356,1.045699119567871,0.28068822622299194,0.11427539587020874,0.5337971448898315,0.5180386900901794,0.0811380073428154,0.4847489297389984,0.5577284097671509,0.09786408394575119,0.42095834016799927,0.42267173528671265,-0.30107244849205017,0.996078372001648,0.4216483533382416,-0.10177919268608093,0.9833539128303528,0.22801299393177032,0.1306867003440857,0.6466359496116638,0.6134056448936462,0.18384116888046265,0.7314907908439636,0.6486852765083313,0.07833530008792877,0.4954344928264618,0.624004065990448,0.03487898036837578,1.0922974348068237,0.3055146038532257,-0.12605664134025574,0.9348375201225281,0.8030852675437927,-0.06981401145458221,0.8904656171798706,0.821278989315033,-0.2788729667663574,0.9159432053565979,0.7084529399871826,-0.25158244371414185,0.9672168493270874,0.4485020935535431,-0.014779403805732727,0.9794483780860901,0.29758280515670776,0.026759687811136246,0.9537317752838135,0.8977176547050476,0.17015406489372253,0.8372663259506226,0.8346871733665466,0.1138954609632492,0.6121185421943665,0.8486651182174683,0.02713204361498356,1.045699119567871,0.28068822622299194,0.11029642075300217,0.5571706891059875,0.5072012543678284,0.24874745309352875,0.47585293650627136,0.5697091817855835,-0.03571988642215729,0.5346171855926514,0.4162590801715851,0.002925287466496229,0.5668515563011169,0.14855699241161346,0.3245255947113037,0.5788103938102722,-0.046149853616952896,0.2563127279281616,0.579724133014679,0.5981433987617493,0.3893783688545227,0.7921478748321533,0.6864615082740784,0.23921921849250793,0.45618537068367004,0.6513345241546631,0.0,0.0,0.0,0.0,0.0,0.3370000123977661,0.05892191827297211,0.13904030621051788,0.4836500883102417,0.15211835503578186,0.35895949602127075,0.605198323726654,0.21280208230018616,0.5021572113037109,0.6843320727348328,0.2614881694316864,0.6170436143875122,0.7478204369544983,1.169963042831421,0.8000441310882569,0.3000209259033203,-9.27635899744928e-05,5.565815560985356e-05,-1.2505906890146434e-05
1637097284.553472,8.0,0.0,0.02713204361498356,1.045699119567871,0.28068822622299194,0.11427539587020874,0.5337971448898315,0.5180386900901794,0.0811380073428154,0.4847489297389984,0.5577284097671509,0.09786408394575119,0.42095834016799927,0.42267173528671265,-0.30107244849205017,0.996078372001648,0.4216483533382416,-0.10177919268608093,0.9833539128303528,0.22801299393177032,0.1306867003440857,0.6466359496116638,0.6134056448936462,0.18384116888046265,0.7314907908439636,0.6486852765083313,0.07833530008792877,0.4954344928264618,0.624004065990448,0.03487898036837578,1.0922974348068237,0.3055146038532257,-0.12605664134025574,0.9348375201225281,0.8030852675437927,-0.06981401145458221,0.8904656171798706,0.821278989315033,-0.2788729667663574,0.9159432053565979,0.7084529399871826,-0.25158244371414185,0.9672168493270874,0.4485020935535431,-0.014779403805732727,0.9794483780860901,0.29758280515670776,0.026759687811136246,0.9537317752838135,0.8977176547050476,0.17015406489372253,0.8372663259506226,0.8346871733665466,0.1138954609632492,0.6121185421943665,0.8486651182174683,0.02713204361498356,1.045699119567871,0.28068822622299194,0.11029642075300217,0.5571706891059875,0.5072012543678284,0.2414076030254364,0.4537321627140045,0.549613893032074,-0.03639686852693558,0.5390334129333496,0.41636061668395996,-0.008488538675010204,0.5914678573608398,0.1505248248577118,0.3084074854850769,0.6078363656997681,-0.051439300179481506,0.2569897174835205,0.5753079056739807,0.598041832447052,0.3900553584098816,0.7877316474914551,0.6863599419593811,0.23989619314670563,0.4517691135406494,0.6512329578399658,0.0,0.0,0.0,0.0,0.0,0.3370000123977661,0.05892191827297211,0.13904030621051788,0.4836500883102417,0.15211835503578186,0.35895949602127075,0.605198323726654,0.21280208230018616,0.5021572113037109,0.6843320727348328,0.2614881694316864,0.6170436143875122,0.7478204369544983,1.169963042831421,0.8000441310882569,0.3000209259033203,-9.27635899744928e-05,5.565815560985356e-05,-1.2505906890146434e-05
1637097284.5662432,8.0,0.0,0.03885171562433243,1.0574166774749756,0.27725234627723694,0.11672384291887283,0.5372651219367981,0.5208284258842468,0.08549727499485016,0.48640429973602295,0.5498960018157959,0.09536264836788177,0.4242944121360779,0.4240556061267853,-0.30019277334213257,0.9948788285255432,0.4212973415851593,-0.0996648296713829,0.9912076592445374,0.21889938414096832,0.13808505237102509,0.6502358913421631,0.6176012754440308,0.18963143229484558,0.7211846113204956,0.643819272518158,0.07881654053926468,0.49477070569992065,0.6236512064933777,0.03487898036837578,1.0922974348068237,0.3055146038532257,-0.12605664134025574,0.9348375201225281,0.8030852675437927,-0.06981401145458221,0.8904656171798706,0.821278989315033,-0.2788729667663574,0.9159432053565979,0.7084529399871826,-0.25158244371414185,0.9672168493270874,0.4485020935535431,-0.014779403805732727,0.9794483780860901,0.29758280515670776,0.026759687811136246,0.9537317752838135,0.8977176547050476,0.17015406489372253,0.8372663259506226,0.8346871733665466,0.1138954609632492,0.6121185421943665,0.8486651182174683,0.02713204361498356,1.045699119567871,0.28068822622299194,0.11029642075300217,0.5571706891059875,0.5072012543678284,0.2414076030254364,0.4537321627140045,0.549613893032074,-0.03639686852693558,0.5390334129333496,0.41636061668395996,-0.008488538675010204,0.5914678573608398,0.1505248248577118,0.3084074854850769,0.6078363656997681,-0.051439300179481506,0.2569897174835205,0.5753079056739807,0.598041832447052,0.3900553584098816,0.7877316474914551,0.6863599419593811,0.23989619314670563,0.4517691135406494,0.6512329578399658,0.0,0.0,0.0,0.0,0.0,0.3370000123977661,0.05892191827297211,0.13904030621051788,0.4836500883102417,0.15211835503578186,0.35895949602127075,0.605198323726654,0.21280208230018616,0.5021572113037109,0.6843320727348328,0.2614881694316864,0.6170436143875122,0.7478204369544983,1.169963042831421,0.8000441310882569,0.3000209259033203,-9.27635899744928e-05,5.565815560985356e-05,-1.2505906890146434e-05
1637097284.5864482,8.0,0.0,0.03885171562433243,1.0574166774749756,0.27725234627723694,0.11672384291887283,0.5372651219367981,0.5208284258842468,0.08549727499485016,0.48640429973602295,0.5498960018157959,0.09536264836788177,0.4242944121360779,0.4240556061267853,-0.30019277334213257,0.9948788285255432,0.4212973415851593,-0.0996648296713829,0.9912076592445374,0.21889938414096832,0.13808505237102509,0.6502358913421631,0.6176012754440308,0.18963143229484558,0.7211846113204956,0.643819272518158,0.07881654053926468,0.49477070569992065,0.6236512064933777,0.03487898036837578,1.0922974348068237,0.3055146038532257,-0.12605664134025574,0.9348375201225281,0.8030852675437927,-0.06981401145458221,0.8904656171798706,0.821278989315033,-0.2788729667663574,0.9159432053565979,0.7084529399871826,-0.25158244371414185,0.9672168493270874,0.4485020935535431,-0.014779403805732727,0.9794483780860901,0.29758280515670776,0.026759687811136246,0.9537317752838135,0.8977176547050476,0.17015406489372253,0.8372663259506226,0.8346871733665466,0.1138954609632492,0.6121185421943665,0.8486651182174683,0.03885171562433243,1.0574166774749756,0.27725234627723694,0.11205624043941498,0.568442702293396,0.5062286257743835,0.24316741526126862,0.46500420570373535,0.5486413240432739,-0.034637048840522766,0.5503054857254028,0.4153880178928375,-0.006728717591613531,0.6027399301528931,0.14955224096775055,0.3101672828197479,0.6191084384918213,-0.05241189897060394,0.25874951481819153,0.5865799784660339,0.597069263458252,0.4084145724773407,0.792579710483551,0.6731932163238525,0.2464251071214676,0.46160733699798584,0.643711507320404,0.0,0.0,0.0,0.0,0.0,0.3370000123977661,0.05892191827297211,0.13904030621051788,0.4836500883102417,0.15211835503578186,0.35895949602127075,0.605198323726654,0.21280208230018616,0.5021572113037109,0.6843320727348328,0.2614881694316864,0.6170436143875122,0.7478204369544983,1.169963042831421,0.8000441310882569,0.3000209259033203,-9.27635899744928e-05,5.565815560985356e-05,-1.2505906890146434e-05
1637097284.5992315,8.0,0.0,0.03885171562433243,1.0574166774749756,0.27725234627723694,0.11672384291887283,0.5372651219367981,0.5208284258842468,0.08549727499485016,0.48640429973602295,0.5498960018157959,0.09536264836788177,0.4242944121360779,0.4240556061267853,-0.30019277334213257,0.9948788285255432,0.4212973415851593,-0.0996648296713829,0.9912076592445374,0.21889938414096832,0.13808505237102509,0.6502358913421631,0.6176012754440308,0.18963143229484558,0.7211846113204956,0.643819272518158,0.07881654053926468,0.49477070569992065,0.6236512064933777,0.03487898036837578,1.0922974348068237,0.3055146038532257,-0.12605664134025574,0.9348375201225281,0.8030852675437927,-0.06981401145458221,0.8904656171798706,0.821278989315033,-0.2788729667663574,0.9159432053565979,0.7084529399871826,-0.25158244371414185,0.9672168493270874,0.4485020935535431,-0.014779403805732727,0.9794483780860901,0.29758280515670776,0.026759687811136246,0.9537317752838135,0.8977176547050476,0.17015406489372253,0.8372663259506226,0.8346871733665466,0.1138954609632492,0.6121185421943665,0.8486651182174683,0.03885171562433243,1.0574166774749756,0.27725234627723694,0.11205624043941498,0.568442702293396,0.5062286257743835,0.24316741526126862,0.46500420570373535,0.5486413240432739,-0.034637048840522766,0.5503054857254028,0.4153880178928375,-0.006728717591613531,0.6027399301528931,0.14955224096775055,0.3101672828197479,0.6191084384918213,-0.05241189897060394,0.25874951481819153,0.5865799784660339,0.597069263458252,0.4084145724773407,0.792579710483551,0.6731932163238525,0.2464251071214676,0.46160733699798584,0.643711507320404,0.0,0.0,0.0,0.0,0.0,0.3370000123977661,0.05892191827297211,0.13904030621051788,0.4836500883102417,0.15211835503578186,0.35895949602127075,0.605198323726654,0.21280208230018616,0.5021572113037109,0.6843320727348328,0.2614881694316864,0.6170436143875122,0.7478204369544983,1.169963042831421,0.8000441310882569,0.3000209259033203,-9.27635899744928e-05,5.565815560985356e-05,-1.2505906890146434e-05
1637097284.619428,8.0,0.0,0.03885171562433243,1.0574166774749756,0.27725234627723694,0.11672384291887283,0.5372651219367981,0.5208284258842468,0.08549727499485016,0.48640429973602295,0.5498960018157959,0.09536264836788177,0.4242944121360779,0.4240556061267853,-0.30019277334213257,0.9948788285255432,0.4212973415851593,-0.0996648296713829,0.9912076592445374,0.21889938414096832,0.13808505237102509,0.6502358913421631,0.6176012754440308,0.18963143229484558,0.7211846113204956,0.643819272518158,0.07881654053926468,0.49477070569992065,0.6236512064933777,0.03919436037540436,1.0805398225784302,0.2989925146102905,-0.1274867206811905,0.9324880838394165,0.8056805729866028,-0.06356664001941681,0.8862782120704651,0.8284867405891418,-0.27760082483291626,0.923719048500061,0.7124519348144531,-0.2502145767211914,0.9692564010620117,0.43388521671295166,-0.02426091767847538,0.97269207239151,0.29465264081954956,0.022627364844083786,0.941257119178772,0.8989092111587524,0.17666076123714447,0.8534530997276306,0.8444042801856995,0.11275823414325714,0.6093176603317261,0.8390880823135376,0.03885171562433243,1.0574166774749756,0.27725234627723694,0.11205624043941498,0.568442702293396,0.5062286257743835,0.24661923944950104,0.47243696451187134,0.5548516511917114,-0.0351950079202652,0.5612313151359558,0.4147684574127197,-0.009200790897011757,0.6037216782569885,0.14697043597698212,0.31141820549964905,0.6068949699401855,-0.04968641325831413,0.25930747389793396,0.5756540894508362,0.5976888537406921,0.40897253155708313,0.781653881072998,0.673812747001648,0.24698306620121002,0.45068150758743286,0.6443310379981995,0.0,0.0,0.0,0.0,0.0,0.3370000123977661,0.05892191827297211,0.13904030621051788,0.4836500883102417,0.15211835503578186,0.35895949602127075,0.605198323726654,0.21280208230018616,0.5021572113037109,0.6843320727348328,0.2614881694316864,0.6170436143875122,0.7478204369544983,1.169963042831421,0.8000441310882569,0.3000209259033203,-9.27635899744928e-05,5.565815560985356e-05,-1.2505906890146434e-05
1637097284.6322398,8.0,0.0,0.03885171562433243,1.0574166774749756,0.27725234627723694,0.11672384291887283,0.5372651219367981,0.5208284258842468,0.08549727499485016,0.48640429973602295,0.5498960018157959,0.09536264836788177,0.4242944121360779,0.4240556061267853,-0.30019277334213257,0.9948788285255432,0.4212973415851593,-0.0996648296713829,0.9912076592445374,0.21889938414096832,0.13808505237102509,0.6502358913421631,0.6176012754440308,0.18963143229484558,0.7211846113204956,0.643819272518158,0.07881654053926468,0.49477070569992065,0.6236512064933777,0.03919436037540436,1.0805398225784302,0.2989925146102905,-0.1274867206811905,0.9324880838394165,0.8056805729866028,-0.06356664001941681,0.8862782120704651,0.8284867405891418,-0.27760082483291626,0.923719048500061,0.7124519348144531,-0.2502145767211914,0.9692564010620117,0.43388521671295166,-0.02426091767847538,0.97269207239151,0.29465264081954956,0.022627364844083786,0.941257119178772,0.8989092111587524,0.17666076123714447,0.8534530997276306,0.8444042801856995,0.11275823414325714,0.6093176603317261,0.8390880823135376,0.03885171562433243,1.0574166774749756,0.27725234627723694,0.11205624043941498,0.568442702293396,0.5062286257743835,0.2461971640586853,0.4714679718017578,0.5540890097618103,-0.03514551743865013,0.5598438382148743,0.4148087501525879,-0.008840715512633324,0.6035829782485962,0.14724218845367432,0.3113577663898468,0.6084516644477844,-0.050064049661159515,0.2592580020427704,0.5770416259765625,0.597648561000824,0.40892305970191956,0.7830413579940796,0.6737725138664246,0.24693357944488525,0.4520689845085144,0.6442907452583313,0.0,0.0,0.0,0.0,0.0,0.3370000123977661,0.05892191827297211,0.13904030621051788,0.4836500883102417,0.15211835503578186,0.35895949602127075,0.605198323726654,0.21280208230018616,0.5021572113037109,0.6843320727348328,0.2614881694316864,0.6170436143875122,0.7478204369544983,1.169963042831421,0.8000441310882569,0.3000209259033203,-9.27635899744928e-05,5.565815560985356e-05,-1.2505906890146434e-05
1637097284.6524386,8.0,0.0,0.03909539803862572,1.0489002466201782,0.2603243291378021,0.11441529542207718,0.5355560183525085,0.5242848992347717,0.04821842908859253,0.4782946705818176,0.5957350730895996,0.0891088992357254,0.4326345920562744,0.4275153577327728,-0.3040500581264496,1.0001386404037476,0.42283645272254944,-0.104759082198143,0.988040566444397,0.22892743349075317,0.13972169160842896,0.6384775042533875,0.621054470539093,0.19899705052375793,0.7315046191215515,0.6419856548309326,0.07881654053926468,0.49477070569992065,0.6236512064933777,0.03919436037540436,1.0805398225784302,0.2989925146102905,-0.1274867206811905,0.9324880838394165,0.8056805729866028,-0.06356664001941681,0.8862782120704651,0.8284867405891418,-0.27760082483291626,0.923719048500061,0.7124519348144531,-0.2502145767211914,0.9692564010620117,0.43388521671295166,-0.02426091767847538,0.97269207239151,0.29465264081954956,0.022627364844083786,0.941257119178772,0.8989092111587524,0.17666076123714447,0.8534530997276306,0.8444042801856995,0.11275823414325714,0.6093176603317261,0.8390880823135376,0.03909539803862572,1.0489002466201782,0.2603243291378021,0.10919156670570374,0.5696945786476135,0.5099902153015137,0.24333249032497406,0.47271987795829773,0.5578505396842957,-0.03801019489765167,0.5610957145690918,0.41857028007507324,-0.011705391108989716,0.6048348546028137,0.15100373327732086,0.30849307775497437,0.609703540802002,-0.04630250483751297,0.25639331340789795,0.57829350233078,0.6014100909233093,0.39527395367622375,0.8002535104751587,0.6469765901565552,0.22761686146259308,0.4717356264591217,0.6220852136611938,0.0,0.0,0.0,0.0,0.0,0.3370000123977661,0.05892191827297211,0.13904030621051788,0.4836500883102417,0.15211835503578186,0.35895949602127075,0.605198323726654,0.21280208230018616,0.5021572113037109,0.6843320727348328,0.2614881694316864,0.6170436143875122,0.7478204369544983,1.169963042831421,0.8000441310882569,0.3000209259033203,-9.27635899744928e-05,5.565815560985356e-05,-1.2505906890146434e-05
1637097284.6652434,8.0,0.0,0.03909539803862572,1.0489002466201782,0.2603243291378021,0.11441529542207718,0.5355560183525085,0.5242848992347717,0.04821842908859253,0.4782946705818176,0.5957350730895996,0.0891088992357254,0.4326345920562744,0.4275153577327728,-0.3040500581264496,1.0001386404037476,0.42283645272254944,-0.104759082198143,0.988040566444397,0.22892743349075317,0.13972169160842896,0.6384775042533875,0.621054470539093,0.19899705052375793,0.7315046191215515,0.6419856548309326,0.07881654053926468,0.49477070569992065,0.6236512064933777,0.03919436037540436,1.0805398225784302,0.2989925146102905,-0.1274867206811905,0.9324880838394165,0.8056805729866028,-0.06356664001941681,0.8862782120704651,0.8284867405891418,-0.27760082483291626,0.923719048500061,0.7124519348144531,-0.2502145767211914,0.9692564010620117,0.43388521671295166,-0.02426091767847538,0.97269207239151,0.29465264081954956,0.022627364844083786,0.941257119178772,0.8989092111587524,0.17666076123714447,0.8534530997276306,0.8444042801856995,0.11275823414325714,0.6093176603317261,0.8390880823135376,0.03909539803862572,1.0489002466201782,0.2603243291378021,0.10959499329328537,0.5684089064598083,0.5073920488357544,0.2437359094619751,0.47143417596817017,0.5552523732185364,-0.03760676831007004,0.5598100423812866,0.41597211360931396,-0.011301963590085506,0.6035491824150085,0.14840556681156158,0.3088965117931366,0.6084178686141968,-0.04890066757798195,0.2567967474460602,0.5770078301429749,0.59881192445755,0.3971059024333954,0.7972098588943481,0.6483575701713562,0.23016709089279175,0.46837055683135986,0.6228898167610168,0.0,0.0,0.0,0.0,0.0,0.3370000123977661,0.05892191827297211,0.13904030621051788,0.4836500883102417,0.15211835503578186,0.35895949602127075,0.605198323726654,0.21280188858509064,0.5021567940711975,0.6843330264091492,0.26148781180381775,0.6170428395271301,0.7478222250938416,1.169963042831421,0.8000441310882569,0.3000209259033203,-9.27635899744928e-05,4.947391790337861e-05,-1.2505906890146434e-05
1637097284.6854568,8.0,0.0,0.03909539803862572,1.0489002466201782,0.2603243291378021,0.11441529542207718,0.5355560183525085,0.5242848992347717,0.04821842908859253,0.4782946705818176,0.5957350730895996,0.0891088992357254,0.4326345920562744,0.4275153577327728,-0.3040500581264496,1.0001386404037476,0.42283645272254944,-0.104759082198143,0.988040566444397,0.22892743349075317,0.13972169160842896,0.6384775042533875,0.621054470539093,0.19899705052375793,0.7315046191215515,0.6419856548309326,0.07881654053926468,0.49477070569992065,0.6236512064933777,0.03826824575662613,1.105048656463623,0.305081844329834,-0.12534929811954498,0.9379693269729614,0.8048065304756165,-0.06314350664615631,0.8878201246261597,0.8293846845626831,-0.27828583121299744,0.919532060623169,0.7102986574172974,-0.2568908929824829,0.9763199090957642,0.44319579005241394,-0.024958347901701927,0.9702184200286865,0.2939090430736542,0.027587221935391426,0.9564066529273987,0.8993144035339355,0.1676194965839386,0.8309611082077026,0.830902099609375,0.12373033910989761,0.6182535290718079,0.8465490341186523,0.03909539803862572,1.0489002466201782,0.2603243291378021,0.10959499329328537,0.5684089064598083,0.5073920488357544,0.2437359094619751,0.47143417596817017,0.5552523732185364,-0.03760676831007004,0.5598100423812866,0.41597211360931396,-0.011301963590085506,0.6035491824150085,0.14840556681156158,0.3088965117931366,0.6084178686141968,-0.04890066757798195,0.2567967474460602,0.5770078301429749,0.59881192445755,0.3971059024333954,0.7972098588943481,0.6483575701713562,0.23016709089279175,0.46837055683135986,0.6228898167610168,0.0,0.0,0.0,0.0,0.0,0.3370000123977661,0.05892191827297211,0.13904030621051788,0.4836500883102417,0.15211835503578186,0.35895949602127075,0.605198323726654,0.21280188858509064,0.5021567940711975,0.6843330264091492,0.26148781180381775,0.6170428395271301,0.7478222250938416,1.169963042831421,0.8000441310882569,0.3000209259033203,-9.27635899744928e-05,4.947391790337861e-05,-1.2505906890146434e-05
1637097284.6983426,8.0,0.0,0.03909539803862572,1.0489002466201782,0.2603243291378021,0.11441529542207718,0.5355560183525085,0.5242848992347717,0.04821842908859253,0.4782946705818176,0.5957350730895996,0.0891088992357254,0.4326345920562744,0.4275153577327728,-0.3040500581264496,1.0001386404037476,0.42283645272254944,-0.104759082198143,0.988040566444397,0.22892743349075317,0.13972169160842896,0.6384775042533875,0.621054470539093,0.19899705052375793,0.7315046191215515,0.6419856548309326,0.07881654053926468,0.49477070569992065,0.6236512064933777,0.03826824575662613,1.105048656463623,0.305081844329834,-0.12534929811954498,0.9379693269729614,0.8048065304756165,-0.06314350664615631,0.8878201246261597,0.8293846845626831,-0.27828583121299744,0.919532060623169,0.7102986574172974,-0.2568908929824829,0.9763199090957642,0.44319579005241394,-0.024958347901701927,0.9702184200286865,0.2939090430736542,0.027587221935391426,0.9564066529273987,0.8993144035339355,0.1676194965839386,0.8309611082077026,0.830902099609375,0.12373033910989761,0.6182535290718079,0.8465490341186523,0.03909539803862572,1.0489002466201782,0.2603243291378021,0.10959499329328537,0.5684089064598083,0.5073920488357544,0.23754750192165375,0.46477797627449036,0.5581589937210083,-0.03720010071992874,0.5503236651420593,0.4167056381702423,-0.016236167401075363,0.6072877049446106,0.15116368234157562,0.29977941513061523,0.5984194874763489,-0.052640222012996674,0.2563900947570801,0.5864941477775574,0.5980784296989441,0.3966992199420929,0.8066962361335754,0.6476240754127502,0.22976042330265045,0.47785690426826477,0.6221563220024109,0.0,0.0,0.0,0.0,0.0,0.3370000123977661,0.05892191827297211,0.13904030621051788,0.4836500883102417,0.15211835503578186,0.35895949602127075,0.605198323726654,0.21280188858509064,0.5021567940711975,0.6843330264091492,0.26148781180381775,0.6170428395271301,0.7478222250938416,1.169963042831421,0.8000441310882569,0.3000209259033203,-9.27635899744928e-05,4.947391790337861e-05,-1.2505906890146434e-05
1637097284.7184703,8.0,0.0,0.03909539803862572,1.0489002466201782,0.2603243291378021,0.11441529542207718,0.5355560183525085,0.5242848992347717,0.04821842908859253,0.4782946705818176,0.5957350730895996,0.0891088992357254,0.4326345920562744,0.4275153577327728,-0.3040500581264496,1.0001386404037476,0.42283645272254944,-0.104759082198143,0.988040566444397,0.22892743349075317,0.13972169160842896,0.6384775042533875,0.621054470539093,0.19899705052375793,0.7315046191215515,0.6419856548309326,0.07881654053926468,0.49477070569992065,0.6236512064933777,0.03826824575662613,1.105048656463623,0.305081844329834,-0.12534929811954498,0.9379693269729614,0.8048065304756165,-0.06314350664615631,0.8878201246261597,0.8293846845626831,-0.27828583121299744,0.919532060623169,0.7102986574172974,-0.2568908929824829,0.9763199090957642,0.44319579005241394,-0.024958347901701927,0.9702184200286865,0.2939090430736542,0.027587221935391426,0.9564066529273987,0.8993144035339355,0.1676194965839386,0.8309611082077026,0.830902099609375,0.12373033910989761,0.6182535290718079,0.8465490341186523,0.03909539803862572,1.0489002466201782,0.2603243291378021,0.10959499329328537,0.5684089064598083,0.5073920488357544,0.23780743777751923,0.4650462865829468,0.5580500960350037,-0.03722233697772026,0.5507093071937561,0.41666555404663086,-0.015946023166179657,0.6071823239326477,0.15104356408119202,0.30026039481163025,0.5988637804985046,-0.0524873249232769,0.2564123272895813,0.5861085057258606,0.5981185436248779,0.3967214524745941,0.8063105940818787,0.6476641893386841,0.22978265583515167,0.4774712324142456,0.6221964359283447,0.0,0.0,0.0,0.0,0.0,0.3370000123977661,0.05892191827297211,0.13904030621051788,0.4836500883102417,0.15211835503578186,0.35895949602127075,0.605198323726654,0.21280188858509064,0.5021567940711975,0.6843330264091492,0.26148781180381775,0.6170428395271301,0.7478222250938416,1.169963042831421,0.8000441310882569,0.3000209259033203,-9.27635899744928e-05,4.947391790337861e-05,-1.2505906890146434e-05
1637097284.7312455,8.0,0.0,0.037898238748311996,1.049243450164795,0.2732774019241333,0.11697575449943542,0.5367987751960754,0.5205889940261841,0.0697845071554184,0.4850102365016937,0.5751916766166687,0.09494577348232269,0.42485037446022034,0.42428621649742126,-0.30723053216934204,1.0044755935668945,0.4241054654121399,-0.1023874431848526,0.984310507774353,0.22819966077804565,0.13900573551654816,0.6487471461296082,0.6168917417526245,0.1997581273317337,0.7131454348564148,0.6308403015136719,0.07771668583154678,0.49628785252571106,0.6244577169418335,0.03826824575662613,1.105048656463623,0.305081844329834,-0.12534929811954498,0.9379693269729614,0.8048065304756165,-0.06314350664615631,0.8878201246261597,0.8293846845626831,-0.27828583121299744,0.919532060623169,0.7102986574172974,-0.2568908929824829,0.9763199090957642,0.44319579005241394,-0.024958347901701927,0.9702184200286865,0.2939090430736542,0.027587221935391426,0.9564066529273987,0.8993144035339355,0.1676194965839386,0.8309611082077026,0.830902099609375,0.12373033910989761,0.6182535290718079,0.8465490341186523,0.037898238748311996,1.049243450164795,0.2732774019241333,0.11309046298265457,0.5629730820655823,0.5073111653327942,0.24130290746688843,0.4596104621887207,0.5579692721366882,-0.03372686728835106,0.54527348279953,0.41658470034599304,-0.01245055440813303,0.6017464399337769,0.1509627103805542,0.30375587940216064,0.5934279561042786,-0.05256816744804382,0.2599077820777893,0.5806726217269897,0.5980376601219177,0.4416055977344513,0.7702792286872864,0.6388499736785889,0.2597590684890747,0.44855472445487976,0.6300364136695862,0.0,0.0,0.0,0.0,0.0,0.3370000123977661,0.05892191827297211,0.13904030621051788,0.4836500883102417,0.15211835503578186,0.35895949602127075,0.605198323726654,0.21280188858509064,0.5021567940711975,0.6843330264091492,0.26148781180381775,0.6170428395271301,0.7478222250938416,1.169963042831421,0.8000441310882569,0.3000209259033203,-9.27635899744928e-05,4.947391790337861e-05,-1.2505906890146434e-05
1637097284.7514503,8.0,0.0,0.037898238748311996,1.049243450164795,0.2732774019241333,0.11697575449943542,0.5367987751960754,0.5205889940261841,0.0697845071554184,0.4850102365016937,0.5751916766166687,0.09494577348232269,0.42485037446022034,0.42428621649742126,-0.30723053216934204,1.0044755935668945,0.4241054654121399,-0.1023874431848526,0.984310507774353,0.22819966077804565,0.13900573551654816,0.6487471461296082,0.6168917417526245,0.1997581273317337,0.7131454348564148,0.6308403015136719,0.07771668583154678,0.49628785252571106,0.6244577169418335,0.03826824575662613,1.105048656463623,0.305081844329834,-0.12534929811954498,0.9379693269729614,0.8048065304756165,-0.06314350664615631,0.8878201246261597,0.8293846845626831,-0.27828583121299744,0.919532060623169,0.7102986574172974,-0.2568908929824829,0.9763199090957642,0.44319579005241394,-0.024958347901701927,0.9702184200286865,0.2939090430736542,0.027587221935391426,0.9564066529273987,0.8993144035339355,0.1676194965839386,0.8309611082077026,0.830902099609375,0.12373033910989761,0.6182535290718079,0.8465490341186523,0.037898238748311996,1.049243450164795,0.2732774019241333,0.11290137469768524,0.5632018446922302,0.5078465342521667,0.2411138266324997,0.45983925461769104,0.558504581451416,-0.03391595184803009,0.5455023050308228,0.4171200692653656,-0.012639637105166912,0.6019752621650696,0.15149807929992676,0.3035667836666107,0.5936567783355713,-0.05203281342983246,0.25971871614456177,0.5809014439582825,0.5985730290412903,0.43986791372299194,0.7718617916107178,0.6399347186088562,0.2586282789707184,0.44981393218040466,0.6304561495780945,0.0,0.0,0.0,0.0,0.0,0.3370000123977661,0.05892191827297211,0.13904030621051788,0.4836500883102417,0.15211835503578186,0.35895949602127075,0.605198323726654,0.21280188858509064,0.5021567940711975,0.6843330264091492,0.26148781180381775,0.6170428395271301,0.7478222250938416,1.169963042831421,0.8000441310882569,0.3000209259033203,-9.27635899744928e-05,4.947391790337861e-05,-1.2505906890146434e-05
1637097284.7642376,8.0,0.0,0.037898238748311996,1.049243450164795,0.2732774019241333,0.11697575449943542,0.5367987751960754,0.5205889940261841,0.0697845071554184,0.4850102365016937,0.5751916766166687,0.09494577348232269,0.42485037446022034,0.42428621649742126,-0.30723053216934204,1.0044755935668945,0.4241054654121399,-0.1023874431848526,0.984310507774353,0.22819966077804565,0.13900573551654816,0.6487471461296082,0.6168917417526245,0.1997581273317337,0.7131454348564148,0.6308403015136719,0.07771668583154678,0.49628785252571106,0.6244577169418335,0.027668217197060585,1.0759013891220093,0.30850133299827576,-0.12625564634799957,0.9371535778045654,0.8039486408233643,-0.05264279618859291,0.8977587819099426,0.8365278244018555,-0.2768179178237915,0.9285043478012085,0.7149129509925842,-0.25379645824432373,0.9976615309715271,0.45892417430877686,-0.03175933286547661,0.9739753007888794,0.3017221689224243,0.02430662512779236,0.9458028078079224,0.8929843902587891,0.17028836905956268,0.8378181457519531,0.8433495759963989,0.12100323289632797,0.5952284932136536,0.8397524356842041,0.037898238748311996,1.049243450164795,0.2732774019241333,0.11290137469768524,0.5632018446922302,0.5078465342521667,0.2532042860984802,0.4844612181186676,0.5695191025733948,-0.0360277034342289,0.5536994338035583,0.41936078667640686,-0.012646736577153206,0.6230078339576721,0.1569744348526001,0.29440799355506897,0.5927720069885254,-0.05816206336021423,0.2618304491043091,0.5727043151855469,0.596332311630249,0.44197967648506165,0.7636646628379822,0.6376940011978149,0.2607400417327881,0.4416167736053467,0.6282154321670532,0.0,0.0,0.0,0.0,0.0,0.3370000123977661,0.05892191827297211,0.13904030621051788,0.4836500883102417,0.15211835503578186,0.35895949602127075,0.605198323726654,0.21280188858509064,0.5021567940711975,0.6843330264091492,0.26148781180381775,0.6170428395271301,0.7478222250938416,1.169963042831421,0.8000441310882569,0.3000209259033203,-9.27635899744928e-05,4.947391790337861e-05,-1.2505906890146434e-05
1637097284.7844765,8.0,0.0,0.04310556501150131,1.0562041997909546,0.2718069553375244,0.11394495517015457,0.5413450598716736,0.5226528644561768,0.05789957195520401,0.4804117679595947,0.5793685913085938,0.09244421124458313,0.4281865060329437,0.42567017674446106,-0.29070979356765747,0.9999505281448364,0.42714571952819824,-0.11935409158468246,1.0109952688217163,0.2334059774875641,0.135445699095726,0.654503583908081,0.6196355223655701,0.19695769250392914,0.7351932525634766,0.6437126398086548,0.0781291201710701,0.49571895599365234,0.6241552829742432,0.027668217197060585,1.0759013891220093,0.30850133299827576,-0.12625564634799957,0.9371535778045654,0.8039486408233643,-0.05264279618859291,0.8977587819099426,0.8365278244018555,-0.2768179178237915,0.9285043478012085,0.7149129509925842,-0.25379645824432373,0.9976615309715271,0.45892417430877686,-0.03175933286547661,0.9739753007888794,0.3017221689224243,0.02430662512779236,0.9458028078079224,0.8929843902587891,0.17028836905956268,0.8378181457519531,0.8433495759963989,0.12100323289632797,0.5952284932136536,0.8397524356842041,0.037898238748311996,1.049243450164795,0.2732774019241333,0.11290137469768524,0.5632018446922302,0.5078465342521667,0.2544254660606384,0.48746350407600403,0.5704814791679382,-0.03625215217471123,0.5546335577964783,0.4196438789367676,-0.012692018412053585,0.6254088878631592,0.15766547620296478,0.2931380569934845,0.5927838683128357,-0.0588618703186512,0.2620549201965332,0.571770191192627,0.5960491895675659,0.4422041177749634,0.7627305388450623,0.6374108791351318,0.2609644830226898,0.44068264961242676,0.6279323101043701,0.0,0.0,0.0,0.0,0.0,0.3370000123977661,0.05892191827297211,0.13904030621051788,0.4836500883102417,0.15211835503578186,0.35895949602127075,0.605198323726654,0.21280188858509064,0.5021567940711975,0.6843330264091492,0.26148781180381775,0.6170428395271301,0.7478222250938416,1.169963042831421,0.8000441310882569,0.3000209259033203,-9.27635899744928e-05,4.947391790337861e-05,-1.2505906890146434e-05
1637097284.79724,8.0,0.0,0.04310556501150131,1.0562041997909546,0.2718069553375244,0.11394495517015457,0.5413450598716736,0.5226528644561768,0.05789957195520401,0.4804117679595947,0.5793685913085938,0.09244421124458313,0.4281865060329437,0.42567017674446106,-0.29070979356765747,0.9999505281448364,0.42714571952819824,-0.11935409158468246,1.0109952688217163,0.2334059774875641,0.135445699095726,0.654503583908081,0.6196355223655701,0.19695769250392914,0.7351932525634766,0.6437126398086548,0.0781291201710701,0.49571895599365234,0.6241552829742432,0.027668217197060585,1.0759013891220093,0.30850133299827576,-0.12625564634799957,0.9371535778045654,0.8039486408233643,-0.05264279618859291,0.8977587819099426,0.8365278244018555,-0.2768179178237915,0.9285043478012085,0.7149129509925842,-0.25379645824432373,0.9976615309715271,0.45892417430877686,-0.03175933286547661,0.9739753007888794,0.3017221689224243,0.02430662512779236,0.9458028078079224,0.8929843902587891,0.17028836905956268,0.8378181457519531,0.8433495759963989,0.12100323289632797,0.5952284932136536,0.8397524356842041,0.04310556501150131,1.0562041997909546,0.2718069553375244,0.10964521020650864,0.5700798630714417,0.5087460875511169,0.2511692941188812,0.49434152245521545,0.5713810324668884,-0.03950831666588783,0.5615115761756897,0.4205434322357178,-0.015948181971907616,0.6322869062423706,0.15856502950191498,0.2898818850517273,0.5996618866920471,-0.057962317019701004,0.258798748254776,0.5786482095718384,0.5969487428665161,0.4144912660121918,0.7848731875419617,0.6590893864631653,0.25135380029678345,0.4543139934539795,0.6313539147377014,0.0,0.0,0.0,0.0,0.0,0.3370000123977661,0.05892191827297211,0.13904030621051788,0.4836500883102417,0.15211835503578186,0.35895949602127075,0.605198323726654,0.21280188858509064,0.5021567940711975,0.6843330264091492,0.26148781180381775,0.6170428395271301,0.7478222250938416,1.169963042831421,0.8000441310882569,0.3000209259033203,-9.27635899744928e-05,4.947391790337861e-05,-1.2505906890146434e-05
1637097284.8174424,8.0,0.0,0.04310556501150131,1.0562041997909546,0.2718069553375244,0.11394495517015457,0.5413450598716736,0.5226528644561768,0.05789957195520401,0.4804117679595947,0.5793685913085938,0.09244421124458313,0.4281865060329437,0.42567017674446106,-0.29070979356765747,0.9999505281448364,0.42714571952819824,-0.11935409158468246,1.0109952688217163,0.2334059774875641,0.135445699095726,0.654503583908081,0.6196355223655701,0.19695769250392914,0.7351932525634766,0.6437126398086548,0.0781291201710701,0.49571895599365234,0.6241552829742432,0.027668217197060585,1.0759013891220093,0.30850133299827576,-0.12625564634799957,0.9371535778045654,0.8039486408233643,-0.05264279618859291,0.8977587819099426,0.8365278244018555,-0.2768179178237915,0.9285043478012085,0.7149129509925842,-0.25379645824432373,0.9976615309715271,0.45892417430877686,-0.03175933286547661,0.9739753007888794,0.3017221689224243,0.02430662512779236,0.9458028078079224,0.8929843902587891,0.17028836905956268,0.8378181457519531,0.8433495759963989,0.12100323289632797,0.5952284932136536,0.8397524356842041,0.04310556501150131,1.0562041997909546,0.2718069553375244,0.10999111086130142,0.5700815320014954,0.5086520910263062,0.2515151798725128,0.49434319138526917,0.5712870359420776,-0.039162419736385345,0.5615132451057434,0.420449435710907,-0.015602286905050278,0.6322885751724243,0.158471018075943,0.2902278006076813,0.599663496017456,-0.05805633217096329,0.2591446340084076,0.5786498188972473,0.5968547463417053,0.41591212153434753,0.7842928171157837,0.6582168340682983,0.25203651189804077,0.45403560996055603,0.6312454342842102,0.0,0.0,0.0,0.0,0.0,0.3370000123977661,0.05892191827297211,0.13904030621051788,0.4836500883102417,0.15211835503578186,0.35895949602127075,0.605198323726654,0.21280188858509064,0.5021567940711975,0.6843330264091492,0.26148781180381775,0.6170428395271301,0.7478222250938416,1.169963042831421,0.8000441310882569,0.3000209259033203,-9.27635899744928e-05,4.947391790337861e-05,-1.2505906890146434e-05
1637097284.8302574,8.0,0.0,0.04310556501150131,1.0562041997909546,0.2718069553375244,0.11394495517015457,0.5413450598716736,0.5226528644561768,0.05789957195520401,0.4804117679595947,0.5793685913085938,0.09244421124458313,0.4281865060329437,0.42567017674446106,-0.29070979356765747,0.9999505281448364,0.42714571952819824,-0.11935409158468246,1.0109952688217163,0.2334059774875641,0.135445699095726,0.654503583908081,0.6196355223655701,0.19695769250392914,0.7351932525634766,0.6437126398086548,0.0781291201710701,0.49571895599365234,0.6241552829742432,0.029002703726291656,1.0837717056274414,0.29466795921325684,-0.12698960304260254,0.9326674342155457,0.8016415238380432,-0.05084855109453201,0.903039813041687,0.8312410116195679,-0.27828583121299744,0.919532060623169,0.7102986574172974,-0.25281989574432373,1.0034338235855103,0.461090624332428,-0.030930090695619583,0.9758256077766418,0.29469823837280273,0.02430662512779236,0.9458028078079224,0.8929843902587891,0.16569019854068756,0.8261614441871643,0.8280208110809326,0.12016183137893677,0.6098804473876953,0.8408242464065552,0.04310556501150131,1.0562041997909546,0.2718069553375244,0.10999111086130142,0.5700815320014954,0.5086520910263062,0.254506915807724,0.49938347935676575,0.5703405141830444,-0.03885958343744278,0.5602313280105591,0.4200724959373474,-0.014393229968845844,0.635726273059845,0.1594984531402588,0.289561927318573,0.6016824841499329,-0.059437159448862076,0.2588418126106262,0.5799317359924316,0.5972316861152649,0.41560930013656616,0.7855746746063232,0.6585937738418579,0.2517336905002594,0.45531749725341797,0.6316223740577698,0.0,0.0,0.0,0.0,0.0,0.3370000123977661,0.05892191827297211,0.13904030621051788,0.4836500883102417,0.15211835503578186,0.35895949602127075,0.605198323726654,0.21280188858509064,0.5021567940711975,0.6843330264091492,0.26148781180381775,0.6170428395271301,0.7478222250938416,1.169963042831421,0.8000441310882569,0.3000209259033203,-9.27635899744928e-05,4.947391790337861e-05,-1.2505906890146434e-05
1637097284.8504477,8.0,0.0,0.04310556501150131,1.0562041997909546,0.2718069553375244,0.11394495517015457,0.5413450598716736,0.5226528644561768,0.05789957195520401,0.4804117679595947,0.5793685913085938,0.09244421124458313,0.4281865060329437,0.42567017674446106,-0.29070979356765747,0.9999505281448364,0.42714571952819824,-0.11935409158468246,1.0109952688217163,0.2334059774875641,0.135445699095726,0.654503583908081,0.6196355223655701,0.19695769250392914,0.7351932525634766,0.6437126398086548,0.0781291201710701,0.49571895599365234,0.6241552829742432,0.029002703726291656,1.0837717056274414,0.29466795921325684,-0.12698960304260254,0.9326674342155457,0.8016415238380432,-0.05084855109453201,0.903039813041687,0.8312410116195679,-0.27828583121299744,0.919532060623169,0.7102986574172974,-0.25281989574432373,1.0034338235855103,0.461090624332428,-0.030930090695619583,0.9758256077766418,0.29469823837280273,0.02430662512779236,0.9458028078079224,0.8929843902587891,0.16569019854068756,0.8261614441871643,0.8280208110809326,0.12016183137893677,0.6098804473876953,0.8408242464065552,0.04310556501150131,1.0562041997909546,0.2718069553375244,0.10999111086130142,0.5700815320014954,0.5086520910263062,0.26096421480178833,0.511335551738739,0.567342221736908,-0.03812425583600998,0.557222306728363,0.4192295968532562,-0.011867107823491096,0.6437308192253113,0.16227872669696808,0.28758037090301514,0.6064727306365967,-0.062273185700178146,0.2581064701080322,0.5829407572746277,0.5980745553970337,0.41487395763397217,0.7885836958885193,0.6594366431236267,0.2509983479976654,0.4583265483379364,0.6324652433395386,0.0,0.0,0.0,0.0,0.0,0.3370000123977661,0.05892191827297211,0.13904030621051788,0.4836500883102417,0.15211835503578186,0.35895949602127075,0.605198323726654,0.21280188858509064,0.5021567940711975,0.6843330264091492,0.26148781180381775,0.6170428395271301,0.7478222250938416,1.169963042831421,0.8000441310882569,0.3000209259033203,-9.27635899744928e-05,4.947391790337861e-05,-1.2505906890146434e-05
1637097284.8632467,8.0,0.0,0.05916105583310127,1.0538606643676758,0.270709365606308,0.11748762428760529,0.5357422232627869,0.5200187563896179,0.06839992851018906,0.4868912696838379,0.576135516166687,0.09333017468452454,0.42700496315956116,0.425180047750473,-0.3043883740901947,1.000599980354309,0.4229714274406433,-0.1085294634103775,0.993970513343811,0.2300843745470047,0.14164507389068604,0.6444794535636902,0.6148574948310852,0.2010560780763626,0.717656135559082,0.6446846127510071,0.07867906242609024,0.49496033787727356,0.6237520575523376,0.029002703726291656,1.0837717056274414,0.29466795921325684,-0.12698960304260254,0.9326674342155457,0.8016415238380432,-0.05084855109453201,0.903039813041687,0.8312410116195679,-0.27828583121299744,0.919532060623169,0.7102986574172974,-0.25281989574432373,1.0034338235855103,0.461090624332428,-0.030930090695619583,0.9758256077766418,0.29469823837280273,0.02430662512779236,0.9458028078079224,0.8929843902587891,0.16569019854068756,0.8261614441871643,0.8280208110809326,0.12016183137893677,0.6098804473876953,0.8408242464065552,0.04310556501150131,1.0562041997909546,0.2718069553375244,0.10999111086130142,0.5700815320014954,0.5086520910263062,0.26096421480178833,0.511335551738739,0.567342221736908,-0.03812425583600998,0.557222306728363,0.4192295968532562,-0.011867107823491096,0.6437308192253113,0.16227872669696808,0.28758037090301514,0.6064727306365967,-0.062273185700178146,0.2581064701080322,0.5829407572746277,0.5980745553970337,0.41487395763397217,0.7885836958885193,0.6594366431236267,0.2509983479976654,0.4583265483379364,0.6324652433395386,0.0,0.0,0.0,0.0,0.0,0.3370000123977661,0.05892191827297211,0.13904030621051788,0.4836500883102417,0.15211835503578186,0.35895949602127075,0.605198323726654,0.21280188858509064,0.5021567940711975,0.6843330264091492,0.26148781180381775,0.6170428395271301,0.7478222250938416,1.169963042831421,0.8000441310882569,0.3000209259033203,-9.27635899744928e-05,4.947391790337861e-05,-1.2505906890146434e-05
1637097284.883444,8.0,0.0,0.05916105583310127,1.0538606643676758,0.270709365606308,0.11748762428760529,0.5357422232627869,0.5200187563896179,0.06839992851018906,0.4868912696838379,0.576135516166687,0.09333017468452454,0.42700496315956116,0.425180047750473,-0.3043883740901947,1.000599980354309,0.4229714274406433,-0.1085294634103775,0.993970513343811,0.2300843745470047,0.14164507389068604,0.6444794535636902,0.6148574948310852,0.2010560780763626,0.717656135559082,0.6446846127510071,0.07867906242609024,0.49496033787727356,0.6237520575523376,0.029002703726291656,1.0837717056274414,0.29466795921325684,-0.12698960304260254,0.9326674342155457,0.8016415238380432,-0.05084855109453201,0.903039813041687,0.8312410116195679,-0.27828583121299744,0.919532060623169,0.7102986574172974,-0.25281989574432373,1.0034338235855103,0.461090624332428,-0.030930090695619583,0.9758256077766418,0.29469823837280273,0.02430662512779236,0.9458028078079224,0.8929843902587891,0.16569019854068756,0.8261614441871643,0.8280208110809326,0.12016183137893677,0.6098804473876953,0.8408242464065552,0.05916105583310127,1.0538606643676758,0.270709365606308,0.11415114998817444,0.565380334854126,0.5057574510574341,0.26512426137924194,0.5066343545913696,0.5644475221633911,-0.03396421670913696,0.5525211095809937,0.41633495688438416,-0.0077070691622793674,0.6390296220779419,0.15938407182693481,0.29174041748046875,0.6017715334892273,-0.06516784429550171,0.26226651668548584,0.5782395601272583,0.5951799154281616,0.42197319865226746,0.7749507427215576,0.6753600835800171,0.24454358220100403,0.4520728588104248,0.6450108289718628,0.0,0.0,0.0,0.0,0.0,0.3370000123977661,0.05892191827297211,0.13904030621051788,0.4836500883102417,0.15211835503578186,0.35895949602127075,0.605198323726654,0.21280188858509064,0.5021567940711975,0.6843330264091492,0.26148781180381775,0.6170428395271301,0.7478222250938416,1.169963042831421,0.8000441310882569,0.3000209259033203,-9.27635899744928e-05,4.947391790337861e-05,-1.2505906890146434e-05
1637097284.896264,8.0,0.0,0.05916105583310127,1.0538606643676758,0.270709365606308,0.11748762428760529,0.5357422232627869,0.5200187563896179,0.06839992851018906,0.4868912696838379,0.576135516166687,0.09333017468452454,0.42700496315956116,0.425180047750473,-0.3043883740901947,1.000599980354309,0.4229714274406433,-0.1085294634103775,0.993970513343811,0.2300843745470047,0.14164507389068604,0.6444794535636902,0.6148574948310852,0.2010560780763626,0.717656135559082,0.6446846127510071,0.07867906242609024,0.49496033787727356,0.6237520575523376,0.029002703726291656,1.0837717056274414,0.29466795921325684,-0.12698960304260254,0.9326674342155457,0.8016415238380432,-0.05084855109453201,0.903039813041687,0.8312410116195679,-0.27828583121299744,0.919532060623169,0.7102986574172974,-0.25281989574432373,1.0034338235855103,0.461090624332428,-0.030930090695619583,0.9758256077766418,0.29469823837280273,0.02430662512779236,0.9458028078079224,0.8929843902587891,0.16569019854068756,0.8261614441871643,0.8280208110809326,0.12016183137893677,0.6098804473876953,0.8408242464065552,0.05916105583310127,1.0538606643676758,0.270709365606308,0.11415114998817444,0.565380334854126,0.5057574510574341,0.26512426137924194,0.5066343545913696,0.5644475221633911,-0.03396421670913696,0.5525211095809937,0.41633495688438416,-0.0077070691622793674,0.6390296220779419,0.15938407182693481,0.29174041748046875,0.6017715334892273,-0.06516784429550171,0.26226651668548584,0.5782395601272583,0.5951799154281616,0.42197319865226746,0.7749507427215576,0.6753600835800171,0.24454358220100403,0.4520728588104248,0.6450108289718628,0.0,0.0,0.0,0.0,0.0,0.3370000123977661,0.05892191827297211,0.13904030621051788,0.4836500883102417,0.15211835503578186,0.35895949602127075,0.605198323726654,0.21280188858509064,0.5021567940711975,0.6843330264091492,0.26148781180381775,0.6170428395271301,0.7478222250938416,1.169963042831421,0.8000441310882569,0.3000209259033203,-9.27635899744928e-05,4.947391790337861e-05,-1.2505906890146434e-05
1637097284.916456,8.0,0.0,0.05916105583310127,1.0538606643676758,0.270709365606308,0.11748762428760529,0.5357422232627869,0.5200187563896179,0.06839992851018906,0.4868912696838379,0.576135516166687,0.09333017468452454,0.42700496315956116,0.425180047750473,-0.3043883740901947,1.000599980354309,0.4229714274406433,-0.1085294634103775,0.993970513343811,0.2300843745470047,0.14164507389068604,0.6444794535636902,0.6148574948310852,0.2010560780763626,0.717656135559082,0.6446846127510071,0.07867906242609024,0.49496033787727356,0.6237520575523376,0.03449731320142746,1.0853662490844727,0.30782896280288696,-0.11976450681686401,0.9495885372161865,0.815501868724823,-0.06806274503469467,0.8698940873146057,0.8189449310302734,-0.27477675676345825,0.9442629218101501,0.7311509251594543,-0.2592681050300598,0.9622892737388611,0.4379819631576538,-0.030930090695619583,0.9758256077766418,0.29469823837280273,0.03524773195385933,0.9549142122268677,0.8998528718948364,0.15440864861011505,0.7788110971450806,0.7928581237792969,0.1168677806854248,0.6021514534950256,0.8355398774147034,0.05916105583310127,1.0538606643676758,0.270709365606308,0.11415114998817444,0.565380334854126,0.5057574510574341,0.1980130821466446,0.41496825218200684,0.500110924243927,-0.03874003887176514,0.5612391233444214,0.42386093735694885,-0.030585739761590958,0.5696918368339539,0.15172314643859863,0.23198337852954865,0.5641068816184998,-0.11754769086837769,0.267042338848114,0.5695215463638306,0.5876539349555969,0.42674902081489563,0.7662327289581299,0.6678341031074524,0.2493194043636322,0.44335484504699707,0.6374848484992981,0.0,0.0,0.0,0.0,0.0,0.3370000123977661,0.05892191827297211,0.13904030621051788,0.4836500883102417,0.15211835503578186,0.35895949602127075,0.605198323726654,0.21280188858509064,0.5021567940711975,0.6843330264091492,0.26148781180381775,0.6170428395271301,0.7478222250938416,1.169963042831421,0.8000441310882569,0.3000209259033203,-9.27635899744928e-05,4.947391790337861e-05,-1.2505906890146434e-05
1637097284.9292603,8.0,0.0,0.05916105583310127,1.0538606643676758,0.270709365606308,0.11748762428760529,0.5357422232627869,0.5200187563896179,0.06839992851018906,0.4868912696838379,0.576135516166687,0.09333017468452454,0.42700496315956116,0.425180047750473,-0.3043883740901947,1.000599980354309,0.4229714274406433,-0.1085294634103775,0.993970513343811,0.2300843745470047,0.14164507389068604,0.6444794535636902,0.6148574948310852,0.2010560780763626,0.717656135559082,0.6446846127510071,0.07867906242609024,0.49496033787727356,0.6237520575523376,0.03449731320142746,1.0853662490844727,0.30782896280288696,-0.11976450681686401,0.9495885372161865,0.815501868724823,-0.06806274503469467,0.8698940873146057,0.8189449310302734,-0.27477675676345825,0.9442629218101501,0.7311509251594543,-0.2592681050300598,0.9622892737388611,0.4379819631576538,-0.030930090695619583,0.9758256077766418,0.29469823837280273,0.03524773195385933,0.9549142122268677,0.8998528718948364,0.15440864861011505,0.7788110971450806,0.7928581237792969,0.1168677806854248,0.6021514534950256,0.8355398774147034,0.05916105583310127,1.0538606643676758,0.270709365606308,0.11415114998817444,0.565380334854126,0.5057574510574341,0.20786593854427338,0.42092588543891907,0.5119982957839966,-0.03817149996757507,0.5601471066474915,0.422870010137558,-0.023809168487787247,0.5768410563468933,0.151370570063591,0.24410879611968994,0.5677725076675415,-0.11248212307691574,0.26647379994392395,0.5706135630607605,0.588644802570343,0.42618048191070557,0.7673247456550598,0.6688250303268433,0.24875086545944214,0.4444468915462494,0.638475775718689,0.0,0.0,0.0,0.0,0.0,0.3370000123977661,0.05892191827297211,0.13904030621051788,0.4836500883102417,0.15211835503578186,0.35895949602127075,0.605198323726654,0.21280188858509064,0.5021567940711975,0.6843330264091492,0.26148781180381775,0.6170428395271301,0.7478222250938416,1.169963042831421,0.8000441310882569,0.3000209259033203,-9.27635899744928e-05,4.947391790337861e-05,-1.2505906890146434e-05
1637097284.9494598,8.0,0.0,0.042397357523441315,1.0468826293945312,0.2675074636936188,0.6373475790023804,-0.15705741941928864,0.23280256986618042,0.06929992884397507,0.4856685400009155,0.5755220055580139,1.1366100311279297,-0.9643507599830627,-0.15199615061283112,-0.3016814589500427,0.9969087839126587,0.42189136147499084,-0.11935409158468246,1.0109952688217163,0.2334059774875641,0.13808505237102509,0.6502358913421631,0.6176012754440308,0.2013406902551651,0.7171444296836853,0.6444422006607056,0.07785413414239883,0.49609819054603577,0.6243569254875183,0.03449731320142746,1.0853662490844727,0.30782896280288696,-0.11976450681686401,0.9495885372161865,0.815501868724823,-0.06806274503469467,0.8698940873146057,0.8189449310302734,-0.27477675676345825,0.9442629218101501,0.7311509251594543,-0.2592681050300598,0.9622892737388611,0.4379819631576538,-0.030930090695619583,0.9758256077766418,0.29469823837280273,0.03524773195385933,0.9549142122268677,0.8998528718948364,0.15440864861011505,0.7788110971450806,0.7928581237792969,0.1168677806854248,0.6021514534950256,0.8355398774147034,0.042397357523441315,1.0468826293945312,0.2675074636936188,0.2995322346687317,0.5696018934249878,0.2130163609981537,0.3932470381259918,0.4251474440097809,0.21925723552703857,0.14720958471298218,0.5643686652183533,0.13012894988059998,0.1615719199180603,0.5810626149177551,-0.141370490193367,0.4212668240070343,0.6053035855293274,-0.4123897850513458,0.4518548846244812,0.5748351216316223,0.2959037721157074,0.629310667514801,0.7585462331771851,0.36932092905044556,0.44925573468208313,0.4370068609714508,0.3402494788169861,0.0,0.0,0.0,0.0,0.0,0.3370000123977661,0.05892191827297211,0.13904030621051788,0.4836500883102417,0.15211835503578186,0.35895949602127075,0.605198323726654,0.21280188858509064,0.5021567940711975,0.6843330264091492,0.26148781180381775,0.6170428395271301,0.7478222250938416,1.169963042831421,0.8000441310882569,0.3000209259033203,-9.27635899744928e-05,4.947391790337861e-05,-1.2505906890146434e-05
1637097284.9622462,8.0,0.0,0.042397357523441315,1.0468826293945312,0.2675074636936188,0.6373475790023804,-0.15705741941928864,0.23280256986618042,0.06929992884397507,0.4856685400009155,0.5755220055580139,1.1366100311279297,-0.9643507599830627,-0.15199615061283112,-0.3016814589500427,0.9969087839126587,0.42189136147499084,-0.11935409158468246,1.0109952688217163,0.2334059774875641,0.13808505237102509,0.6502358913421631,0.6176012754440308,0.2013406902551651,0.7171444296836853,0.6444422006607056,0.07785413414239883,0.49609819054603577,0.6243569254875183,0.03449731320142746,1.0853662490844727,0.30782896280288696,-0.11976450681686401,0.9495885372161865,0.815501868724823,-0.06806274503469467,0.8698940873146057,0.8189449310302734,-0.27477675676345825,0.9442629218101501,0.7311509251594543,-0.2592681050300598,0.9622892737388611,0.4379819631576538,-0.030930090695619583,0.9758256077766418,0.29469823837280273,0.03524773195385933,0.9549142122268677,0.8998528718948364,0.15440864861011505,0.7788110971450806,0.7928581237792969,0.1168677806854248,0.6021514534950256,0.8355398774147034,0.042397357523441315,1.0468826293945312,0.2675074636936188,0.2837093472480774,0.5585641860961914,0.25343117117881775,0.3774241507053375,0.4141097366809845,0.25967201590538025,0.13138669729232788,0.5533309578895569,0.17054374516010284,0.1457490175962448,0.5700249075889587,-0.10095570236444473,0.40688997507095337,0.5902004241943359,-0.37091657519340515,0.4360319972038269,0.5637974143028259,0.3363185524940491,0.611314058303833,0.7492016553878784,0.41069504618644714,0.43159162998199463,0.42749089002609253,0.38146287202835083,0.0,0.0,0.0,0.0,0.0,0.3370000123977661,0.05892191827297211,0.13904030621051788,0.4836500883102417,0.15211835503578186,0.35895949602127075,0.605198323726654,0.21280188858509064,0.5021567940711975,0.6843330264091492,0.26148781180381775,0.6170428395271301,0.7478222250938416,1.169963042831421,0.8000441310882569,0.3000209259033203,-9.27635899744928e-05,4.947391790337861e-05,-1.2505906890146434e-05
1637097284.9825017,8.0,0.0,0.042397357523441315,1.0468826293945312,0.2675074636936188,0.6373475790023804,-0.15705741941928864,0.23280256986618042,0.06929992884397507,0.4856685400009155,0.5755220055580139,1.1366100311279297,-0.9643507599830627,-0.15199615061283112,-0.3016814589500427,0.9969087839126587,0.42189136147499084,-0.11935409158468246,1.0109952688217163,0.2334059774875641,0.13808505237102509,0.6502358913421631,0.6176012754440308,0.2013406902551651,0.7171444296836853,0.6444422006607056,0.07785413414239883,0.49609819054603577,0.6243569254875183,0.03372243046760559,1.0866801738739014,0.2959412932395935,-0.12976692616939545,0.9259098172187805,0.8057630062103271,-0.05966491624712944,0.8725273013114929,0.8218163847923279,-0.2781769037246704,0.9234464168548584,0.7203625440597534,-0.25646454095840454,0.9818910956382751,0.45300519466400146,-0.03897135332226753,0.9740073084831238,0.2932581305503845,0.01864306814968586,0.9283731579780579,0.8911635279655457,0.17393700778484344,0.8466771245002747,0.8403366208076477,0.11878933757543564,0.6066601276397705,0.8386224508285522,0.042397357523441315,1.0468826293945312,0.2675074636936188,0.2837093472480774,0.5585641860961914,0.25343117117881775,0.39056092500686646,0.4243089258670807,0.26913997530937195,0.1319626122713089,0.5541455149650574,0.16944721341133118,0.1515820473432541,0.5824929475784302,-0.10075347870588303,0.41272300481796265,0.6026684641838074,-0.37071433663368225,0.4354560673236847,0.5629828572273254,0.33741509914398193,0.6107380986213684,0.7483870983123779,0.4117915630340576,0.4310157299041748,0.42667633295059204,0.3825594186782837,0.0,0.0,0.0,0.0,0.0,0.3370000123977661,0.05892191827297211,0.13904030621051788,0.4836500883102417,0.15211835503578186,0.35895949602127075,0.605198323726654,0.21280188858509064,0.5021567940711975,0.6843330264091492,0.26148781180381775,0.6170428395271301,0.7478222250938416,1.169963042831421,0.8000441310882569,0.3000209259033203,-9.27635899744928e-05,4.947391790337861e-05,-1.2505906890146434e-05
1637097284.9953792,8.0,0.0,0.042397357523441315,1.0468826293945312,0.2675074636936188,0.6373475790023804,-0.15705741941928864,0.23280256986618042,0.06929992884397507,0.4856685400009155,0.5755220055580139,1.1366100311279297,-0.9643507599830627,-0.15199615061283112,-0.3016814589500427,0.9969087839126587,0.42189136147499084,-0.11935409158468246,1.0109952688217163,0.2334059774875641,0.13808505237102509,0.6502358913421631,0.6176012754440308,0.2013406902551651,0.7171444296836853,0.6444422006607056,0.07785413414239883,0.49609819054603577,0.6243569254875183,0.03372243046760559,1.0866801738739014,0.2959412932395935,-0.12976692616939545,0.9259098172187805,0.8057630062103271,-0.05966491624712944,0.8725273013114929,0.8218163847923279,-0.2781769037246704,0.9234464168548584,0.7203625440597534,-0.25646454095840454,0.9818910956382751,0.45300519466400146,-0.03897135332226753,0.9740073084831238,0.2932581305503845,0.01864306814968586,0.9283731579780579,0.8911635279655457,0.17393700778484344,0.8466771245002747,0.8403366208076477,0.11878933757543564,0.6066601276397705,0.8386224508285522,0.042397357523441315,1.0468826293945312,0.2675074636936188,0.2837093472480774,0.5585641860961914,0.25343117117881775,0.41857197880744934,0.4558666944503784,0.28431475162506104,0.1333508938550949,0.556068480014801,0.16690944135189056,0.15489403903484344,0.6140576004981995,-0.09836412966251373,0.416034996509552,0.6342331767082214,-0.36832499504089355,0.4340677857398987,0.5610598921775818,0.33995285630226135,0.6093498468399048,0.7464641332626343,0.4143293499946594,0.4296274483203888,0.424753338098526,0.3850971758365631,0.0,0.0,0.0,0.0,0.0,0.3370000123977661,0.05892191827297211,0.13904030621051788,0.4836500883102417,0.15211835503578186,0.35895949602127075,0.605198323726654,0.21280188858509064,0.5021567940711975,0.6843330264091492,0.26148781180381775,0.6170428395271301,0.7478222250938416,1.169963042831421,0.8000441310882569,0.3000209259033203,-9.27635899744928e-05,4.947391790337861e-05,-1.2505906890146434e-05
1637097285.0154665,8.0,0.0,0.04731711372733116,1.0465484857559204,0.24940098822116852,0.11817961931228638,0.5346454381942749,0.5195024013519287,0.062143485993146896,0.48776358366012573,0.5852903127670288,0.09348651021718979,0.42679646611213684,0.42509353160858154,-0.3043883740901947,1.000599980354309,0.4229714274406433,-0.1251312792301178,1.0200814008712769,0.23517878353595734,0.14287273585796356,0.6424943804740906,0.6139112710952759,0.1998467743396759,0.7299676537513733,0.6412661075592041,0.07916022837162018,0.4942966401576996,0.6233991980552673,0.03372243046760559,1.0866801738739014,0.2959412932395935,-0.12976692616939545,0.9259098172187805,0.8057630062103271,-0.05966491624712944,0.8725273013114929,0.8218163847923279,-0.2781769037246704,0.9234464168548584,0.7203625440597534,-0.25646454095840454,0.9818910956382751,0.45300519466400146,-0.03897135332226753,0.9740073084831238,0.2932581305503845,0.01864306814968586,0.9283731579780579,0.8911635279655457,0.17393700778484344,0.8466771245002747,0.8403366208076477,0.11878933757543564,0.6066601276397705,0.8386224508285522,0.04731711372733116,1.0465484857559204,0.24940098822116852,0.13623107969760895,0.5605887174606323,0.4792312681674957,0.2710937261581421,0.45789122581481934,0.510114848613739,-0.014127368107438087,0.5580930113792419,0.39270955324172974,0.007415780331939459,0.6160821318626404,0.12743596732616425,0.2666437029838562,0.6434172987937927,-0.14373591542243958,0.28658953309059143,0.5630844235420227,0.5657529830932617,0.4306161403656006,0.7756894826889038,0.6342059969902039,0.2612919509410858,0.44805994629859924,0.6088940501213074,0.0,0.0,0.0,0.0,0.0,0.3370000123977661,0.05892191827297211,0.13904030621051788,0.4836500883102417,0.15211835503578186,0.35895949602127075,0.605198323726654,0.21280188858509064,0.5021567940711975,0.6843330264091492,0.26148781180381775,0.6170428395271301,0.7478222250938416,1.169963042831421,0.8000441310882569,0.3000209259033203,-9.27635899744928e-05,4.947391790337861e-05,-1.2505906890146434e-05
1637097285.0282614,8.0,0.0,0.04731711372733116,1.0465484857559204,0.24940098822116852,0.11817961931228638,0.5346454381942749,0.5195024013519287,0.062143485993146896,0.48776358366012573,0.5852903127670288,0.09348651021718979,0.42679646611213684,0.42509353160858154,-0.3043883740901947,1.000599980354309,0.4229714274406433,-0.1251312792301178,1.0200814008712769,0.23517878353595734,0.14287273585796356,0.6424943804740906,0.6139112710952759,0.1998467743396759,0.7299676537513733,0.6412661075592041,0.07916022837162018,0.4942966401576996,0.6233991980552673,0.03372243046760559,1.0866801738739014,0.2959412932395935,-0.12976692616939545,0.9259098172187805,0.8057630062103271,-0.05966491624712944,0.8725273013114929,0.8218163847923279,-0.2781769037246704,0.9234464168548584,0.7203625440597534,-0.25646454095840454,0.9818910956382751,0.45300519466400146,-0.03897135332226753,0.9740073084831238,0.2932581305503845,0.01864306814968586,0.9283731579780579,0.8911635279655457,0.17393700778484344,0.8466771245002747,0.8403366208076477,0.11878933757543564,0.6066601276397705,0.8386224508285522,0.04731711372733116,1.0465484857559204,0.24940098822116852,0.11353226751089096,0.568217396736145,0.5017884373664856,0.2483949065208435,0.46551987528800964,0.5326720476150513,-0.036826178431510925,0.5657216906547546,0.415266752243042,-0.015283029526472092,0.6237108111381531,0.1499931663274765,0.24370402097702026,0.6518571972846985,-0.12132585048675537,0.26389071345329285,0.5707131028175354,0.588310182094574,0.4041999578475952,0.7861323952674866,0.6556764841079712,0.23608620464801788,0.4578477144241333,0.630788266658783,0.0,0.0,0.0,0.0,0.0,0.3370000123977661,0.05892191827297211,0.13904030621051788,0.4836500883102417,0.15211835503578186,0.35895949602127075,0.605198323726654,0.21280188858509064,0.5021567940711975,0.6843330264091492,0.26148781180381775,0.6170428395271301,0.7478222250938416,1.169963042831421,0.8000441310882569,0.3000209259033203,-9.27635899744928e-05,4.947391790337861e-05,-1.2505906890146434e-05
1637097285.0484643,8.0,0.0,0.04731711372733116,1.0465484857559204,0.24940098822116852,0.11817961931228638,0.5346454381942749,0.5195024013519287,0.062143485993146896,0.48776358366012573,0.5852903127670288,0.09348651021718979,0.42679646611213684,0.42509353160858154,-0.3043883740901947,1.000599980354309,0.4229714274406433,-0.1251312792301178,1.0200814008712769,0.23517878353595734,0.14287273585796356,0.6424943804740906,0.6139112710952759,0.1998467743396759,0.7299676537513733,0.6412661075592041,0.07916022837162018,0.4942966401576996,0.6233991980552673,0.03372243046760559,1.0866801738739014,0.2959412932395935,-0.12976692616939545,0.9259098172187805,0.8057630062103271,-0.05966491624712944,0.8725273013114929,0.8218163847923279,-0.2781769037246704,0.9234464168548584,0.7203625440597534,-0.25646454095840454,0.9818910956382751,0.45300519466400146,-0.03897135332226753,0.9740073084831238,0.2932581305503845,0.01864306814968586,0.9283731579780579,0.8911635279655457,0.17393700778484344,0.8466771245002747,0.8403366208076477,0.11878933757543564,0.6066601276397705,0.8386224508285522,0.04731711372733116,1.0465484857559204,0.24940098822116852,0.11353226751089096,0.568217396736145,0.5017884373664856,0.2483949065208435,0.46551987528800964,0.5326720476150513,-0.036826178431510925,0.5657216906547546,0.415266752243042,-0.015283029526472092,0.6237108111381531,0.1499931663274765,0.24370402097702026,0.6518571972846985,-0.12132585048675537,0.26389071345329285,0.5707131028175354,0.588310182094574,0.4041999578475952,0.7861323952674866,0.6556764841079712,0.23608620464801788,0.4578477144241333,0.630788266658783,0.0,0.0,0.0,0.0,0.0,0.3370000123977661,0.05892191827297211,0.13904030621051788,0.4836500883102417,0.15211835503578186,0.35895949602127075,0.605198323726654,0.21280188858509064,0.5021567940711975,0.6843330264091492,0.26148781180381775,0.6170428395271301,0.7478222250938416,1.169963042831421,0.8000441310882569,0.3000209259033203,-9.27635899744928e-05,4.947391790337861e-05,-1.2505906890146434e-05
1637097285.061284,8.0,0.0,0.04731711372733116,1.0465484857559204,0.24940098822116852,0.11817961931228638,0.5346454381942749,0.5195024013519287,0.062143485993146896,0.48776358366012573,0.5852903127670288,0.09348651021718979,0.42679646611213684,0.42509353160858154,-0.3043883740901947,1.000599980354309,0.4229714274406433,-0.1251312792301178,1.0200814008712769,0.23517878353595734,0.14287273585796356,0.6424943804740906,0.6139112710952759,0.1998467743396759,0.7299676537513733,0.6412661075592041,0.07916022837162018,0.4942966401576996,0.6233991980552673,0.031411074101924896,1.0797755718231201,0.2819841504096985,-0.12299367040395737,0.9359155893325806,0.807959258556366,-0.05650228634476662,0.8838911056518555,0.8284421563148499,-0.2702939510345459,0.9260283708572388,0.7229341268539429,-0.25547054409980774,0.9877663850784302,0.45521029829978943,-0.030930090695619583,0.9758256077766418,0.29469823837280273,0.02430662512779236,0.9458028078079224,0.8929843902587891,0.1568700075149536,0.7850629687309265,0.8046849370002747,0.11046464741230011,0.5872142910957336,0.8328872919082642,0.04731711372733116,1.0465484857559204,0.24940098822116852,0.11353226751089096,0.568217396736145,0.5017884373664856,0.24526990950107574,0.4650196433067322,0.5428240299224854,-0.0364530049264431,0.5578268766403198,0.4152069687843323,-0.022084388881921768,0.6190420389175415,0.15017269551753998,0.23690266907215118,0.6471883654594421,-0.1211463212966919,0.2635175585746765,0.5786078572273254,0.5883699655532837,0.4038267731666565,0.7940271496772766,0.6557362675666809,0.23571303486824036,0.4657424986362457,0.6308480501174927,0.0,0.0,0.0,0.0,0.0,0.3370000123977661,0.05892191827297211,0.13904030621051788,0.4836500883102417,0.15211835503578186,0.35895949602127075,0.605198323726654,0.21280188858509064,0.5021567940711975,0.6843330264091492,0.26148781180381775,0.6170428395271301,0.7478222250938416,1.169963042831421,0.8000441310882569,0.3000209259033203,-9.27635899744928e-05,4.947391790337861e-05,-1.2505906890146434e-05
1637097285.0814526,8.0,0.0,0.04731711372733116,1.0465484857559204,0.24940098822116852,0.11817961931228638,0.5346454381942749,0.5195024013519287,0.062143485993146896,0.48776358366012573,0.5852903127670288,0.09348651021718979,0.42679646611213684,0.42509353160858154,-0.3043883740901947,1.000599980354309,0.4229714274406433,-0.1251312792301178,1.0200814008712769,0.23517878353595734,0.14287273585796356,0.6424943804740906,0.6139112710952759,0.1998467743396759,0.7299676537513733,0.6412661075592041,0.07916022837162018,0.4942966401576996,0.6233991980552673,0.031411074101924896,1.0797755718231201,0.2819841504096985,-0.12299367040395737,0.9359155893325806,0.807959258556366,-0.05650228634476662,0.8838911056518555,0.8284421563148499,-0.2702939510345459,0.9260283708572388,0.7229341268539429,-0.25547054409980774,0.9877663850784302,0.45521029829978943,-0.030930090695619583,0.9758256077766418,0.29469823837280273,0.02430662512779236,0.9458028078079224,0.8929843902587891,0.1568700075149536,0.7850629687309265,0.8046849370002747,0.11046464741230011,0.5872142910957336,0.8328872919082642,0.04731711372733116,1.0465484857559204,0.24940098822116852,0.11353226751089096,0.568217396736145,0.5017884373664856,0.24540850520133972,0.465034157037735,0.5424133539199829,-0.03647228702902794,0.5581486225128174,0.4152023494243622,-0.021797480061650276,0.6192676424980164,0.1501626819372177,0.23718957602977753,0.6474140286445618,-0.12115632742643356,0.26353684067726135,0.5782861113548279,0.5883745551109314,0.40384605526924133,0.793705403804779,0.6557408571243286,0.2357323169708252,0.46542078256607056,0.6308526396751404,0.0,0.0,0.0,0.0,0.0,0.3370000123977661,0.05892191827297211,0.13904030621051788,0.4836500883102417,0.15211835503578186,0.35895949602127075,0.605198323726654,0.21280188858509064,0.5021567940711975,0.6843330264091492,0.26148781180381775,0.6170428395271301,0.7478222250938416,1.169963042831421,0.8000441310882569,0.3000209259033203,-9.27635899744928e-05,4.947391790337861e-05,-1.2505906890146434e-05
1637097285.0942423,8.0,0.0,0.04309831187129021,1.0479973554611206,0.2549438774585724,0.11521658301353455,0.5390231609344482,0.5214687585830688,0.06666673719882965,0.4761703312397003,0.5685480833053589,0.09056808799505234,0.4306885898113251,0.4267081022262573,-0.303373247385025,0.9992157220840454,0.42256638407707214,-0.11406339704990387,1.0026741027832031,0.23178252577781677,0.13986508548259735,0.647357702255249,0.6162294149398804,0.1998467743396759,0.7299676537513733,0.6412661075592041,0.07799163460731506,0.49590858817100525,0.6242561340332031,0.031411074101924896,1.0797755718231201,0.2819841504096985,-0.12299367040395737,0.9359155893325806,0.807959258556366,-0.05650228634476662,0.8838911056518555,0.8284421563148499,-0.2702939510345459,0.9260283708572388,0.7229341268539429,-0.25547054409980774,0.9877663850784302,0.45521029829978943,-0.030930090695619583,0.9758256077766418,0.29469823837280273,0.02430662512779236,0.9458028078079224,0.8929843902587891,0.1568700075149536,0.7850629687309265,0.8046849370002747,0.11046464741230011,0.5872142910957336,0.8328872919082642,0.04309831187129021,1.0479973554611206,0.2549438774585724,0.1107916533946991,0.5691221356391907,0.5059034824371338,0.24266788363456726,0.465938925743103,0.5465283989906311,-0.0392129048705101,0.5590534210205078,0.419317364692688,-0.02453809604048729,0.6201724410057068,0.15427769720554352,0.23993809521198273,0.6274532079696655,-0.11307946592569351,0.2607962191104889,0.5791909098625183,0.5924895405769348,0.4113064110279083,0.7887457013130188,0.6562379002571106,0.24118421971797943,0.4614231288433075,0.6323451995849609,0.0,0.0,0.0,0.0,0.0,0.3370000123977661,0.05892191827297211,0.13904030621051788,0.4836500883102417,0.15211835503578186,0.35895949602127075,0.605198323726654,0.21280188858509064,0.5021567940711975,0.6843330264091492,0.26148781180381775,0.6170428395271301,0.7478222250938416,1.169963042831421,0.8000441310882569,0.3000209259033203,-9.27635899744928e-05,4.947391790337861e-05,-1.2505906890146434e-05
1637097285.1144452,8.0,0.0,0.04309831187129021,1.0479973554611206,0.2549438774585724,0.11521658301353455,0.5390231609344482,0.5214687585830688,0.06666673719882965,0.4761703312397003,0.5685480833053589,0.09056808799505234,0.4306885898113251,0.4267081022262573,-0.303373247385025,0.9992157220840454,0.42256638407707214,-0.11406339704990387,1.0026741027832031,0.23178252577781677,0.13986508548259735,0.647357702255249,0.6162294149398804,0.1998467743396759,0.7299676537513733,0.6412661075592041,0.07799163460731506,0.49590858817100525,0.6242561340332031,0.031411074101924896,1.0797755718231201,0.2819841504096985,-0.12299367040395737,0.9359155893325806,0.807959258556366,-0.05650228634476662,0.8838911056518555,0.8284421563148499,-0.2702939510345459,0.9260283708572388,0.7229341268539429,-0.25547054409980774,0.9877663850784302,0.45521029829978943,-0.030930090695619583,0.9758256077766418,0.29469823837280273,0.02430662512779236,0.9458028078079224,0.8929843902587891,0.1568700075149536,0.7850629687309265,0.8046849370002747,0.11046464741230011,0.5872142910957336,0.8328872919082642,0.04309831187129021,1.0479973554611206,0.2549438774585724,0.11096052080392838,0.5690603256225586,0.5057397484779358,0.24283674359321594,0.46587708592414856,0.5463647246360779,-0.03904404118657112,0.558991551399231,0.41915369033813477,-0.02436923049390316,0.6201105713844299,0.1541140079498291,0.2405458241701126,0.6249501705169678,-0.11286373436450958,0.2609650790691376,0.5791290402412415,0.5923258662223816,0.4126184284687042,0.7879941463470459,0.6556267738342285,0.24226664006710052,0.4607827961444855,0.631847083568573,0.0,0.0,0.0,0.0,0.0,0.3370000123977661,0.05892191827297211,0.13904030621051788,0.4836500883102417,0.15211835503578186,0.35895949602127075,0.605198323726654,0.21280188858509064,0.5021567940711975,0.6843330264091492,0.26148781180381775,0.6170428395271301,0.7478222250938416,1.169963042831421,0.8000441310882569,0.3000209259033203,-9.27635899744928e-05,4.947391790337861e-05,-1.2505906890146434e-05
1637097285.1272562,8.0,0.0,0.04309831187129021,1.0479973554611206,0.2549438774585724,0.11521658301353455,0.5390231609344482,0.5214687585830688,0.06666673719882965,0.4761703312397003,0.5685480833053589,0.09056808799505234,0.4306885898113251,0.4267081022262573,-0.303373247385025,0.9992157220840454,0.42256638407707214,-0.11406339704990387,1.0026741027832031,0.23178252577781677,0.13986508548259735,0.647357702255249,0.6162294149398804,0.1998467743396759,0.7299676537513733,0.6412661075592041,0.07799163460731506,0.49590858817100525,0.6242561340332031,0.058632783591747284,1.1238337755203247,0.3084109425544739,-0.12571460008621216,0.9409440755844116,0.8100500702857971,-0.05419731140136719,0.892173171043396,0.8332710862159729,-0.2765337824821472,0.9335060119628906,0.7255760431289673,-0.25698360800743103,0.981887698173523,0.4607568383216858,-0.04161105677485466,0.9655599594116211,0.29826852679252625,0.025104597210884094,0.9483821392059326,0.894524097442627,0.16591961681842804,0.8073492646217346,0.8180794715881348,0.11714237183332443,0.6027956604957581,0.8359802961349487,0.04309831187129021,1.0479973554611206,0.2549438774585724,0.11096052080392838,0.5690603256225586,0.5057397484779358,0.24455726146697998,0.4686378538608551,0.5476413369178772,-0.0394149087369442,0.5597741603851318,0.41971132159233093,-0.022844718769192696,0.6173895001411438,0.15399940311908722,0.24207033216953278,0.6222290992736816,-0.11297833919525146,0.26133593916893005,0.5783464312553406,0.591768205165863,0.4129893183708191,0.787211537361145,0.6550691723823547,0.2426375150680542,0.460000216960907,0.6312894225120544,0.0,0.0,0.0,0.0,0.0,0.3370000123977661,0.05892191827297211,0.13904030621051788,0.4836500883102417,0.15211835503578186,0.35895949602127075,0.605198323726654,0.21280188858509064,0.5021567940711975,0.6843330264091492,0.26148781180381775,0.6170428395271301,0.7478222250938416,1.169963042831421,0.8000441310882569,0.3000209259033203,-9.27635899744928e-05,4.947391790337861e-05,-1.2505906890146434e-05
1637097285.147467,8.0,0.0,0.04309831187129021,1.0479973554611206,0.2549438774585724,0.11521658301353455,0.5390231609344482,0.5214687585830688,0.06666673719882965,0.4761703312397003,0.5685480833053589,0.09056808799505234,0.4306885898113251,0.4267081022262573,-0.303373247385025,0.9992157220840454,0.42256638407707214,-0.11406339704990387,1.0026741027832031,0.23178252577781677,0.13986508548259735,0.647357702255249,0.6162294149398804,0.1998467743396759,0.7299676537513733,0.6412661075592041,0.07799163460731506,0.49590858817100525,0.6242561340332031,0.058632783591747284,1.1238337755203247,0.3084109425544739,-0.12571460008621216,0.9409440755844116,0.8100500702857971,-0.05419731140136719,0.892173171043396,0.8332710862159729,-0.2765337824821472,0.9335060119628906,0.7255760431289673,-0.25698360800743103,0.981887698173523,0.4607568383216858,-0.04161105677485466,0.9655599594116211,0.29826852679252625,0.025104597210884094,0.9483821392059326,0.894524097442627,0.16591961681842804,0.8073492646217346,0.8180794715881348,0.11714237183332443,0.6027956604957581,0.8359802961349487,0.04309831187129021,1.0479973554611206,0.2549438774585724,0.11096052080392838,0.5690603256225586,0.5057397484779358,0.24845293164253235,0.4752979874610901,0.5503823757171631,-0.040266893804073334,0.5616020560264587,0.42103710770606995,-0.02053712122142315,0.6104282736778259,0.15378504991531372,0.24437792599201202,0.6152678728103638,-0.11319269239902496,0.2621879279613495,0.5765185356140137,0.590442419052124,0.41384127736091614,0.7853836417198181,0.6537433862686157,0.24348950386047363,0.4581722915172577,0.6299636363983154,0.0,0.0,0.0,0.0,0.0,0.3370000123977661,0.05892191827297211,0.13904030621051788,0.4836500883102417,0.15211835503578186,0.35895949602127075,0.605198323726654,0.21280188858509064,0.5021567940711975,0.6843330264091492,0.26148781180381775,0.6170428395271301,0.7478222250938416,1.169963042831421,0.8000441310882569,0.3000209259033203,-9.27635899744928e-05,4.947391790337861e-05,-1.2505906890146434e-05
1637097285.1602366,8.0,0.0,0.06373892724514008,1.0645936727523804,0.2571997344493866,0.1180030032992363,0.5345765948295593,0.5193665027618408,0.08340414613485336,0.4816376864910126,0.556204617023468,0.09098503738641739,0.43013250827789307,0.42647743225097656,-0.2919880449771881,1.0017096996307373,0.4276643693447113,-0.1213000938296318,1.014055848121643,0.23400314152240753,0.1450209766626358,0.6390206813812256,0.6122555732727051,0.20367476344108582,0.7129480838775635,0.6424546241760254,0.07929770648479462,0.4941070079803467,0.6232984066009521,0.058632783591747284,1.1238337755203247,0.3084109425544739,-0.12571460008621216,0.9409440755844116,0.8100500702857971,-0.05419731140136719,0.892173171043396,0.8332710862159729,-0.2765337824821472,0.9335060119628906,0.7255760431289673,-0.25698360800743103,0.981887698173523,0.4607568383216858,-0.04161105677485466,0.9655599594116211,0.29826852679252625,0.025104597210884094,0.9483821392059326,0.894524097442627,0.16591961681842804,0.8073492646217346,0.8180794715881348,0.11714237183332443,0.6027956604957581,0.8359802961349487,0.06373892724514008,1.0645936727523804,0.2571997344493866,0.12617914378643036,0.5833732485771179,0.50501549243927,0.26367154717445374,0.4896109402179718,0.5496581196784973,-0.02504827082157135,0.5759150385856628,0.4203128218650818,-0.005318496376276016,0.6247411966323853,0.15306076407432556,0.2548816204071045,0.6337290406227112,-0.11840864270925522,0.2774065434932709,0.590831458568573,0.5897181630134583,0.43080660700798035,0.7967009544372559,0.6583952903747559,0.2568870186805725,0.4714638590812683,0.6333898305892944,0.0,0.0,0.0,0.0,0.0,0.3370000123977661,0.05892191827297211,0.13904030621051788,0.4836500883102417,0.15211835503578186,0.35895949602127075,0.605198323726654,0.21280188858509064,0.5021567940711975,0.6843330264091492,0.26148781180381775,0.6170428395271301,0.7478222250938416,1.169963042831421,0.8000441310882569,0.3000209259033203,-9.27635899744928e-05,4.947391790337861e-05,-1.2505906890146434e-05
1637097285.1804347,8.0,0.0,0.06373892724514008,1.0645936727523804,0.2571997344493866,0.1180030032992363,0.5345765948295593,0.5193665027618408,0.08340414613485336,0.4816376864910126,0.556204617023468,0.09098503738641739,0.43013250827789307,0.42647743225097656,-0.2919880449771881,1.0017096996307373,0.4276643693447113,-0.1213000938296318,1.014055848121643,0.23400314152240753,0.1450209766626358,0.6390206813812256,0.6122555732727051,0.20367476344108582,0.7129480838775635,0.6424546241760254,0.07929770648479462,0.4941070079803467,0.6232984066009521,0.058632783591747284,1.1238337755203247,0.3084109425544739,-0.12571460008621216,0.9409440755844116,0.8100500702857971,-0.05419731140136719,0.892173171043396,0.8332710862159729,-0.2765337824821472,0.9335060119628906,0.7255760431289673,-0.25698360800743103,0.981887698173523,0.4607568383216858,-0.04161105677485466,0.9655599594116211,0.29826852679252625,0.025104597210884094,0.9483821392059326,0.894524097442627,0.16591961681842804,0.8073492646217346,0.8180794715881348,0.11714237183332443,0.6027956604957581,0.8359802961349487,0.06373892724514008,1.0645936727523804,0.2571997344493866,0.11353197693824768,0.5782468318939209,0.49776554107666016,0.25102439522743225,0.4844844937324524,0.5424081683158875,-0.03769544139504433,0.5707886219024658,0.4130628705024719,-0.017965665087103844,0.6196147799491882,0.1458108276128769,0.23045669496059418,0.6375836133956909,-0.13604724407196045,0.2647593915462494,0.585705041885376,0.5824682116508484,0.42208200693130493,0.7839948534965515,0.6634688973426819,0.23995104432106018,0.46353596448898315,0.6354175209999084,0.0,0.0,0.0,0.0,0.0,0.3370000123977661,0.05892191827297211,0.13904030621051788,0.4836500883102417,0.15211835503578186,0.35895949602127075,0.605198323726654,0.21280188858509064,0.5021567940711975,0.6843330264091492,0.26148781180381775,0.6170428395271301,0.7478222250938416,1.169963042831421,0.8000441310882569,0.3000209259033203,-9.27635899744928e-05,4.947391790337861e-05,-1.2505906890146434e-05
1637097285.193254,8.0,0.0,0.06373892724514008,1.0645936727523804,0.2571997344493866,0.1180030032992363,0.5345765948295593,0.5193665027618408,0.08340414613485336,0.4816376864910126,0.556204617023468,0.09098503738641739,0.43013250827789307,0.42647743225097656,-0.2919880449771881,1.0017096996307373,0.4276643693447113,-0.1213000938296318,1.014055848121643,0.23400314152240753,0.1450209766626358,0.6390206813812256,0.6122555732727051,0.20367476344108582,0.7129480838775635,0.6424546241760254,0.07929770648479462,0.4941070079803467,0.6232984066009521,0.04105503857135773,1.082427978515625,0.2837551534175873,-0.11684262007474899,0.941121518611908,0.811953067779541,-0.05513536557555199,0.8888025879859924,0.8313058614730835,-0.27804675698280334,0.924243152141571,0.7207754254341125,-0.2546076774597168,0.9467939734458923,0.4332120418548584,-0.02542332373559475,0.9685692191123962,0.29341328144073486,0.04436153173446655,0.9579998254776001,0.9031307101249695,0.1653086394071579,0.8058446049690247,0.8171751499176025,0.10815341770648956,0.5817909836769104,0.8291550874710083,0.06373892724514008,1.0645936727523804,0.2571997344493866,0.11353197693824768,0.5782468318939209,0.49776554107666016,0.25102439522743225,0.4844844937324524,0.5424081683158875,-0.03769544139504433,0.5707886219024658,0.4130628705024719,-0.017965665087103844,0.6196147799491882,0.1458108276128769,0.23045669496059418,0.6375836133956909,-0.13604724407196045,0.2647593915462494,0.585705041885376,0.5824682116508484,0.42208200693130493,0.7839948534965515,0.6634688973426819,0.23995104432106018,0.46353596448898315,0.6354175209999084,0.0,0.0,0.0,0.0,0.0,0.3370000123977661,0.05892191827297211,0.13904030621051788,0.4836500883102417,0.15211835503578186,0.35895949602127075,0.605198323726654,0.21280188858509064,0.5021567940711975,0.6843330264091492,0.26148781180381775,0.6170428395271301,0.7478222250938416,1.169963042831421,0.8000441310882569,0.3000209259033203,-9.27635899744928e-05,4.947391790337861e-05,-1.2505906890146434e-05
1637097285.213471,8.0,0.0,0.06373892724514008,1.0645936727523804,0.2571997344493866,0.1180030032992363,0.5345765948295593,0.5193665027618408,0.08340414613485336,0.4816376864910126,0.556204617023468,0.09098503738641739,0.43013250827789307,0.42647743225097656,-0.2919880449771881,1.0017096996307373,0.4276643693447113,-0.1213000938296318,1.014055848121643,0.23400314152240753,0.1450209766626358,0.6390206813812256,0.6122555732727051,0.20367476344108582,0.7129480838775635,0.6424546241760254,0.07929770648479462,0.4941070079803467,0.6232984066009521,0.04105503857135773,1.082427978515625,0.2837551534175873,-0.11684262007474899,0.941121518611908,0.811953067779541,-0.05513536557555199,0.8888025879859924,0.8313058614730835,-0.27804675698280334,0.924243152141571,0.7207754254341125,-0.2546076774597168,0.9467939734458923,0.4332120418548584,-0.02542332373559475,0.9685692191123962,0.29341328144073486,0.04436153173446655,0.9579998254776001,0.9031307101249695,0.1653086394071579,0.8058446049690247,0.8171751499176025,0.10815341770648956,0.5817909836769104,0.8291550874710083,0.06373892724514008,1.0645936727523804,0.2571997344493866,0.11353197693824768,0.5782468318939209,0.49776554107666016,0.2413495033979416,0.46987590193748474,0.5378519892692566,-0.03685656189918518,0.5625008940696716,0.4127052426338196,-0.01479482464492321,0.5837265253067017,0.14204001426696777,0.2336275279521942,0.6016954183578491,-0.13981805741786957,0.26392051577568054,0.5939927101135254,0.5828258395195007,0.4212431311607361,0.7922825813293457,0.6638265252113342,0.23911216855049133,0.47182366251945496,0.6357751488685608,0.0,0.0,0.0,0.0,0.0,0.3370000123977661,0.05892191827297211,0.13904030621051788,0.4836500883102417,0.15211835503578186,0.35895949602127075,0.605198323726654,0.21280188858509064,0.5021567940711975,0.6843330264091492,0.26148781180381775,0.6170428395271301,0.7478222250938416,1.169963042831421,0.8000441310882569,0.3000209259033203,-9.27635899744928e-05,4.947391790337861e-05,-1.2505906890146434e-05
1637097285.2262435,8.0,0.0,0.05114834010601044,1.0501757860183716,0.2525204122066498,0.11359135806560516,0.5463228821754456,0.5203795433044434,0.06694531440734863,0.47579526901245117,0.568360447883606,0.09098503738641739,0.43013250827789307,0.42647743225097656,-0.303373247385025,0.9992157220840454,0.42256638407707214,-0.11491481959819794,1.0040132999420166,0.23204375803470612,0.13619767129421234,0.662513256072998,0.6142817139625549,0.1856756955385208,0.7282254695892334,0.647143542766571,0.07867906242609024,0.49496033787727356,0.6237520575523376,0.04105503857135773,1.082427978515625,0.2837551534175873,-0.11684262007474899,0.941121518611908,0.811953067779541,-0.05513536557555199,0.8888025879859924,0.8313058614730835,-0.27804675698280334,0.924243152141571,0.7207754254341125,-0.2546076774597168,0.9467939734458923,0.4332120418548584,-0.02542332373559475,0.9685692191123962,0.29341328144073486,0.04436153173446655,0.9579998254776001,0.9031307101249695,0.1653086394071579,0.8058446049690247,0.8171751499176025,0.10815341770648956,0.5817909836769104,0.8291550874710083,0.05114834010601044,1.0501757860183716,0.2525204122066498,0.10944077372550964,0.5710660219192505,0.5053848624229431,0.23725830018520355,0.4626951217651367,0.5454713106155396,-0.04094776138663292,0.555320143699646,0.42032456398010254,-0.01888602413237095,0.576545774936676,0.14965933561325073,0.24402166903018951,0.5845135450363159,-0.11922090500593185,0.2598293125629425,0.5868119597434998,0.5904451608657837,0.40923935174942017,0.7841267585754395,0.6872640252113342,0.252774178981781,0.45082345604896545,0.6544000506401062,0.0,0.0,0.0,0.0,0.0,0.3370000123977661,0.05892191827297211,0.13904030621051788,0.4836500883102417,0.15211835503578186,0.35895949602127075,0.605198323726654,0.21280188858509064,0.5021567940711975,0.6843330264091492,0.26148781180381775,0.6170428395271301,0.7478222250938416,1.169963042831421,0.8000441310882569,0.3000209259033203,-9.27635899744928e-05,4.947391790337861e-05,-1.2505906890146434e-05
1637097285.246454,8.0,0.0,0.05114834010601044,1.0501757860183716,0.2525204122066498,0.11359135806560516,0.5463228821754456,0.5203795433044434,0.06694531440734863,0.47579526901245117,0.568360447883606,0.09098503738641739,0.43013250827789307,0.42647743225097656,-0.303373247385025,0.9992157220840454,0.42256638407707214,-0.11491481959819794,1.0040132999420166,0.23204375803470612,0.13619767129421234,0.662513256072998,0.6142817139625549,0.1856756955385208,0.7282254695892334,0.647143542766571,0.07867906242609024,0.49496033787727356,0.6237520575523376,0.04105503857135773,1.082427978515625,0.2837551534175873,-0.11684262007474899,0.941121518611908,0.811953067779541,-0.05513536557555199,0.8888025879859924,0.8313058614730835,-0.27804675698280334,0.924243152141571,0.7207754254341125,-0.2546076774597168,0.9467939734458923,0.4332120418548584,-0.02542332373559475,0.9685692191123962,0.29341328144073486,0.04436153173446655,0.9579998254776001,0.9031307101249695,0.1653086394071579,0.8058446049690247,0.8171751499176025,0.10815341770648956,0.5817909836769104,0.8291550874710083,0.05114834010601044,1.0501757860183716,0.2525204122066498,0.11041900515556335,0.5719205737113953,0.5067712664604187,0.23823653161525726,0.4635496437549591,0.5468577742576599,-0.03996952623128891,0.556174635887146,0.4217109978199005,-0.01790779083967209,0.577400267124176,0.1510457545518875,0.24656765162944794,0.584132969379425,-0.11632651090621948,0.2608075439929962,0.5876664519309998,0.5918315649032593,0.4092581570148468,0.7848250269889832,0.6904281973838806,0.25577226281166077,0.45020791888237,0.6568732261657715,0.0,0.0,0.0,0.0,0.0,0.3370000123977661,0.05892191827297211,0.13904030621051788,0.4836500883102417,0.15211835503578186,0.35895949602127075,0.605198323726654,0.21280188858509064,0.5021567940711975,0.6843330264091492,0.26148781180381775,0.6170428395271301,0.7478222250938416,1.169963042831421,0.8000441310882569,0.3000209259033203,-9.27635899744928e-05,4.947391790337861e-05,-1.2505906890146434e-05
1637097285.2592494,8.0,0.0,0.05114834010601044,1.0501757860183716,0.2525204122066498,0.11359135806560516,0.5463228821754456,0.5203795433044434,0.06694531440734863,0.47579526901245117,0.568360447883606,0.09098503738641739,0.43013250827789307,0.42647743225097656,-0.303373247385025,0.9992157220840454,0.42256638407707214,-0.11491481959819794,1.0040132999420166,0.23204375803470612,0.13619767129421234,0.662513256072998,0.6142817139625549,0.1856756955385208,0.7282254695892334,0.647143542766571,0.07867906242609024,0.49496033787727356,0.6237520575523376,0.0510033518075943,1.1194039583206177,0.2899491488933563,-0.1294824331998825,0.922488808631897,0.8000794649124146,-0.06761310994625092,0.8715326189994812,0.8198991417884827,-0.2808775305747986,0.9069126844406128,0.7117937207221985,-0.25318092107772827,0.9550415277481079,0.43628084659576416,-0.03161894530057907,0.9733504056930542,0.2939552366733551,0.02191266603767872,0.9380648732185364,0.8883651494979858,0.16505658626556396,0.824369490146637,0.8186878561973572,0.11906382441520691,0.6073041558265686,0.8390628099441528,0.05114834010601044,1.0501757860183716,0.2525204122066498,0.11041900515556335,0.5719205737113953,0.5067712664604187,0.23823653161525726,0.4635496437549591,0.5468577742576599,-0.03996952623128891,0.556174635887146,0.4217109978199005,-0.01790779083967209,0.577400267124176,0.1510457545518875,0.24656765162944794,0.584132969379425,-0.11632651090621948,0.2608075439929962,0.5876664519309998,0.5918315649032593,0.4092581570148468,0.7848250269889832,0.6904281973838806,0.25577226281166077,0.45020791888237,0.6568732261657715,0.0,0.0,0.0,0.0,0.0,0.3370000123977661,0.05892191827297211,0.13904030621051788,0.4836500883102417,0.15211835503578186,0.35895949602127075,0.605198323726654,0.21280188858509064,0.5021567940711975,0.6843330264091492,0.26148781180381775,0.6170428395271301,0.7478222250938416,1.169963042831421,0.8000441310882569,0.3000209259033203,-9.27635899744928e-05,4.947391790337861e-05,-1.2505906890146434e-05
1637097285.2794776,8.0,0.0,0.05114834010601044,1.0501757860183716,0.2525204122066498,0.11359135806560516,0.5463228821754456,0.5203795433044434,0.06694531440734863,0.47579526901245117,0.568360447883606,0.09098503738641739,0.43013250827789307,0.42647743225097656,-0.303373247385025,0.9992157220840454,0.42256638407707214,-0.11491481959819794,1.0040132999420166,0.23204375803470612,0.13619767129421234,0.662513256072998,0.6142817139625549,0.1856756955385208,0.7282254695892334,0.647143542766571,0.07867906242609024,0.49496033787727356,0.6237520575523376,0.0510033518075943,1.1194039583206177,0.2899491488933563,-0.1294824331998825,0.922488808631897,0.8000794649124146,-0.06761310994625092,0.8715326189994812,0.8198991417884827,-0.2808775305747986,0.9069126844406128,0.7117937207221985,-0.25318092107772827,0.9550415277481079,0.43628084659576416,-0.03161894530057907,0.9733504056930542,0.2939552366733551,0.02191266603767872,0.9380648732185364,0.8883651494979858,0.16505658626556396,0.824369490146637,0.8186878561973572,0.11906382441520691,0.6073041558265686,0.8390628099441528,0.05114834010601044,1.0501757860183716,0.2525204122066498,0.11041900515556335,0.5719205737113953,0.5067712664604187,0.23953129351139069,0.46558240056037903,0.548132061958313,-0.03886444866657257,0.5565617084503174,0.4197169542312622,-0.012021456845104694,0.6032072305679321,0.15269531309604645,0.2524539828300476,0.6099399328231812,-0.11467695981264114,0.2597024738788605,0.5872794389724731,0.5938255786895752,0.40815308690071106,0.7844380140304565,0.6924222111701965,0.254667192697525,0.449820876121521,0.6588672399520874,0.0,0.0,0.0,0.0,0.0,0.3370000123977661,0.05892191827297211,0.13904030621051788,0.4836500883102417,0.15211835503578186,0.35895949602127075,0.605198323726654,0.21280188858509064,0.5021567940711975,0.6843330264091492,0.26148781180381775,0.6170428395271301,0.7478222250938416,1.169963042831421,0.8000441310882569,0.3000209259033203,-9.27635899744928e-05,4.947391790337861e-05,-1.2505906890146434e-05
