UF-SAMM-Lab/NSF_project_archive_data/MSEC_2022/skeleton_fusion_data/data_files/dynamic_left1/data_files_mp_3d/location_test_2021_11_15_12_40_15_MediaPipe3D.csv
Time,Test Joint,Touch Active,H1-Pelvis-x,H1-Pelvis-y,H1-Pelvis-z,H1-Spine-x,H1-Spine-y,H1-Spine-z,H1-Head-x,H1-Head-y,H1-Head-z,H1-R-Shoulder-x,H1-R-Shoulder-y,H1-R-Shoulder-z,H1-R-Elbow-x,H1-R-Elbow-y,H1-R-Elbow-z,H1-R-Wrist-x,H1-R-Wrist-y,H1-R-Wrist-z,H1-L-Shoulder-x,H1-L-Shoulder-y,H1-L-Shoulder-z,H1-L-Elbow-x,H1-L-Elbow-y,H1-L-Elbow-z,H1-L-Wrist-x,H1-L-Wrist-y,H1-L-Wrist-z,H2-Pelvis-x,H2-Pelvis-y,H2-Pelvis-z,H2-Spine-x,H2-Spine-y,H2-Spine-z,H2-Head-x,H2-Head-y,H2-Head-z,H2-R-Shoulder-x,H2-R-Shoulder-y,H2-R-Shoulder-z,H2-R-Elbow-x,H2-R-Elbow-y,H2-R-Elbow-z,H2-R-Wrist-x,H2-R-Wrist-y,H2-R-Wrist-z,H2-L-Shoulder-x,H2-L-Shoulder-y,H2-L-Shoulder-z,H2-L-Elbow-x,H2-L-Elbow-y,H2-L-Elbow-z,H2-L-Wrist-x,H2-L-Wrist-y,H2-L-Wrist-z,HC-Pelvis-x,HC-Pelvis-y,HC-Pelvis-z,HC-Spine-x,HC-Spine-y,HC-Spine-z,HC-Head-x,HC-Head-y,HC-Head-z,HC-R-Shoulder-x,HC-R-Shoulder-y,HC-R-Shoulder-z,HC-R-Elbow-x,HC-R-Elbow-y,HC-R-Elbow-z,HC-R-Wrist-x,HC-R-Wrist-y,HC-R-Wrist-z,HC-L-Shoulder-x,HC-L-Shoulder-y,HC-L-Shoulder-z,HC-L-Elbow-x,HC-L-Elbow-y,HC-L-Elbow-z,HC-L-Wrist-x,HC-L-Wrist-y,HC-L-Wrist-z,Robot-Base(x),Robot-Base(y),Robot-Base(z),Robot-J2(x),Robot-J2(y),Robot-J2(z),Robot-J3(x),Robot-J3(y),Robot-J3(z),Robot-J5(x),Robot-J5(y),Robot-J5(z),Robot-J6(x),Robot-J6(y),Robot-J6(z),Robot-EE(x),Robot-EE(y),Robot-EE(z),Robot-J1-angle,Robot-J2-angle,Robot-J3-angle,Robot-J4-angle,Robot-J5-angle,Robot-J6-angle
1636998015.2584162,8.0,0.0,0.1627117246389389,0.4170176088809967,0.2578554153442383,0.1587097942829132,0.4563145637512207,0.7198456525802612,0.20168040692806244,0.19917137920856476,0.8213664889335632,0.0008821579976938665,0.42251521348953247,0.7092850208282471,0.04634667560458183,0.28810006380081177,0.4669661521911621,0.08746563643217087,0.13882534205913544,0.3666738271713257,0.31653743982315063,0.49011391401290894,0.7304062843322754,0.49895617365837097,0.4843302071094513,0.6210501790046692,0.5489607453346252,0.36449509859085083,0.48330816626548767,-0.026265721768140793,0.685139536857605,0.1032472625374794,-0.05827334150671959,0.6797428131103516,0.6120212078094482,-0.057746242731809616,0.43295010924339294,0.7064635753631592,-0.21050114929676056,0.6883846521377563,0.6078217625617981,-0.21354003250598907,0.5456021428108215,0.4005419909954071,-0.120823934674263,0.4202722907066345,0.27432191371917725,0.09395445883274078,0.671100914478302,0.6162207126617432,0.26248809695243835,0.6795979142189026,0.5498278737068176,0.43321800231933594,0.6767581105232239,0.4060165286064148,-0.026265721768140793,0.685139536857605,0.1032472625374794,-0.05995187535881996,0.6794597506523132,0.6387021541595459,-0.027995740994811058,0.48822906613349915,0.7142006158828735,-0.20633789896965027,0.6877700090408325,0.6346638798713684,-0.2086837887763977,0.5775483846664429,0.4746532738208771,-0.05487791448831558,0.3696398437023163,0.2652679681777954,0.08643415570259094,0.6711495518684387,0.6427404880523682,0.26488542556762695,0.6654915809631348,0.5357627868652344,0.34337207674980164,0.47739970684051514,0.3195643723011017,0.0,0.0,0.0,0.0,0.0,0.3370000123977661,0.10107491165399551,0.18464583158493042,0.33717241883277893,0.2297593504190445,0.4197293519973755,0.3373892903327942,0.3135482966899872,0.5727968215942383,0.3375402092933655,0.3807715177536011,0.6956016421318054,0.3376612663269043,1.069952384185791,1.5699771869659425,9.959034604253247e-06,9.894783580675722e-05,-5.565815560985356e-05,2.4736958951689305e-05
1636998015.268676,8.0,0.0,0.16027295589447021,0.41337209939956665,0.25345614552497864,0.15424802899360657,0.4576992094516754,0.7157315611839294,0.1929396539926529,0.20050176978111267,0.8238911032676697,-0.00583912106230855,0.4301343858242035,0.7032101154327393,0.03501655533909798,0.307647168636322,0.45426833629608154,0.06580504775047302,0.16420120000839233,0.34995901584625244,0.3143351972103119,0.48526400327682495,0.7282530069351196,0.5021829009056091,0.48356881737709045,0.6206794381141663,0.5508899092674255,0.3620893061161041,0.48119816184043884,-0.0180639810860157,0.6669059991836548,0.10344817489385605,-0.05466002598404884,0.6689402461051941,0.609126627445221,-0.04539407417178154,0.4288114011287689,0.7044632434844971,-0.2050720602273941,0.6750675439834595,0.6048823595046997,-0.20282132923603058,0.5249730944633484,0.3973900377750397,-0.1133234053850174,0.39969995617866516,0.27526944875717163,0.09575200080871582,0.6628129482269287,0.6133708953857422,0.2643662095069885,0.6739348769187927,0.5482892394065857,0.44115859270095825,0.6769229769706726,0.4069017767906189,-0.026265721768140793,0.685139536857605,0.1032472625374794,-0.05995187535881996,0.6794597506523132,0.6387021541595459,-0.02899865433573723,0.48859134316444397,0.7155236601829529,-0.20633789896965027,0.6877700090408325,0.6346638798713684,-0.2086837887763977,0.5775483846664429,0.4746532738208771,-0.05487791448831558,0.3696398437023163,0.2652679681777954,0.08643415570259094,0.6711495518684387,0.6427404880523682,0.2655532956123352,0.6666812300682068,0.5368279814720154,0.3431960344314575,0.4783981740474701,0.3204912543296814,0.0,0.0,0.0,0.0,0.0,0.3370000123977661,0.10107491165399551,0.18464583158493042,0.33717241883277893,0.2297593504190445,0.4197293519973755,0.3373892903327942,0.3135482966899872,0.5727968215942383,0.3375402092933655,0.3807715177536011,0.6956016421318054,0.3376612663269043,1.069952384185791,1.5699771869659425,9.959034604253247e-06,9.894783580675722e-05,-5.565815560985356e-05,2.4736958951689305e-05
1636998015.2914524,8.0,0.0,0.16027295589447021,0.41337209939956665,0.25345614552497864,0.15424802899360657,0.4576992094516754,0.7157315611839294,0.1929396539926529,0.20050176978111267,0.8238911032676697,-0.00583912106230855,0.4301343858242035,0.7032101154327393,0.03501655533909798,0.307647168636322,0.45426833629608154,0.06580504775047302,0.16420120000839233,0.34995901584625244,0.3143351972103119,0.48526400327682495,0.7282530069351196,0.5021829009056091,0.48356881737709045,0.6206794381141663,0.5508899092674255,0.3620893061161041,0.48119816184043884,-0.0180639810860157,0.6669059991836548,0.10344817489385605,-0.05466002598404884,0.6689402461051941,0.609126627445221,-0.04539407417178154,0.4288114011287689,0.7044632434844971,-0.2050720602273941,0.6750675439834595,0.6048823595046997,-0.20282132923603058,0.5249730944633484,0.3973900377750397,-0.1133234053850174,0.39969995617866516,0.27526944875717163,0.09575200080871582,0.6628129482269287,0.6133708953857422,0.2643662095069885,0.6739348769187927,0.5482892394065857,0.44115859270095825,0.6769229769706726,0.4069017767906189,-0.0180639810860157,0.6669059991836548,0.10344817489385605,-0.05679214373230934,0.6690587401390076,0.6385878324508667,-0.02821294777095318,0.479082316160202,0.7184788584709167,-0.2032897025346756,0.6750265955924988,0.6344540119171143,-0.20158196985721588,0.5611432194709778,0.47702035307884216,-0.0500350221991539,0.34901806712150574,0.2702333927154541,0.08970541507005692,0.6630908846855164,0.6427216529846191,0.2703173756599426,0.6614610552787781,0.5392917394638062,0.3459787666797638,0.47275498509407043,0.32262182235717773,0.0,0.0,0.0,0.0,0.0,0.3370000123977661,0.10107491165399551,0.18464583158493042,0.33717241883277893,0.2297593504190445,0.4197293519973755,0.3373892903327942,0.3135482966899872,0.5727968215942383,0.3375402092933655,0.3807715177536011,0.6956016421318054,0.3376612663269043,1.069952384185791,1.5699771869659425,9.959034604253247e-06,9.894783580675722e-05,-5.565815560985356e-05,2.4736958951689305e-05
1636998015.3016818,8.0,0.0,0.16296415030956268,0.41676709055900574,0.2579030692577362,0.16502496600151062,0.44891902804374695,0.7205780744552612,0.21003390848636627,0.1865665167570114,0.8264291286468506,0.004187880549579859,0.41941872239112854,0.7087730169296265,0.03728038817644119,0.2977841794490814,0.4625323414802551,0.06944970786571503,0.15400400757789612,0.3527403175830841,0.3258620500564575,0.47841933369636536,0.732383131980896,0.5110645890235901,0.4771709740161896,0.6226987242698669,0.5574712157249451,0.3511725068092346,0.4828016757965088,-0.022458728402853012,0.6608016490936279,0.10794196277856827,-0.05566071346402168,0.6664144992828369,0.616479754447937,-0.052605073899030685,0.42290198802948,0.7100851535797119,-0.2071763426065445,0.6768539547920227,0.6123394966125488,-0.20869870483875275,0.5272921919822693,0.4071733057498932,-0.12248547375202179,0.3983330726623535,0.2863551676273346,0.09585490822792053,0.6559750437736511,0.6206200122833252,0.26171866059303284,0.6637105345726013,0.5562732815742493,0.43190741539001465,0.6636239290237427,0.4159085154533386,-0.0180639810860157,0.6669059991836548,0.10344817489385605,-0.05679214373230934,0.6690587401390076,0.6385878324508667,-0.026977047324180603,0.4789001941680908,0.7175889015197754,-0.2032897025346756,0.6750265955924988,0.6344540119171143,-0.20158196985721588,0.5611432194709778,0.47702035307884216,-0.0500350221991539,0.34901806712150574,0.2702333927154541,0.08970541507005692,0.6630908846855164,0.6427216529846191,0.2698643207550049,0.6615885496139526,0.5385026931762695,0.3441915214061737,0.47155478596687317,0.3225325345993042,0.0,0.0,0.0,0.0,0.0,0.3370000123977661,0.10107491165399551,0.18464583158493042,0.33717241883277893,0.2297593504190445,0.4197293519973755,0.3373892903327942,0.3135482966899872,0.5727968215942383,0.3375402092933655,0.3807715177536011,0.6956016421318054,0.3376612663269043,1.069952384185791,1.5699771869659425,9.959034604253247e-06,9.894783580675722e-05,-5.565815560985356e-05,2.4736958951689305e-05
1636998015.3244185,8.0,0.0,0.16296415030956268,0.41676709055900574,0.2579030692577362,0.16502496600151062,0.44891902804374695,0.7205780744552612,0.21003390848636627,0.1865665167570114,0.8264291286468506,0.004187880549579859,0.41941872239112854,0.7087730169296265,0.03728038817644119,0.2977841794490814,0.4625323414802551,0.06944970786571503,0.15400400757789612,0.3527403175830841,0.3258620500564575,0.47841933369636536,0.732383131980896,0.5110645890235901,0.4771709740161896,0.6226987242698669,0.5574712157249451,0.3511725068092346,0.4828016757965088,-0.022458728402853012,0.6608016490936279,0.10794196277856827,-0.05566071346402168,0.6664144992828369,0.616479754447937,-0.052605073899030685,0.42290198802948,0.7100851535797119,-0.2071763426065445,0.6768539547920227,0.6123394966125488,-0.20869870483875275,0.5272921919822693,0.4071733057498932,-0.12248547375202179,0.3983330726623535,0.2863551676273346,0.09585490822792053,0.6559750437736511,0.6206200122833252,0.26171866059303284,0.6637105345726013,0.5562732815742493,0.43190741539001465,0.6636239290237427,0.4159085154533386,-0.022458728402853012,0.6608016490936279,0.10794196277856827,-0.05741264298558235,0.6667106747627258,0.6433131098747253,-0.024721411988139153,0.4761568605899811,0.7201956510543823,-0.20368869602680206,0.6767891049385071,0.6393160223960876,-0.20485380291938782,0.5623263716697693,0.4822981059551239,-0.0589509978890419,0.34408271312713623,0.2778317928314209,0.08886341750621796,0.6566322445869446,0.647310197353363,0.2679467499256134,0.6554251313209534,0.5412498712539673,0.3390543460845947,0.46236103773117065,0.32688936591148376,0.0,0.0,0.0,0.0,0.0,0.3370000123977661,0.10107491165399551,0.18464583158493042,0.33717241883277893,0.2297593504190445,0.4197293519973755,0.3373892903327942,0.3135482966899872,0.5727968215942383,0.3375402092933655,0.3807715177536011,0.6956016421318054,0.3376612663269043,1.069952384185791,1.5699771869659425,9.959034604253247e-06,9.894783580675722e-05,-5.565815560985356e-05,2.4736958951689305e-05
1636998015.334678,8.0,0.0,0.15341968834400177,0.4280914068222046,0.24806712567806244,0.15520869195461273,0.45908161997795105,0.7135006189346313,0.20426613092422485,0.19671161472797394,0.8199551105499268,-0.004824641160666943,0.42813703417778015,0.7019713521003723,0.037502385675907135,0.3048850893974304,0.4514103829860687,0.06623220443725586,0.16014501452445984,0.34955325722694397,0.3152420222759247,0.49002620577812195,0.7250299453735352,0.5018309950828552,0.4870796203613281,0.6154273748397827,0.5500315427780151,0.3632282316684723,0.4800644814968109,-0.022458728402853012,0.6608016490936279,0.10794196277856827,-0.05566071346402168,0.6664144992828369,0.616479754447937,-0.052605073899030685,0.42290198802948,0.7100851535797119,-0.2071763426065445,0.6768539547920227,0.6123394966125488,-0.20869870483875275,0.5272921919822693,0.4071733057498932,-0.12248547375202179,0.3983330726623535,0.2863551676273346,0.09585490822792053,0.6559750437736511,0.6206200122833252,0.26171866059303284,0.6637105345726013,0.5562732815742493,0.43190741539001465,0.6636239290237427,0.4159085154533386,-0.022458728402853012,0.6608016490936279,0.10794196277856827,-0.05741264298558235,0.6667106747627258,0.6433131098747253,-0.0238750372081995,0.4763292968273163,0.7202582955360413,-0.20368869602680206,0.6767891049385071,0.6393160223960876,-0.20485380291938782,0.5623263716697693,0.4822981059551239,-0.0589509978890419,0.34408271312713623,0.2778317928314209,0.08886341750621796,0.6566322445869446,0.647310197353363,0.26805880665779114,0.654939591884613,0.5414459705352783,0.34047380089759827,0.4615817964076996,0.3277890086174011,0.0,0.0,0.0,0.0,0.0,0.3370000123977661,0.10107491165399551,0.18464583158493042,0.33717241883277893,0.2297593504190445,0.4197293519973755,0.3373892903327942,0.3135482966899872,0.5727968215942383,0.3375402092933655,0.3807715177536011,0.6956016421318054,0.3376612663269043,1.069952384185791,1.5699771869659425,9.959034604253247e-06,9.894783580675722e-05,-5.565815560985356e-05,2.4736958951689305e-05
1636998015.3574228,8.0,0.0,0.15341968834400177,0.4280914068222046,0.24806712567806244,0.15520869195461273,0.45908161997795105,0.7135006189346313,0.20426613092422485,0.19671161472797394,0.8199551105499268,-0.004824641160666943,0.42813703417778015,0.7019713521003723,0.037502385675907135,0.3048850893974304,0.4514103829860687,0.06623220443725586,0.16014501452445984,0.34955325722694397,0.3152420222759247,0.49002620577812195,0.7250299453735352,0.5018309950828552,0.4870796203613281,0.6154273748397827,0.5500315427780151,0.3632282316684723,0.4800644814968109,-0.022222008556127548,0.6598635315895081,0.10866836458444595,-0.053920578211545944,0.6628653407096863,0.6121994853019714,-0.048589687794446945,0.41920188069343567,0.7105373740196228,-0.20384712517261505,0.6707459688186646,0.6083980202674866,-0.2060123234987259,0.513105034828186,0.40571075677871704,-0.12410904467105865,0.37988534569740295,0.2873910367488861,0.09600596129894257,0.654984712600708,0.6160008907318115,0.2640984058380127,0.6580919623374939,0.5532301664352417,0.4391806721687317,0.6540212035179138,0.4144088327884674,-0.022222008556127548,0.6598635315895081,0.10866836458444595,-0.055931467562913895,0.6630557775497437,0.6441423892974854,-0.020411670207977295,0.47308802604675293,0.7212202548980713,-0.2023596465587616,0.6707525253295898,0.640429675579071,-0.20399810373783112,0.5514621138572693,0.48705169558525085,-0.06502031534910202,0.32540786266326904,0.2862805128097534,0.09049671143293381,0.6553589701652527,0.6478551626205444,0.26994603872299194,0.6525251269340515,0.5424464344978333,0.3454413115978241,0.45853978395462036,0.33043086528778076,0.0,0.0,0.0,0.0,0.0,0.3370000123977661,0.10107491165399551,0.18464583158493042,0.33717241883277893,0.2297593504190445,0.4197293519973755,0.3373892903327942,0.3135482966899872,0.5727968215942383,0.3375402092933655,0.3807715177536011,0.6956016421318054,0.3376612663269043,1.069952384185791,1.5699771869659425,9.959034604253247e-06,9.894783580675722e-05,-5.565815560985356e-05,2.4736958951689305e-05
1636998015.3676813,8.0,0.0,0.15341968834400177,0.4280914068222046,0.24806712567806244,0.15520869195461273,0.45908161997795105,0.7135006189346313,0.20426613092422485,0.19671161472797394,0.8199551105499268,-0.004824641160666943,0.42813703417778015,0.7019713521003723,0.037502385675907135,0.3048850893974304,0.4514103829860687,0.06623220443725586,0.16014501452445984,0.34955325722694397,0.3152420222759247,0.49002620577812195,0.7250299453735352,0.5018309950828552,0.4870796203613281,0.6154273748397827,0.5500315427780151,0.3632282316684723,0.4800644814968109,-0.022222008556127548,0.6598635315895081,0.10866836458444595,-0.053920578211545944,0.6628653407096863,0.6121994853019714,-0.048589687794446945,0.41920188069343567,0.7105373740196228,-0.20384712517261505,0.6707459688186646,0.6083980202674866,-0.2060123234987259,0.513105034828186,0.40571075677871704,-0.12410904467105865,0.37988534569740295,0.2873910367488861,0.09600596129894257,0.654984712600708,0.6160008907318115,0.2640984058380127,0.6580919623374939,0.5532301664352417,0.4391806721687317,0.6540212035179138,0.4144088327884674,-0.022222008556127548,0.6598635315895081,0.10866836458444595,-0.055931467562913895,0.6630557775497437,0.6441423892974854,-0.020411670207977295,0.47308802604675293,0.7212202548980713,-0.2023596465587616,0.6707525253295898,0.640429675579071,-0.20399810373783112,0.5514621138572693,0.48705169558525085,-0.06502031534910202,0.32540786266326904,0.2862805128097534,0.09049671143293381,0.6553589701652527,0.6478551626205444,0.26994603872299194,0.6525251269340515,0.5424464344978333,0.3454413115978241,0.45853978395462036,0.33043086528778076,0.0,0.0,0.0,0.0,0.0,0.3370000123977661,0.10107491165399551,0.18464583158493042,0.33717241883277893,0.2297593504190445,0.4197293519973755,0.3373892903327942,0.3135482966899872,0.5727968215942383,0.3375402092933655,0.3807715177536011,0.6956016421318054,0.3376612663269043,1.069952384185791,1.5699771869659425,9.959034604253247e-06,9.894783580675722e-05,-5.565815560985356e-05,2.4736958951689305e-05
1636998015.390423,8.0,0.0,0.1608130931854248,0.41950130462646484,0.2520586848258972,0.1592373102903366,0.4520761966705322,0.7166954278945923,0.20496806502342224,0.19168348610401154,0.824586808681488,0.0011624813778325915,0.4214976131916046,0.7042039632797241,0.0435781255364418,0.29933950304985046,0.45462238788604736,0.06903725117444992,0.1525946855545044,0.35087475180625916,0.3173121213912964,0.48265475034713745,0.7291869521141052,0.5038489103317261,0.4815669059753418,0.6216062307357788,0.5518124103546143,0.35605961084365845,0.4847480356693268,-0.025522049516439438,0.6796853542327881,0.10079951584339142,-0.056745272129774094,0.6822522878646851,0.604228675365448,-0.04993150755763054,0.44022074341773987,0.7010559439659119,-0.2063092142343521,0.6881884932518005,0.6001642346382141,-0.21120156347751617,0.5262511968612671,0.4018643796443939,-0.1316409856081009,0.39075130224227905,0.28474751114845276,0.09281866252422333,0.6763161420822144,0.6082931160926819,0.26064833998680115,0.6762238144874573,0.5470561981201172,0.43275484442710876,0.6701449155807495,0.40946081280708313,-0.025522049516439438,0.6796853542327881,0.10079951584339142,-0.05873481556773186,0.6824158430099487,0.6363071799278259,-0.02541297860443592,0.49268001317977905,0.7149224281311035,-0.20524273812770844,0.6882307529449463,0.6323257684707642,-0.20895524322986603,0.5653467178344727,0.48184841871261597,-0.07386704534292221,0.3352774977684021,0.28299230337142944,0.08777311444282532,0.676600992679596,0.6402885317802429,0.26807156205177307,0.6755495071411133,0.5363056659698486,0.34237709641456604,0.48111236095428467,0.32428357005119324,0.0,0.0,0.0,0.0,0.0,0.3370000123977661,0.10107491165399551,0.18464583158493042,0.33717241883277893,0.2297593504190445,0.4197293519973755,0.3373892903327942,0.3135482966899872,0.5727968215942383,0.3375402092933655,0.3807715177536011,0.6956016421318054,0.3376612663269043,1.069952384185791,1.5699771869659425,9.959034604253247e-06,9.894783580675722e-05,-5.565815560985356e-05,2.4736958951689305e-05
1636998015.4006917,8.0,0.0,0.15991076827049255,0.41383951902389526,0.2532080113887787,0.16496102511882782,0.4463889002799988,0.7200073599815369,0.20933586359024048,0.18221168220043182,0.826971173286438,0.004709434695541859,0.41893014311790466,0.7088968753814697,0.040590036660432816,0.2968485951423645,0.45797792077064514,0.06329252570867538,0.14638353884220123,0.3495245575904846,0.32521259784698486,0.4738476276397705,0.731117844581604,0.5139294862747192,0.4752425253391266,0.6235061883926392,0.5595958828926086,0.3497772514820099,0.48582321405410767,-0.025522049516439438,0.6796853542327881,0.10079951584339142,-0.056745272129774094,0.6822522878646851,0.604228675365448,-0.04993150755763054,0.44022074341773987,0.7010559439659119,-0.2063092142343521,0.6881884932518005,0.6001642346382141,-0.21120156347751617,0.5262511968612671,0.4018643796443939,-0.1316409856081009,0.39075130224227905,0.28474751114845276,0.09281866252422333,0.6763161420822144,0.6082931160926819,0.26064833998680115,0.6762238144874573,0.5470561981201172,0.43275484442710876,0.6701449155807495,0.40946081280708313,-0.025522049516439438,0.6796853542327881,0.10079951584339142,-0.05873481556773186,0.6824158430099487,0.6363071799278259,-0.025806138291954994,0.4924318492412567,0.7144874930381775,-0.20524273812770844,0.6882307529449463,0.6323257684707642,-0.20895524322986603,0.5653467178344727,0.48184841871261597,-0.07386704534292221,0.3352774977684021,0.28299230337142944,0.08777311444282532,0.676600992679596,0.6402885317802429,0.26822802424430847,0.6762616634368896,0.5365725755691528,0.34146755933761597,0.4818331003189087,0.32417207956314087,0.0,0.0,0.0,0.0,0.0,0.3370000123977661,0.10107491165399551,0.18464583158493042,0.33717241883277893,0.2297593504190445,0.4197293519973755,0.3373892903327942,0.3135482966899872,0.5727968215942383,0.3375402092933655,0.3807715177536011,0.6956016421318054,0.3376612663269043,1.069952384185791,1.5699771869659425,9.959034604253247e-06,9.894783580675722e-05,-5.565815560985356e-05,2.4736958951689305e-05
1636998015.4234464,8.0,0.0,0.15991076827049255,0.41383951902389526,0.2532080113887787,0.16496102511882782,0.4463889002799988,0.7200073599815369,0.20933586359024048,0.18221168220043182,0.826971173286438,0.004709434695541859,0.41893014311790466,0.7088968753814697,0.040590036660432816,0.2968485951423645,0.45797792077064514,0.06329252570867538,0.14638353884220123,0.3495245575904846,0.32521259784698486,0.4738476276397705,0.731117844581604,0.5139294862747192,0.4752425253391266,0.6235061883926392,0.5595958828926086,0.3497772514820099,0.48582321405410767,-0.03582577034831047,0.7094859480857849,0.09237805753946304,-0.06414735317230225,0.7038679718971252,0.5983091592788696,-0.06140736863017082,0.45938074588775635,0.6949095726013184,-0.2154221087694168,0.7105744481086731,0.5935397744178772,-0.21920324862003326,0.547315776348114,0.389285683631897,-0.14148961007595062,0.4110372066497803,0.2754908800125122,0.08712740242481232,0.6971614956855774,0.6030785441398621,0.2573612928390503,0.6921333074569702,0.5423157215118408,0.422199010848999,0.6797006726264954,0.4065828025341034,-0.03582577034831047,0.7094859480857849,0.09237805753946304,-0.06581221520900726,0.7035377025604248,0.6280499696731567,-0.033803295344114304,0.512978732585907,0.7052062153816223,-0.21227297186851501,0.7100307941436768,0.6234323382377625,-0.21508252620697021,0.5887223482131958,0.4716625511646271,-0.08165264129638672,0.35473981499671936,0.2762833535671234,0.08064854890108109,0.6970446705818176,0.632667601108551,0.26145192980766296,0.6983810663223267,0.5295684933662415,0.33219796419143677,0.5040111541748047,0.31627100706100464,0.0,0.0,0.0,0.0,0.0,0.3370000123977661,0.10107491165399551,0.18464583158493042,0.33717241883277893,0.2297593504190445,0.4197293519973755,0.3373892903327942,0.3135482966899872,0.5727968215942383,0.3375402092933655,0.3807715177536011,0.6956016421318054,0.3376612663269043,1.069952384185791,1.5699771869659425,9.959034604253247e-06,9.894783580675722e-05,-5.565815560985356e-05,2.4736958951689305e-05
1636998015.433676,8.0,0.0,0.16054397821426392,0.4131506681442261,0.25354018807411194,0.1584789752960205,0.4551143944263458,0.7195261120796204,0.20807749032974243,0.19285322725772858,0.8258548378944397,-0.0020219236612319946,0.42713817954063416,0.7080245614051819,0.03350851684808731,0.30723318457603455,0.4575115442276001,0.06057492643594742,0.15925338864326477,0.34847962856292725,0.3189798891544342,0.4830906093120575,0.7310276031494141,0.5054594278335571,0.4833049774169922,0.6224377751350403,0.5522493720054626,0.35882440209388733,0.48812711238861084,-0.03582577034831047,0.7094859480857849,0.09237805753946304,-0.06414735317230225,0.7038679718971252,0.5983091592788696,-0.06140736863017082,0.45938074588775635,0.6949095726013184,-0.2154221087694168,0.7105744481086731,0.5935397744178772,-0.21920324862003326,0.547315776348114,0.389285683631897,-0.14148961007595062,0.4110372066497803,0.2754908800125122,0.08712740242481232,0.6971614956855774,0.6030785441398621,0.2573612928390503,0.6921333074569702,0.5423157215118408,0.422199010848999,0.6797006726264954,0.4065828025341034,-0.03582577034831047,0.7094859480857849,0.09237805753946304,-0.06581221520900726,0.7035377025604248,0.6280499696731567,-0.03263281285762787,0.5131633877754211,0.7051677107810974,-0.21227297186851501,0.7100307941436768,0.6234323382377625,-0.21508252620697021,0.5887223482131958,0.4716625511646271,-0.08165264129638672,0.35473981499671936,0.2762833535671234,0.08064854890108109,0.6970446705818176,0.632667601108551,0.26117363572120667,0.6980413198471069,0.5290781259536743,0.33275628089904785,0.5032705068588257,0.31642642617225647,0.0,0.0,0.0,0.0,0.0,0.3370000123977661,0.10107491165399551,0.18464583158493042,0.33717241883277893,0.2297593504190445,0.4197293519973755,0.3373892903327942,0.3135482966899872,0.5727968215942383,0.3375402092933655,0.3807715177536011,0.6956016421318054,0.3376612663269043,1.069952384185791,1.5699771869659425,9.959034604253247e-06,9.894783580675722e-05,-5.565815560985356e-05,2.4736958951689305e-05
1636998015.4564152,8.0,0.0,0.16054397821426392,0.4131506681442261,0.25354018807411194,0.1584789752960205,0.4551143944263458,0.7195261120796204,0.20807749032974243,0.19285322725772858,0.8258548378944397,-0.0020219236612319946,0.42713817954063416,0.7080245614051819,0.03350851684808731,0.30723318457603455,0.4575115442276001,0.06057492643594742,0.15925338864326477,0.34847962856292725,0.3189798891544342,0.4830906093120575,0.7310276031494141,0.5054594278335571,0.4833049774169922,0.6224377751350403,0.5522493720054626,0.35882440209388733,0.48812711238861084,-0.03435217961668968,0.6993398070335388,0.0930485799908638,-0.05916845425963402,0.6963808536529541,0.597078800201416,-0.057881902903318405,0.4522804915904999,0.6933310031890869,-0.21119900047779083,0.7062828540802002,0.592743992805481,-0.21571369469165802,0.5512899160385132,0.38680902123451233,-0.14093296229839325,0.4157432019710541,0.2718829810619354,0.0928620845079422,0.686478853225708,0.6014135479927063,0.2640804946422577,0.6863645315170288,0.5378130674362183,0.4280904233455658,0.6811876893043518,0.3981945812702179,-0.03435217961668968,0.6993398070335388,0.0930485799908638,-0.06073685735464096,0.6961938738822937,0.6289337873458862,-0.02481866255402565,0.5062698721885681,0.7059347629547119,-0.2070448398590088,0.7057231664657593,0.6247621178627014,-0.21044795215129852,0.5888918042182922,0.46953147649765015,-0.08138631284236908,0.35495612025260925,0.2711843252182007,0.08557113260030746,0.6866645812988281,0.6331053972244263,0.26543518900871277,0.686871349811554,0.528367817401886,0.33898890018463135,0.4911881387233734,0.31723177433013916,0.0,0.0,0.0,0.0,0.0,0.3370000123977661,0.10107491165399551,0.18464583158493042,0.33717241883277893,0.2297593504190445,0.4197293519973755,0.3373892903327942,0.3135482966899872,0.5727968215942383,0.3375402092933655,0.3807715177536011,0.6956016421318054,0.3376612663269043,1.069952384185791,1.5699771869659425,9.959034604253247e-06,9.894783580675722e-05,-5.565815560985356e-05,2.4736958951689305e-05
1636998015.4666824,8.0,0.0,0.14952541887760162,0.42611896991729736,0.24280574917793274,0.14959722757339478,0.46793660521507263,0.7093773484230042,0.19752980768680573,0.20134565234184265,0.8175060749053955,-0.01156046986579895,0.4405941367149353,0.6985917687416077,0.021267680451273918,0.31987330317497253,0.4482206404209137,0.040441736578941345,0.16399528086185455,0.3384532034397125,0.3107549250125885,0.49527907371520996,0.7201629281044006,0.49522075057029724,0.4934740960597992,0.6109172701835632,0.5441145300865173,0.3682740330696106,0.47578147053718567,-0.03435217961668968,0.6993398070335388,0.0930485799908638,-0.05916845425963402,0.6963808536529541,0.597078800201416,-0.057881902903318405,0.4522804915904999,0.6933310031890869,-0.21119900047779083,0.7062828540802002,0.592743992805481,-0.21571369469165802,0.5512899160385132,0.38680902123451233,-0.14093296229839325,0.4157432019710541,0.2718829810619354,0.0928620845079422,0.686478853225708,0.6014135479927063,0.2640804946422577,0.6863645315170288,0.5378130674362183,0.4280904233455658,0.6811876893043518,0.3981945812702179,-0.03435217961668968,0.6993398070335388,0.0930485799908638,-0.06073685735464096,0.6961938738822937,0.6289337873458862,-0.02481866255402565,0.5062698721885681,0.7059347629547119,-0.2070448398590088,0.7057231664657593,0.6247621178627014,-0.21044795215129852,0.5888918042182922,0.46953147649765015,-0.08138631284236908,0.35495612025260925,0.2711843252182007,0.08557113260030746,0.6866645812988281,0.6331053972244263,0.26543518900871277,0.686871349811554,0.528367817401886,0.33898890018463135,0.4911881387233734,0.31723177433013916,0.0,0.0,0.0,0.0,0.0,0.3370000123977661,0.10107491165399551,0.18464583158493042,0.33717241883277893,0.2297593504190445,0.4197293519973755,0.3373892903327942,0.3135482966899872,0.5727968215942383,0.3375402092933655,0.3807715177536011,0.6956016421318054,0.3376612663269043,1.069952384185791,1.5699771869659425,9.959034604253247e-06,9.894783580675722e-05,-5.565815560985356e-05,2.4736958951689305e-05
1636998015.4894166,8.0,0.0,0.14952541887760162,0.42611896991729736,0.24280574917793274,0.14959722757339478,0.46793660521507263,0.7093773484230042,0.19752980768680573,0.20134565234184265,0.8175060749053955,-0.01156046986579895,0.4405941367149353,0.6985917687416077,0.021267680451273918,0.31987330317497253,0.4482206404209137,0.040441736578941345,0.16399528086185455,0.3384532034397125,0.3107549250125885,0.49527907371520996,0.7201629281044006,0.49522075057029724,0.4934740960597992,0.6109172701835632,0.5441145300865173,0.3682740330696106,0.47578147053718567,-0.02544403448700905,0.6774221062660217,0.09574027359485626,-0.05431279167532921,0.6909783482551575,0.5995829105377197,-0.04948009178042412,0.4513918459415436,0.700072705745697,-0.20552612841129303,0.700823187828064,0.5946099758148193,-0.21151717007160187,0.5465776324272156,0.3859339654445648,-0.1353432983160019,0.4109344780445099,0.27208489179611206,0.09690053761005402,0.6811335682868958,0.6045559048652649,0.2701997458934784,0.6845304369926453,0.5395441055297852,0.4377802908420563,0.6826431155204773,0.4015854597091675,-0.02544403448700905,0.6774221062660217,0.09574027359485626,-0.05612505227327347,0.6918293833732605,0.6312121152877808,-0.021929973736405373,0.5016434788703918,0.7083510756492615,-0.20241375267505646,0.7013536095619202,0.6264011263847351,-0.2068987339735031,0.5858829021453857,0.47018295526504517,-0.07541515678167343,0.3517495095729828,0.2736682891845703,0.09016364067792892,0.6823051571846008,0.6360231041908264,0.26924464106559753,0.6805528998374939,0.5299664735794067,0.34546470642089844,0.48537978529930115,0.31930458545684814,0.0,0.0,0.0,0.0,0.0,0.3370000123977661,0.10107491165399551,0.18464583158493042,0.33717241883277893,0.2297593504190445,0.4197293519973755,0.3373892903327942,0.3135482966899872,0.5727968215942383,0.3375402092933655,0.3807715177536011,0.6956016421318054,0.3376612663269043,1.069952384185791,1.5699771869659425,9.959034604253247e-06,9.894783580675722e-05,-5.565815560985356e-05,2.4736958951689305e-05
1636998015.499686,8.0,0.0,0.1481865644454956,0.4209662973880768,0.24372230470180511,0.14353391528129578,0.47464802861213684,0.7075936198234558,0.18888726830482483,0.2099076360464096,0.8173147439956665,-0.017987526953220367,0.44857755303382874,0.6954535841941833,0.011715110391378403,0.32773610949516296,0.44150224328041077,0.027602162212133408,0.17218615114688873,0.3337870240211487,0.3050553798675537,0.5007184743881226,0.7197336554527283,0.491968035697937,0.49984678626060486,0.609670102596283,0.5415883660316467,0.3747553527355194,0.47292160987854004,-0.02544403448700905,0.6774221062660217,0.09574027359485626,-0.05431279167532921,0.6909783482551575,0.5995829105377197,-0.04948009178042412,0.4513918459415436,0.700072705745697,-0.20552612841129303,0.700823187828064,0.5946099758148193,-0.21151717007160187,0.5465776324272156,0.3859339654445648,-0.1353432983160019,0.4109344780445099,0.27208489179611206,0.09690053761005402,0.6811335682868958,0.6045559048652649,0.2701997458934784,0.6845304369926453,0.5395441055297852,0.4377802908420563,0.6826431155204773,0.4015854597091675,-0.02544403448700905,0.6774221062660217,0.09574027359485626,-0.05612505227327347,0.6918293833732605,0.6312121152877808,-0.021929973736405373,0.5016434788703918,0.7083510756492615,-0.20241375267505646,0.7013536095619202,0.6264011263847351,-0.2068987339735031,0.5858829021453857,0.47018295526504517,-0.07541515678167343,0.3517495095729828,0.2736682891845703,0.09016364067792892,0.6823051571846008,0.6360231041908264,0.26924464106559753,0.6805528998374939,0.5299664735794067,0.34546470642089844,0.48537978529930115,0.31930458545684814,0.0,0.0,0.0,0.0,0.0,0.3370000123977661,0.10107491165399551,0.18464583158493042,0.33717241883277893,0.2297593504190445,0.4197293519973755,0.3373892903327942,0.3135482966899872,0.5727968215942383,0.3375402092933655,0.3807715177536011,0.6956016421318054,0.3376612663269043,1.069952384185791,1.5699771869659425,9.959034604253247e-06,9.894783580675722e-05,-5.565815560985356e-05,2.4736958951689305e-05
1636998015.5224533,8.0,0.0,0.1481865644454956,0.4209662973880768,0.24372230470180511,0.14353391528129578,0.47464802861213684,0.7075936198234558,0.18888726830482483,0.2099076360464096,0.8173147439956665,-0.017987526953220367,0.44857755303382874,0.6954535841941833,0.011715110391378403,0.32773610949516296,0.44150224328041077,0.027602162212133408,0.17218615114688873,0.3337870240211487,0.3050553798675537,0.5007184743881226,0.7197336554527283,0.491968035697937,0.49984678626060486,0.609670102596283,0.5415883660316467,0.3747553527355194,0.47292160987854004,-0.03356204554438591,0.7279444932937622,0.07883518189191818,-0.0624341182410717,0.7362606525421143,0.585541844367981,-0.055527251213788986,0.49600937962532043,0.686177134513855,-0.21399594843387604,0.7451016306877136,0.5805229544639587,-0.22280098497867584,0.5887967348098755,0.37096598744392395,-0.1460200697183609,0.45474526286125183,0.25550535321235657,0.08912770450115204,0.7274196743965149,0.5905607342720032,0.26042914390563965,0.7245571613311768,0.5283075571060181,0.4275418519973755,0.7116037607192993,0.3945655822753906,-0.03356204554438591,0.7279444932937622,0.07883518189191818,-0.0640806183218956,0.7367348670959473,0.6144379377365112,-0.03155747056007385,0.546887993812561,0.6931195855140686,-0.2104290872812271,0.7452717423439026,0.6095917224884033,-0.21696992218494415,0.6291604042053223,0.45392194390296936,-0.08449753373861313,0.39787745475769043,0.25471433997154236,0.08226785063743591,0.7281979918479919,0.6192841529846191,0.2616187334060669,0.7273615598678589,0.5136733651161194,0.3384624123573303,0.53364098072052,0.3019002676010132,0.0,0.0,0.0,0.0,0.0,0.3370000123977661,0.10107582807540894,0.18464532494544983,0.33717241883277893,0.22976145148277283,0.41972821950912476,0.3373892903327942,0.3135511577129364,0.5727952122688293,0.3375402092933655,0.38077497482299805,0.6955997347831726,0.3376612663269043,1.0699473917007447,1.5699771869659425,9.959034604253247e-06,9.894783580675722e-05,-5.565815560985356e-05,2.4736958951689305e-05
1636998015.532687,8.0,0.0,0.11781303584575653,0.4560171067714691,0.22716642916202545,0.11425144225358963,0.5071265697479248,0.6904677748680115,0.16065245866775513,0.2417505979537964,0.7956855297088623,-0.04645983874797821,0.48040902614593506,0.6790209412574768,-0.018350908532738686,0.35759714245796204,0.42498183250427246,-0.0020722635090351105,0.2036895453929901,0.3134861886501312,0.27496272325515747,0.5338441133499146,0.7019146680831909,0.4614241421222687,0.531798243522644,0.5932667851448059,0.5096961855888367,0.4049766957759857,0.4560073912143707,-0.03356204554438591,0.7279444932937622,0.07883518189191818,-0.0624341182410717,0.7362606525421143,0.585541844367981,-0.055527251213788986,0.49600937962532043,0.686177134513855,-0.21399594843387604,0.7451016306877136,0.5805229544639587,-0.22280098497867584,0.5887967348098755,0.37096598744392395,-0.1460200697183609,0.45474526286125183,0.25550535321235657,0.08912770450115204,0.7274196743965149,0.5905607342720032,0.26042914390563965,0.7245571613311768,0.5283075571060181,0.4275418519973755,0.7116037607192993,0.3945655822753906,-0.03356204554438591,0.7279444932937622,0.07883518189191818,-0.0640806183218956,0.7367348670959473,0.6144379377365112,-0.03155747056007385,0.546887993812561,0.6931195855140686,-0.2104290872812271,0.7452717423439026,0.6095917224884033,-0.21696992218494415,0.6291604042053223,0.45392194390296936,-0.08449753373861313,0.39787745475769043,0.25471433997154236,0.08226785063743591,0.7281979918479919,0.6192841529846191,0.2616187334060669,0.7273615598678589,0.5136733651161194,0.3384624123573303,0.53364098072052,0.3019002676010132,0.0,0.0,0.0,0.0,0.0,0.3370000123977661,0.10107582807540894,0.18464532494544983,0.33717241883277893,0.22976145148277283,0.41972821950912476,0.3373892903327942,0.3135511577129364,0.5727952122688293,0.3375402092933655,0.38077497482299805,0.6955997347831726,0.3376612663269043,1.0699473917007447,1.5699771869659425,9.959034604253247e-06,9.894783580675722e-05,-5.565815560985356e-05,2.4736958951689305e-05
1636998015.5554245,8.0,0.0,0.11781303584575653,0.4560171067714691,0.22716642916202545,0.11425144225358963,0.5071265697479248,0.6904677748680115,0.16065245866775513,0.2417505979537964,0.7956855297088623,-0.04645983874797821,0.48040902614593506,0.6790209412574768,-0.018350908532738686,0.35759714245796204,0.42498183250427246,-0.0020722635090351105,0.2036895453929901,0.3134861886501312,0.27496272325515747,0.5338441133499146,0.7019146680831909,0.4614241421222687,0.531798243522644,0.5932667851448059,0.5096961855888367,0.4049766957759857,0.4560073912143707,-0.028759311884641647,0.67179274559021,0.1195647343993187,-0.056709978729486465,0.682655394077301,0.6245415210723877,-0.04840923473238945,0.4419030547142029,0.7268871068954468,-0.2093314677476883,0.6915173530578613,0.6199049353599548,-0.21717102825641632,0.5319480895996094,0.4133678674697876,-0.13924874365329742,0.39352846145629883,0.3014548718929291,0.09591150283813477,0.6737934947013855,0.6291780471801758,0.2710877060890198,0.6711976528167725,0.5662750601768494,0.44067880511283875,0.6587026119232178,0.4279124438762665,-0.028759311884641647,0.67179274559021,0.1195647343993187,-0.058404989540576935,0.6833141446113586,0.6551647186279297,-0.025024324655532837,0.4924040138721466,0.7308578491210938,-0.2047683745622635,0.6918126940727234,0.6507182717323303,-0.2106023132801056,0.5730666518211365,0.4970203936100006,-0.07716166973114014,0.33602532744407654,0.3053712248802185,0.08795840293169022,0.6748155951499939,0.659611165523529,0.2677856981754303,0.6728425621986389,0.5548288822174072,0.34209465980529785,0.4776160418987274,0.3435346186161041,0.0,0.0,0.0,0.0,0.0,0.3370000123977661,0.10107582807540894,0.18464532494544983,0.33717241883277893,0.22976145148277283,0.41972821950912476,0.3373892903327942,0.3135511577129364,0.5727952122688293,0.3375402092933655,0.38077497482299805,0.6955997347831726,0.3376612663269043,1.0699473917007447,1.5699771869659425,9.959034604253247e-06,9.894783580675722e-05,-5.565815560985356e-05,2.4736958951689305e-05
1636998015.5656846,8.0,0.0,0.14719492197036743,0.42202118039131165,0.24320757389068604,0.15554237365722656,0.4662930965423584,0.7086171507835388,0.2049156278371811,0.20299620926380157,0.8178642988204956,-0.00511115463450551,0.4357101321220398,0.6979592442512512,0.027372440323233604,0.30665478110313416,0.4439866542816162,0.0387730598449707,0.14954312145709991,0.3367744982242584,0.31619590520858765,0.496876060962677,0.7192751169204712,0.5037432312965393,0.49195998907089233,0.612542986869812,0.5557977557182312,0.3640750050544739,0.4809419512748718,-0.028759311884641647,0.67179274559021,0.1195647343993187,-0.056709978729486465,0.682655394077301,0.6245415210723877,-0.04840923473238945,0.4419030547142029,0.7268871068954468,-0.2093314677476883,0.6915173530578613,0.6199049353599548,-0.21717102825641632,0.5319480895996094,0.4133678674697876,-0.13924874365329742,0.39352846145629883,0.3014548718929291,0.09591150283813477,0.6737934947013855,0.6291780471801758,0.2710877060890198,0.6711976528167725,0.5662750601768494,0.44067880511283875,0.6587026119232178,0.4279124438762665,-0.028759311884641647,0.67179274559021,0.1195647343993187,-0.058404989540576935,0.6833141446113586,0.6551647186279297,-0.025024324655532837,0.4924040138721466,0.7308578491210938,-0.2047683745622635,0.6918126940727234,0.6507182717323303,-0.2106023132801056,0.5730666518211365,0.4970203936100006,-0.07716166973114014,0.33602532744407654,0.3053712248802185,0.08795840293169022,0.6748155951499939,0.659611165523529,0.2677856981754303,0.6728425621986389,0.5548288822174072,0.34209465980529785,0.4776160418987274,0.3435346186161041,0.0,0.0,0.0,0.0,0.0,0.3370000123977661,0.10107582807540894,0.18464532494544983,0.33717241883277893,0.22976145148277283,0.41972821950912476,0.3373892903327942,0.3135511577129364,0.5727952122688293,0.3375402092933655,0.38077497482299805,0.6955997347831726,0.3376612663269043,1.0699473917007447,1.5699771869659425,9.959034604253247e-06,9.894783580675722e-05,-5.565815560985356e-05,2.4736958951689305e-05
1636998015.5884323,8.0,0.0,0.14719492197036743,0.42202118039131165,0.24320757389068604,0.15554237365722656,0.4662930965423584,0.7086171507835388,0.2049156278371811,0.20299620926380157,0.8178642988204956,-0.00511115463450551,0.4357101321220398,0.6979592442512512,0.027372440323233604,0.30665478110313416,0.4439866542816162,0.0387730598449707,0.14954312145709991,0.3367744982242584,0.31619590520858765,0.496876060962677,0.7192751169204712,0.5037432312965393,0.49195998907089233,0.612542986869812,0.5557977557182312,0.3640750050544739,0.4809419512748718,-0.018484067171812057,0.6454271078109741,0.1385628879070282,-0.050184521824121475,0.6568766236305237,0.6438169479370117,-0.0416271798312664,0.41832655668258667,0.7462482452392578,-0.20230598747730255,0.6667377352714539,0.6392146348953247,-0.2098093181848526,0.5146422386169434,0.42933905124664307,-0.1304033249616623,0.3821920156478882,0.31525856256484985,0.101936936378479,0.6470155119895935,0.6484192609786987,0.27633747458457947,0.647639811038971,0.5846937298774719,0.448045015335083,0.6390334963798523,0.44801056385040283,-0.018484067171812057,0.6454271078109741,0.1385628879070282,-0.052073024213314056,0.6575586795806885,0.6739165782928467,-0.016564689576625824,0.4682004451751709,0.7524850964546204,-0.19837647676467896,0.6670426726341248,0.6694903373718262,-0.20399926602840424,0.5530663728713989,0.5122151374816895,-0.06637939065694809,0.32351458072662354,0.3145003020763397,0.09423042833805084,0.648074746131897,0.678342878818512,0.27507880330085754,0.6433342695236206,0.5754230618476868,0.35616394877433777,0.4441283643245697,0.3704287111759186,0.0,0.0,0.0,0.0,0.0,0.3370000123977661,0.10107582807540894,0.18464532494544983,0.33717241883277893,0.22976145148277283,0.41972821950912476,0.3373892903327942,0.3135511577129364,0.5727952122688293,0.3375402092933655,0.38077497482299805,0.6955997347831726,0.3376612663269043,1.0699473917007447,1.5699771869659425,9.959034604253247e-06,9.894783580675722e-05,-5.565815560985356e-05,2.4736958951689305e-05
1636998015.5986934,8.0,0.0,0.1580859124660492,0.40923482179641724,0.2537619471549988,0.16176962852478027,0.45537853240966797,0.7170923948287964,0.20960627496242523,0.19047150015830994,0.8234099745750427,0.0031758775003254414,0.42582109570503235,0.7064152956008911,0.03299073129892349,0.2940409779548645,0.45525169372558594,0.04330514371395111,0.12919043004512787,0.344888836145401,0.3203633725643158,0.4849359393119812,0.7277694940567017,0.5011001229286194,0.4804953336715698,0.6200900077819824,0.5515444278717041,0.35563385486602783,0.48574182391166687,-0.018484067171812057,0.6454271078109741,0.1385628879070282,-0.050184521824121475,0.6568766236305237,0.6438169479370117,-0.0416271798312664,0.41832655668258667,0.7462482452392578,-0.20230598747730255,0.6667377352714539,0.6392146348953247,-0.2098093181848526,0.5146422386169434,0.42933905124664307,-0.1304033249616623,0.3821920156478882,0.31525856256484985,0.101936936378479,0.6470155119895935,0.6484192609786987,0.27633747458457947,0.647639811038971,0.5846937298774719,0.448045015335083,0.6390334963798523,0.44801056385040283,-0.018484067171812057,0.6454271078109741,0.1385628879070282,-0.052073024213314056,0.6575586795806885,0.6739165782928467,-0.016564689576625824,0.4682004451751709,0.7524850964546204,-0.19837647676467896,0.6670426726341248,0.6694903373718262,-0.20399926602840424,0.5530663728713989,0.5122151374816895,-0.06637939065694809,0.32351458072662354,0.3145003020763397,0.09423042833805084,0.648074746131897,0.678342878818512,0.27507880330085754,0.6433342695236206,0.5754230618476868,0.35616394877433777,0.4441283643245697,0.3704287111759186,0.0,0.0,0.0,0.0,0.0,0.3370000123977661,0.10107582807540894,0.18464532494544983,0.33717241883277893,0.22976145148277283,0.41972821950912476,0.3373892903327942,0.3135511577129364,0.5727952122688293,0.3375402092933655,0.38077497482299805,0.6955997347831726,0.3376612663269043,1.0699473917007447,1.5699771869659425,9.959034604253247e-06,9.894783580675722e-05,-5.565815560985356e-05,2.4736958951689305e-05
1636998015.622882,8.0,0.0,0.1580859124660492,0.40923482179641724,0.2537619471549988,0.16176962852478027,0.45537853240966797,0.7170923948287964,0.20960627496242523,0.19047150015830994,0.8234099745750427,0.0031758775003254414,0.42582109570503235,0.7064152956008911,0.03299073129892349,0.2940409779548645,0.45525169372558594,0.04330514371395111,0.12919043004512787,0.344888836145401,0.3203633725643158,0.4849359393119812,0.7277694940567017,0.5011001229286194,0.4804953336715698,0.6200900077819824,0.5515444278717041,0.35563385486602783,0.48574182391166687,-0.01344443578273058,0.6201215386390686,0.16340482234954834,-0.04290847107768059,0.6319906711578369,0.6653426885604858,-0.033247124403715134,0.39106136560440063,0.7660901546478271,-0.19428767263889313,0.642654299736023,0.6614351868629456,-0.20199944078922272,0.49143388867378235,0.4521067440509796,-0.12138567864894867,0.3599490821361542,0.3384705185890198,0.10847072303295135,0.6213271021842957,0.6692501902580261,0.28508588671684265,0.6252315044403076,0.6032037734985352,0.45816531777381897,0.6220206618309021,0.4632427394390106,-0.01344443578273058,0.6201215386390686,0.16340482234954834,-0.04487696662545204,0.6327836513519287,0.6988771557807922,-0.010488024912774563,0.44234660267829895,0.7753069996833801,-0.1911432296037674,0.6430870890617371,0.6951016783714294,-0.1969434767961502,0.5293499827384949,0.5376598238945007,-0.05692102387547493,0.3009668290615082,0.34027883410453796,0.10138930380344391,0.6224802136421204,0.7026526927947998,0.2801576256752014,0.6180880069732666,0.5961459875106812,0.35894981026649475,0.42305871844291687,0.3862987756729126,0.0,0.0,0.0,0.0,0.0,0.3370000123977661,0.10107582807540894,0.18464532494544983,0.33717241883277893,0.22976145148277283,0.41972821950912476,0.3373892903327942,0.3135511577129364,0.5727952122688293,0.3375402092933655,0.38077497482299805,0.6955997347831726,0.3376612663269043,1.0699473917007447,1.5699771869659425,9.959034604253247e-06,9.894783580675722e-05,-5.565815560985356e-05,2.4736958951689305e-05
1636998015.6316907,8.0,0.0,0.15947748720645905,0.4077897369861603,0.2497943490743637,0.1661709100008011,0.4532875120639801,0.7148247361183167,0.2142208367586136,0.18806570768356323,0.8217519521713257,0.007941740565001965,0.4196213483810425,0.7052467465400696,0.037403736263513565,0.27962568402290344,0.45424968004226685,0.04770180210471153,0.10626262426376343,0.34507355093955994,0.32440006732940674,0.4869536757469177,0.724402666091919,0.5056719779968262,0.47959500551223755,0.6154950261116028,0.5566892623901367,0.3530096709728241,0.48412442207336426,-0.01344443578273058,0.6201215386390686,0.16340482234954834,-0.04290847107768059,0.6319906711578369,0.6653426885604858,-0.033247124403715134,0.39106136560440063,0.7660901546478271,-0.19428767263889313,0.642654299736023,0.6614351868629456,-0.20199944078922272,0.49143388867378235,0.4521067440509796,-0.12138567864894867,0.3599490821361542,0.3384705185890198,0.10847072303295135,0.6213271021842957,0.6692501902580261,0.28508588671684265,0.6252315044403076,0.6032037734985352,0.45816531777381897,0.6220206618309021,0.4632427394390106,-0.01344443578273058,0.6201215386390686,0.16340482234954834,-0.04487696662545204,0.6327836513519287,0.6988771557807922,-0.010488024912774563,0.44234660267829895,0.7753069996833801,-0.1911432296037674,0.6430870890617371,0.6951016783714294,-0.1969434767961502,0.5293499827384949,0.5376598238945007,-0.05692102387547493,0.3009668290615082,0.34027883410453796,0.10138930380344391,0.6224802136421204,0.7026526927947998,0.2801576256752014,0.6180880069732666,0.5961459875106812,0.35894981026649475,0.42305871844291687,0.3862987756729126,0.0,0.0,0.0,0.0,0.0,0.3370000123977661,0.10107582807540894,0.18464532494544983,0.33717241883277893,0.22976145148277283,0.41972821950912476,0.3373892903327942,0.3135511577129364,0.5727952122688293,0.3375402092933655,0.38077497482299805,0.6955997347831726,0.3376612663269043,1.0699473917007447,1.5699771869659425,9.959034604253247e-06,9.894783580675722e-05,-5.565815560985356e-05,2.4736958951689305e-05
1636998015.6544619,8.0,0.0,0.15947748720645905,0.4077897369861603,0.2497943490743637,0.1661709100008011,0.4532875120639801,0.7148247361183167,0.2142208367586136,0.18806570768356323,0.8217519521713257,0.007941740565001965,0.4196213483810425,0.7052467465400696,0.037403736263513565,0.27962568402290344,0.45424968004226685,0.04770180210471153,0.10626262426376343,0.34507355093955994,0.32440006732940674,0.4869536757469177,0.724402666091919,0.5056719779968262,0.47959500551223755,0.6154950261116028,0.5566892623901367,0.3530096709728241,0.48412442207336426,-0.008151602931320667,0.591587245464325,0.18393607437610626,-0.03630821779370308,0.6166476607322693,0.6838989853858948,-0.023482155054807663,0.37689197063446045,0.7892403602600098,-0.18809644877910614,0.6276463270187378,0.6788536906242371,-0.19607628881931305,0.47158366441726685,0.47353190183639526,-0.110255166888237,0.3352874219417572,0.3643094003200531,0.11548000574111938,0.6056490540504456,0.6889442801475525,0.2921942472457886,0.6054619550704956,0.6248314380645752,0.4667906165122986,0.5972597002983093,0.48668909072875977,-0.008151602931320667,0.591587245464325,0.18393607437610626,-0.03828283026814461,0.6184051632881165,0.7189611792564392,-0.0038058136124163866,0.42810192704200745,0.7956841588020325,-0.18449626863002777,0.6289998292922974,0.7141011953353882,-0.1905057579278946,0.5114716291427612,0.5594767928123474,-0.0437619723379612,0.2784214913845062,0.3727194666862488,0.10793060809373856,0.6078104972839355,0.723821222782135,0.286236047744751,0.6005722284317017,0.616695761680603,0.3662552535533905,0.4020266532897949,0.41064465045928955,0.0,0.0,0.0,0.0,0.0,0.3370000123977661,0.10107582807540894,0.18464532494544983,0.33717241883277893,0.22976145148277283,0.41972821950912476,0.3373892903327942,0.3135511577129364,0.5727952122688293,0.3375402092933655,0.38077497482299805,0.6955997347831726,0.3376612663269043,1.0699473917007447,1.5699771869659425,9.959034604253247e-06,9.894783580675722e-05,-5.565815560985356e-05,2.4736958951689305e-05
1636998015.6647751,8.0,0.0,0.15597651898860931,0.40507999062538147,0.2495739609003067,0.15906281769275665,0.4567832350730896,0.7193242311477661,0.2035457193851471,0.19480931758880615,0.822156548500061,0.0002292947465321049,0.42619970440864563,0.7100904583930969,0.03421810269355774,0.28428611159324646,0.46125659346580505,0.04419795423746109,0.10946960002183914,0.35635268688201904,0.3178963363170624,0.4873667359352112,0.7285580039024353,0.5017359852790833,0.4828207790851593,0.6212723255157471,0.5523428320884705,0.3601483702659607,0.48694145679473877,-0.008151602931320667,0.591587245464325,0.18393607437610626,-0.03630821779370308,0.6166476607322693,0.6838989853858948,-0.023482155054807663,0.37689197063446045,0.7892403602600098,-0.18809644877910614,0.6276463270187378,0.6788536906242371,-0.19607628881931305,0.47158366441726685,0.47353190183639526,-0.110255166888237,0.3352874219417572,0.3643094003200531,0.11548000574111938,0.6056490540504456,0.6889442801475525,0.2921942472457886,0.6054619550704956,0.6248314380645752,0.4667906165122986,0.5972597002983093,0.48668909072875977,-0.008151602931320667,0.591587245464325,0.18393607437610626,-0.03828283026814461,0.6184051632881165,0.7189611792564392,-0.0038058136124163866,0.42810192704200745,0.7956841588020325,-0.18449626863002777,0.6289998292922974,0.7141011953353882,-0.1905057579278946,0.5114716291427612,0.5594767928123474,-0.0437619723379612,0.2784214913845062,0.3727194666862488,0.10793060809373856,0.6078104972839355,0.723821222782135,0.286236047744751,0.6005722284317017,0.616695761680603,0.3662552535533905,0.4020266532897949,0.41064465045928955,0.0,0.0,0.0,0.0,0.0,0.3370000123977661,0.10107582807540894,0.18464532494544983,0.33717241883277893,0.22976145148277283,0.41972821950912476,0.3373892903327942,0.3135511577129364,0.5727952122688293,0.3375402092933655,0.38077497482299805,0.6955997347831726,0.3376612663269043,1.0699473917007447,1.5699771869659425,9.959034604253247e-06,9.894783580675722e-05,-5.565815560985356e-05,2.4736958951689305e-05
1636998015.687448,8.0,0.0,0.15597651898860931,0.40507999062538147,0.2495739609003067,0.15906281769275665,0.4567832350730896,0.7193242311477661,0.2035457193851471,0.19480931758880615,0.822156548500061,0.0002292947465321049,0.42619970440864563,0.7100904583930969,0.03421810269355774,0.28428611159324646,0.46125659346580505,0.04419795423746109,0.10946960002183914,0.35635268688201904,0.3178963363170624,0.4873667359352112,0.7285580039024353,0.5017359852790833,0.4828207790851593,0.6212723255157471,0.5523428320884705,0.3601483702659607,0.48694145679473877,-0.010983509011566639,0.5802924633026123,0.19821462035179138,-0.03980034217238426,0.6064960956573486,0.6996655464172363,-0.03132156655192375,0.3674929738044739,0.8042574524879456,-0.19230009615421295,0.6178156733512878,0.6960852146148682,-0.20198620855808258,0.4656400978565216,0.4889763593673706,-0.11179657280445099,0.33131667971611023,0.3771201968193054,0.11269940435886383,0.5951765179634094,0.7032459378242493,0.28936508297920227,0.5969070792198181,0.6399882435798645,0.4630642831325531,0.5888702273368835,0.5034151673316956,-0.010983509011566639,0.5802924633026123,0.19821462035179138,-0.04172441363334656,0.6082456707954407,0.7331469655036926,-0.009241505526006222,0.4169435501098633,0.8082385659217834,-0.18795925378799438,0.6191002726554871,0.7297136783599854,-0.19527742266654968,0.5041266083717346,0.5732361674308777,-0.04270152747631073,0.2768886089324951,0.38400647044181824,0.10451042652130127,0.5973911285400391,0.7365801930427551,0.2842344045639038,0.5929469466209412,0.631696343421936,0.3638659119606018,0.39991775155067444,0.4203221797943115,0.0,0.0,0.0,0.0,0.0,0.3370000123977661,0.10107582807540894,0.18464532494544983,0.33717241883277893,0.22976145148277283,0.41972821950912476,0.3373892903327942,0.3135511577129364,0.5727952122688293,0.3375402092933655,0.38077497482299805,0.6955997347831726,0.3376612663269043,1.0699473917007447,1.5699771869659425,9.959034604253247e-06,9.894783580675722e-05,-5.565815560985356e-05,2.4736958951689305e-05
1636998015.6976826,8.0,0.0,0.1589353084564209,0.4084663391113281,0.24942146241664886,0.15523318946361542,0.46816617250442505,0.714855432510376,0.20096181333065033,0.20836783945560455,0.8186057806015015,-0.00377136142924428,0.4366581439971924,0.7053873538970947,0.023513752967119217,0.2965541183948517,0.4575927257537842,0.02751530520617962,0.1230488270521164,0.3485710620880127,0.3142377436161041,0.4996742010116577,0.7243234515190125,0.49585387110710144,0.4979596734046936,0.6162168383598328,0.5438445210456848,0.37613874673843384,0.47853976488113403,-0.010983509011566639,0.5802924633026123,0.19821462035179138,-0.03980034217238426,0.6064960956573486,0.6996655464172363,-0.03132156655192375,0.3674929738044739,0.8042574524879456,-0.19230009615421295,0.6178156733512878,0.6960852146148682,-0.20198620855808258,0.4656400978565216,0.4889763593673706,-0.11179657280445099,0.33131667971611023,0.3771201968193054,0.11269940435886383,0.5951765179634094,0.7032459378242493,0.28936508297920227,0.5969070792198181,0.6399882435798645,0.4630642831325531,0.5888702273368835,0.5034151673316956,-0.010983509011566639,0.5802924633026123,0.19821462035179138,-0.04172441363334656,0.6082456707954407,0.7331469655036926,-0.009241505526006222,0.4169435501098633,0.8082385659217834,-0.18795925378799438,0.6191002726554871,0.7297136783599854,-0.19527742266654968,0.5041266083717346,0.5732361674308777,-0.04270152747631073,0.2768886089324951,0.38400647044181824,0.10451042652130127,0.5973911285400391,0.7365801930427551,0.2842344045639038,0.5929469466209412,0.631696343421936,0.3638659119606018,0.39991775155067444,0.4203221797943115,0.0,0.0,0.0,0.0,0.0,0.3370000123977661,0.10107582807540894,0.18464532494544983,0.33717241883277893,0.22976145148277283,0.41972821950912476,0.3373892903327942,0.3135511577129364,0.5727952122688293,0.3375402092933655,0.38077497482299805,0.6955997347831726,0.3376612663269043,1.0699473917007447,1.5699771869659425,9.959034604253247e-06,9.894783580675722e-05,-5.565815560985356e-05,2.4736958951689305e-05
1636998015.7207077,8.0,0.0,0.1589353084564209,0.4084663391113281,0.24942146241664886,0.15523318946361542,0.46816617250442505,0.714855432510376,0.20096181333065033,0.20836783945560455,0.8186057806015015,-0.00377136142924428,0.4366581439971924,0.7053873538970947,0.023513752967119217,0.2965541183948517,0.4575927257537842,0.02751530520617962,0.1230488270521164,0.3485710620880127,0.3142377436161041,0.4996742010116577,0.7243234515190125,0.49585387110710144,0.4979596734046936,0.6162168383598328,0.5438445210456848,0.37613874673843384,0.47853976488113403,-0.004006487317383289,0.5673073530197144,0.195323184132576,-0.03501437231898308,0.6001878380775452,0.6935997009277344,-0.025339554995298386,0.35828056931495667,0.7996423244476318,-0.18528835475444794,0.6101431250572205,0.6880796551704407,-0.1952442079782486,0.4500223994255066,0.48807284235954285,-0.10641555488109589,0.31210586428642273,0.38302820920944214,0.11525960266590118,0.5902324914932251,0.6991196870803833,0.29086604714393616,0.5907379388809204,0.6380637884140015,0.465974897146225,0.583130419254303,0.5019086003303528,-0.004006487317383289,0.5673073530197144,0.195323184132576,-0.037259235978126526,0.6025682687759399,0.7296731472015381,-0.003693999955430627,0.41187378764152527,0.8058269023895264,-0.18351754546165466,0.6122575402259827,0.7243006229400635,-0.19106262922286987,0.4909091889858246,0.5727244019508362,-0.0393252894282341,0.2553198039531708,0.39328691363334656,0.10899906605482101,0.5928789377212524,0.7350456714630127,0.2878431975841522,0.5911906361579895,0.6285890936851501,0.36289218068122864,0.4006839692592621,0.4132861793041229,0.0,0.0,0.0,0.0,0.0,0.3370000123977661,0.10107582807540894,0.18464532494544983,0.33717241883277893,0.22976145148277283,0.41972821950912476,0.3373892903327942,0.3135511577129364,0.5727952122688293,0.3375402092933655,0.38077497482299805,0.6955997347831726,0.3376612663269043,1.0699473917007447,1.5699771869659425,9.959034604253247e-06,9.894783580675722e-05,-5.565815560985356e-05,2.4736958951689305e-05
1636998015.7307043,8.0,0.0,0.1589353084564209,0.4084663391113281,0.24942146241664886,0.15523318946361542,0.46816617250442505,0.714855432510376,0.20096181333065033,0.20836783945560455,0.8186057806015015,-0.00377136142924428,0.4366581439971924,0.7053873538970947,0.023513752967119217,0.2965541183948517,0.4575927257537842,0.02751530520617962,0.1230488270521164,0.3485710620880127,0.3142377436161041,0.4996742010116577,0.7243234515190125,0.49585387110710144,0.4979596734046936,0.6162168383598328,0.5438445210456848,0.37613874673843384,0.47853976488113403,-0.004006487317383289,0.5673073530197144,0.195323184132576,-0.03501437231898308,0.6001878380775452,0.6935997009277344,-0.025339554995298386,0.35828056931495667,0.7996423244476318,-0.18528835475444794,0.6101431250572205,0.6880796551704407,-0.1952442079782486,0.4500223994255066,0.48807284235954285,-0.10641555488109589,0.31210586428642273,0.38302820920944214,0.11525960266590118,0.5902324914932251,0.6991196870803833,0.29086604714393616,0.5907379388809204,0.6380637884140015,0.465974897146225,0.583130419254303,0.5019086003303528,-0.004006487317383289,0.5673073530197144,0.195323184132576,-0.037259235978126526,0.6025682687759399,0.7296731472015381,-0.003693999955430627,0.41187378764152527,0.8058269023895264,-0.18351754546165466,0.6122575402259827,0.7243006229400635,-0.19106262922286987,0.4909091889858246,0.5727244019508362,-0.0393252894282341,0.2553198039531708,0.39328691363334656,0.10899906605482101,0.5928789377212524,0.7350456714630127,0.2878431975841522,0.5911906361579895,0.6285890936851501,0.36289218068122864,0.4006839692592621,0.4132861793041229,0.0,0.0,0.0,0.0,0.0,0.3370000123977661,0.10107582807540894,0.18464532494544983,0.33717241883277893,0.22976145148277283,0.41972821950912476,0.3373892903327942,0.3135511577129364,0.5727952122688293,0.3375402092933655,0.38077497482299805,0.6955997347831726,0.3376612663269043,1.0699473917007447,1.5699771869659425,9.959034604253247e-06,9.894783580675722e-05,-6.184239737922326e-05,2.4736958951689305e-05
1636998015.753424,8.0,0.0,0.14423376321792603,0.4187193214893341,0.24316203594207764,0.13744063675403595,0.4794403612613678,0.7078681588172913,0.18758274614810944,0.2151060402393341,0.8112198114395142,-0.020409977063536644,0.4467671811580658,0.696929395198822,0.008229335770010948,0.3108803331851959,0.44524043798446655,0.012785304337739944,0.13826461136341095,0.33179399371147156,0.2952912449836731,0.5121135115623474,0.7188069224357605,0.47350093722343445,0.5066061019897461,0.6078813076019287,0.5215604305267334,0.3829885721206665,0.47057101130485535,-0.005069267936050892,0.5728303790092468,0.1911693960428238,-0.03503679111599922,0.6010923981666565,0.693560779094696,-0.022655677050352097,0.35962074995040894,0.8015209436416626,-0.1871124655008316,0.6118420958518982,0.6888799667358398,-0.1994028240442276,0.454418420791626,0.48640820384025574,-0.10999681055545807,0.3155096173286438,0.3762354552745819,0.11703887581825256,0.5903427600860596,0.6982415914535522,0.2913627624511719,0.5963246822357178,0.6367490887641907,0.4654576778411865,0.5927065014839172,0.49972298741340637,-0.005069267936050892,0.5728303790092468,0.1911693960428238,-0.036966919898986816,0.6029126644134521,0.7259184718132019,-0.0007692622602917254,0.41208940744400024,0.8005281686782837,-0.18321025371551514,0.6132500767707825,0.7214171886444092,-0.19251132011413574,0.49411559104919434,0.5681913495063782,-0.042684055864810944,0.261331170797348,0.38356298208236694,0.1092764213681221,0.5925753116607666,0.7304197549819946,0.285918265581131,0.5871163606643677,0.6204700469970703,0.3607165813446045,0.39472177624702454,0.40676459670066833,0.0,0.0,0.0,0.0,0.0,0.3370000123977661,0.10107582807540894,0.18464532494544983,0.3371734917163849,0.22976145148277283,0.41972821950912476,0.3373917043209076,0.3135511577129364,0.5727952122688293,0.33754459023475647,0.38077497482299805,0.6955997347831726,0.33766722679138184,1.0699473917007447,1.5699721279144288,9.959034604253247e-06,9.894783580675722e-05,-6.184239737922326e-05,2.4736958951689305e-05
1636998015.7636833,8.0,0.0,0.14423376321792603,0.4187193214893341,0.24316203594207764,0.13744063675403595,0.4794403612613678,0.7078681588172913,0.18758274614810944,0.2151060402393341,0.8112198114395142,-0.020409977063536644,0.4467671811580658,0.696929395198822,0.008229335770010948,0.3108803331851959,0.44524043798446655,0.012785304337739944,0.13826461136341095,0.33179399371147156,0.2952912449836731,0.5121135115623474,0.7188069224357605,0.47350093722343445,0.5066061019897461,0.6078813076019287,0.5215604305267334,0.3829885721206665,0.47057101130485535,-0.005069267936050892,0.5728303790092468,0.1911693960428238,-0.03503679111599922,0.6010923981666565,0.693560779094696,-0.022655677050352097,0.35962074995040894,0.8015209436416626,-0.1871124655008316,0.6118420958518982,0.6888799667358398,-0.1994028240442276,0.454418420791626,0.48640820384025574,-0.10999681055545807,0.3155096173286438,0.3762354552745819,0.11703887581825256,0.5903427600860596,0.6982415914535522,0.2913627624511719,0.5963246822357178,0.6367490887641907,0.4654576778411865,0.5927065014839172,0.49972298741340637,-0.005069267936050892,0.5728303790092468,0.1911693960428238,-0.036966919898986816,0.6029126644134521,0.7259184718132019,-0.0007692622602917254,0.41208940744400024,0.8005281686782837,-0.18321025371551514,0.6132500767707825,0.7214171886444092,-0.19251132011413574,0.49411559104919434,0.5681913495063782,-0.042684055864810944,0.261331170797348,0.38356298208236694,0.1092764213681221,0.5925753116607666,0.7304197549819946,0.285918265581131,0.5871163606643677,0.6204700469970703,0.3607165813446045,0.39472177624702454,0.40676459670066833,0.0,0.0,0.0,0.0,0.0,0.3370000123977661,0.10107582807540894,0.18464532494544983,0.3371734917163849,0.22976145148277283,0.41972821950912476,0.3373917043209076,0.3135511577129364,0.5727952122688293,0.33754459023475647,0.38077497482299805,0.6955997347831726,0.33766722679138184,1.0699473917007447,1.5699721279144288,9.959034604253247e-06,9.894783580675722e-05,-6.184239737922326e-05,2.4736958951689305e-05
1636998015.7864485,8.0,0.0,0.14618167281150818,0.41634321212768555,0.2441958338022232,0.15007854998111725,0.466034859418869,0.7108685970306396,0.1979713886976242,0.20433303713798523,0.8136726021766663,-0.007043291348963976,0.4302932024002075,0.7027339339256287,0.026542099192738533,0.2840571701526642,0.4577060639858246,0.0354674868285656,0.10532739013433456,0.35089704394340515,0.3072003722190857,0.5017765164375305,0.7190032005310059,0.48825976252555847,0.5035837292671204,0.6110256910324097,0.5317034125328064,0.3796969950199127,0.4727325141429901,-0.008255106396973133,0.5601639747619629,0.1943150758743286,-0.035613950341939926,0.602595329284668,0.6928783059120178,-0.024959754198789597,0.36251649260520935,0.7987278699874878,-0.18690280616283417,0.6115830540657043,0.6900414228439331,-0.19376493990421295,0.4512956440448761,0.48466992378234863,-0.10857684910297394,0.31299206614494324,0.37634575366973877,0.11567489802837372,0.5936075448989868,0.6957151889801025,0.2918556332588196,0.595552384853363,0.6326653957366943,0.460970401763916,0.5897119045257568,0.5014391541481018,-0.008255106396973133,0.5601639747619629,0.1943150758743286,-0.03754832595586777,0.6055953502655029,0.7281286120414734,-0.0026112189516425133,0.4146878123283386,0.8031225800514221,-0.18394185602664948,0.614292323589325,0.7253835201263428,-0.1890583634376526,0.4947795271873474,0.5722553730010986,-0.0438707061111927,0.2590661644935608,0.3876364231109619,0.10884520411491394,0.5968984365463257,0.730873703956604,0.2876008152961731,0.598682701587677,0.6242700815200806,0.35529401898384094,0.40564435720443726,0.40878385305404663,0.0,0.0,0.0,0.0,0.0,0.3370000123977661,0.10107582807540894,0.18464532494544983,0.3371734917163849,0.22976145148277283,0.41972821950912476,0.3373917043209076,0.3135511577129364,0.5727952122688293,0.33754459023475647,0.38077497482299805,0.6955997347831726,0.33766722679138184,1.0699473917007447,1.5699721279144288,9.959034604253247e-06,9.894783580675722e-05,-6.184239737922326e-05,2.4736958951689305e-05
1636998015.796688,8.0,0.0,0.15438705682754517,0.4068102538585663,0.25339558720588684,0.16466692090034485,0.44696560502052307,0.723943829536438,0.2124728113412857,0.1831224113702774,0.8279309272766113,0.00654122419655323,0.4154025912284851,0.7147225141525269,0.031398262828588486,0.27892598509788513,0.465425580739975,0.03610246255993843,0.11077065020799637,0.3504880666732788,0.3227926194667816,0.47852861881256104,0.7331650853157043,0.5049617290496826,0.47457629442214966,0.6251111030578613,0.5522816181182861,0.3493840992450714,0.49120408296585083,-0.008255106396973133,0.5601639747619629,0.1943150758743286,-0.035613950341939926,0.602595329284668,0.6928783059120178,-0.024959754198789597,0.36251649260520935,0.7987278699874878,-0.18690280616283417,0.6115830540657043,0.6900414228439331,-0.19376493990421295,0.4512956440448761,0.48466992378234863,-0.10857684910297394,0.31299206614494324,0.37634575366973877,0.11567489802837372,0.5936075448989868,0.6957151889801025,0.2918556332588196,0.595552384853363,0.6326653957366943,0.460970401763916,0.5897119045257568,0.5014391541481018,-0.008255106396973133,0.5601639747619629,0.1943150758743286,-0.03754832595586777,0.6055953502655029,0.7281286120414734,-0.0026112189516425133,0.4146878123283386,0.8031225800514221,-0.18394185602664948,0.614292323589325,0.7253835201263428,-0.1890583634376526,0.4947795271873474,0.5722553730010986,-0.0438707061111927,0.2590661644935608,0.3876364231109619,0.10884520411491394,0.5968984365463257,0.730873703956604,0.2876008152961731,0.598682701587677,0.6242700815200806,0.35529401898384094,0.40564435720443726,0.40878385305404663,0.0,0.0,0.0,0.0,0.0,0.3370000123977661,0.10107582807540894,0.18464532494544983,0.3371734917163849,0.22976145148277283,0.41972821950912476,0.3373917043209076,0.3135511577129364,0.5727952122688293,0.33754459023475647,0.38077497482299805,0.6955997347831726,0.33766722679138184,1.0699473917007447,1.5699721279144288,9.959034604253247e-06,9.894783580675722e-05,-6.184239737922326e-05,2.4736958951689305e-05
1636998015.8194828,8.0,0.0,0.15438705682754517,0.4068102538585663,0.25339558720588684,0.16466692090034485,0.44696560502052307,0.723943829536438,0.2124728113412857,0.1831224113702774,0.8279309272766113,0.00654122419655323,0.4154025912284851,0.7147225141525269,0.031398262828588486,0.27892598509788513,0.465425580739975,0.03610246255993843,0.11077065020799637,0.3504880666732788,0.3227926194667816,0.47852861881256104,0.7331650853157043,0.5049617290496826,0.47457629442214966,0.6251111030578613,0.5522816181182861,0.3493840992450714,0.49120408296585083,-0.008037765510380268,0.5567945241928101,0.19059371948242188,-0.036339785903692245,0.6021661758422852,0.6919810175895691,-0.024944107979536057,0.3642086684703827,0.7972183227539062,-0.1871902197599411,0.6114689707756042,0.6902644634246826,-0.1950444132089615,0.4500715732574463,0.4870539903640747,-0.1086467057466507,0.3113459348678589,0.37701109051704407,0.11451064050197601,0.5928633809089661,0.6936975121498108,0.2872101068496704,0.5994817614555359,0.6301748752593994,0.46081089973449707,0.5995540618896484,0.4961446523666382,-0.008037765510380268,0.5567945241928101,0.19059371948242188,-0.03815346583724022,0.6050736904144287,0.7241114377975464,-0.0035680464934557676,0.4141949713230133,0.7993414402008057,-0.18454323709011078,0.6141014099121094,0.7224456667900085,-0.19042161107063293,0.493305504322052,0.570355236530304,-0.04450564458966255,0.2590135633945465,0.3845052123069763,0.10823629796504974,0.5960460305213928,0.7257772088050842,0.2872198224067688,0.5921627879142761,0.6196126937866211,0.361482709646225,0.39568865299224854,0.40946170687675476,0.0,0.0,0.0,0.0,0.0,0.3370000123977661,0.10107582807540894,0.18464532494544983,0.3371734917163849,0.22976145148277283,0.41972821950912476,0.3373917043209076,0.3135511577129364,0.5727952122688293,0.33754459023475647,0.38077497482299805,0.6955997347831726,0.33766722679138184,1.0699473917007447,1.5699721279144288,9.959034604253247e-06,9.894783580675722e-05,-6.184239737922326e-05,2.4736958951689305e-05
1636998015.8296816,8.0,0.0,0.15716814994812012,0.41031143069267273,0.2532377541065216,0.16204659640789032,0.45148706436157227,0.7229521870613098,0.21077434718608856,0.18893717229366302,0.8283594846725464,0.004640230443328619,0.4189716577529907,0.7129572033882141,0.03356607258319855,0.2786777913570404,0.4653621017932892,0.03884223848581314,0.10727076977491379,0.3557104170322418,0.3194529712200165,0.4840024709701538,0.7329471707344055,0.5005114078521729,0.47865161299705505,0.6252951622009277,0.5482595562934875,0.3559131920337677,0.491488516330719,-0.008037765510380268,0.5567945241928101,0.19059371948242188,-0.036339785903692245,0.6021661758422852,0.6919810175895691,-0.024944107979536057,0.3642086684703827,0.7972183227539062,-0.1871902197599411,0.6114689707756042,0.6902644634246826,-0.1950444132089615,0.4500715732574463,0.4870539903640747,-0.1086467057466507,0.3113459348678589,0.37701109051704407,0.11451064050197601,0.5928633809089661,0.6936975121498108,0.2872101068496704,0.5994817614555359,0.6301748752593994,0.46081089973449707,0.5995540618896484,0.4961446523666382,-0.008037765510380268,0.5567945241928101,0.19059371948242188,-0.03815346583724022,0.6050736904144287,0.7241114377975464,-0.0035680464934557676,0.4141949713230133,0.7993414402008057,-0.18454323709011078,0.6141014099121094,0.7224456667900085,-0.19042161107063293,0.493305504322052,0.570355236530304,-0.04450564458966255,0.2590135633945465,0.3845052123069763,0.10823629796504974,0.5960460305213928,0.7257772088050842,0.2872198224067688,0.5921627879142761,0.6196126937866211,0.361482709646225,0.39568865299224854,0.40946170687675476,0.0,0.0,0.0,0.0,0.0,0.3370000123977661,0.10107582807540894,0.18464532494544983,0.3371734917163849,0.22976145148277283,0.41972821950912476,0.3373917043209076,0.3135511577129364,0.5727952122688293,0.33754459023475647,0.38077497482299805,0.6955997347831726,0.33766722679138184,1.0699473917007447,1.5699721279144288,9.959034604253247e-06,9.894783580675722e-05,-6.184239737922326e-05,2.4736958951689305e-05
1636998015.8524327,8.0,0.0,0.15716814994812012,0.41031143069267273,0.2532377541065216,0.16204659640789032,0.45148706436157227,0.7229521870613098,0.21077434718608856,0.18893717229366302,0.8283594846725464,0.004640230443328619,0.4189716577529907,0.7129572033882141,0.03356607258319855,0.2786777913570404,0.4653621017932892,0.03884223848581314,0.10727076977491379,0.3557104170322418,0.3194529712200165,0.4840024709701538,0.7329471707344055,0.5005114078521729,0.47865161299705505,0.6252951622009277,0.5482595562934875,0.3559131920337677,0.491488516330719,-0.008648653514683247,0.5623689889907837,0.19264043867588043,-0.03788726404309273,0.6043589115142822,0.6935999393463135,-0.02705470845103264,0.36588039994239807,0.8014869093894958,-0.1880553811788559,0.6116417646408081,0.6907715797424316,-0.19860024750232697,0.4481894075870514,0.488010048866272,-0.11057625710964203,0.30865800380706787,0.37825340032577515,0.11228084564208984,0.5970759987831116,0.6964282989501953,0.2835029065608978,0.6009385585784912,0.6362124681472778,0.45817986130714417,0.5979524850845337,0.5048946738243103,-0.008648653514683247,0.5623689889907837,0.19264043867588043,-0.03980205953121185,0.6071087718009949,0.7264070510864258,-0.004486809950321913,0.4168267250061035,0.8028005957603455,-0.1862812638282776,0.6142127513885498,0.723648190498352,-0.19414232671260834,0.49236124753952026,0.572492241859436,-0.04632449150085449,0.258047491312027,0.3881790041923523,0.10667715221643448,0.6000047922134399,0.7291659116744995,0.2855227291584015,0.5947192907333374,0.6228296160697937,0.3610870838165283,0.40047845244407654,0.41107267141342163,0.0,0.0,0.0,0.0,0.0,0.3370000123977661,0.10107491165399551,0.18464583158493042,0.3371734917163849,0.2297593504190445,0.4197293519973755,0.3373917043209076,0.3135482966899872,0.5727968215942383,0.33754459023475647,0.3807714879512787,0.6956016421318054,0.33766722679138184,1.069952384185791,1.5699721279144288,9.959034604253247e-06,9.894783580675722e-05,-6.184239737922326e-05,2.4736958951689305e-05
1636998015.8626766,8.0,0.0,0.15716814994812012,0.41031143069267273,0.2532377541065216,0.16204659640789032,0.45148706436157227,0.7229521870613098,0.21077434718608856,0.18893717229366302,0.8283594846725464,0.004640230443328619,0.4189716577529907,0.7129572033882141,0.03356607258319855,0.2786777913570404,0.4653621017932892,0.03884223848581314,0.10727076977491379,0.3557104170322418,0.3194529712200165,0.4840024709701538,0.7329471707344055,0.5005114078521729,0.47865161299705505,0.6252951622009277,0.5482595562934875,0.3559131920337677,0.491488516330719,-0.008648653514683247,0.5623689889907837,0.19264043867588043,-0.03788726404309273,0.6043589115142822,0.6935999393463135,-0.02705470845103264,0.36588039994239807,0.8014869093894958,-0.1880553811788559,0.6116417646408081,0.6907715797424316,-0.19860024750232697,0.4481894075870514,0.488010048866272,-0.11057625710964203,0.30865800380706787,0.37825340032577515,0.11228084564208984,0.5970759987831116,0.6964282989501953,0.2835029065608978,0.6009385585784912,0.6362124681472778,0.45817986130714417,0.5979524850845337,0.5048946738243103,-0.008648653514683247,0.5623689889907837,0.19264043867588043,-0.03980205953121185,0.6071087718009949,0.7264070510864258,-0.004486809950321913,0.4168267250061035,0.8028005957603455,-0.1862812638282776,0.6142127513885498,0.723648190498352,-0.19414232671260834,0.49236124753952026,0.572492241859436,-0.04632449150085449,0.258047491312027,0.3881790041923523,0.10667715221643448,0.6000047922134399,0.7291659116744995,0.2855227291584015,0.5947192907333374,0.6228296160697937,0.3610870838165283,0.40047845244407654,0.41107267141342163,0.0,0.0,0.0,0.0,0.0,0.3370000123977661,0.10107491165399551,0.18464583158493042,0.3371734917163849,0.2297593504190445,0.4197293519973755,0.3373917043209076,0.3135482966899872,0.5727968215942383,0.33754459023475647,0.3807714879512787,0.6956016421318054,0.33766722679138184,1.069952384185791,1.5699721279144288,9.959034604253247e-06,9.894783580675722e-05,-6.184239737922326e-05,2.4736958951689305e-05
1636998015.8854356,8.0,0.0,0.1320367157459259,0.4326920211315155,0.23653961718082428,0.13640372455120087,0.48192891478538513,0.7064214944839478,0.18245264887809753,0.21986651420593262,0.8095223307609558,-0.02269420027732849,0.45166900753974915,0.6982348561286926,0.003881766926497221,0.31553882360458374,0.453078031539917,0.009084979072213173,0.14838694036006927,0.3397633135318756,0.2955016493797302,0.5121888518333435,0.7146081328392029,0.4799690246582031,0.5108479261398315,0.6069092154502869,0.5265319347381592,0.3885471820831299,0.46994346380233765,-0.00732074398547411,0.5533331632614136,0.19312044978141785,-0.039348240941762924,0.6007198095321655,0.6950918436050415,-0.025138210505247116,0.3625301718711853,0.7997466325759888,-0.18956108391284943,0.606768786907196,0.6918050646781921,-0.19668738543987274,0.44338104128837585,0.4878866970539093,-0.11056305468082428,0.3061010539531708,0.37784430384635925,0.11086459457874298,0.594670832157135,0.6983786225318909,0.28103360533714294,0.6001331806182861,0.636076807975769,0.45817628502845764,0.5972904562950134,0.5047889351844788,-0.00732074398547411,0.5533331632614136,0.19312044978141785,-0.041333988308906555,0.6036578416824341,0.7262147068977356,-0.007757818792015314,0.412577360868454,0.8013898134231567,-0.187857523560524,0.6095582246780396,0.7230086922645569,-0.1931549310684204,0.4881020784378052,0.5714235901832581,-0.04685729369521141,0.2549073398113251,0.384496808052063,0.10518953949213028,0.5977574586868286,0.7294207811355591,0.2849310636520386,0.5964508652687073,0.6244809627532959,0.35796332359313965,0.4046264886856079,0.40965506434440613,0.0,0.0,0.0,0.0,0.0,0.3370000123977661,0.10107491165399551,0.18464583158493042,0.3371734917163849,0.2297593504190445,0.4197293519973755,0.3373917043209076,0.3135482966899872,0.5727968215942383,0.33754459023475647,0.3807714879512787,0.6956016421318054,0.33766722679138184,1.069952384185791,1.5699721279144288,9.959034604253247e-06,9.894783580675722e-05,-6.184239737922326e-05,2.4736958951689305e-05
1636998015.895679,8.0,0.0,0.1320367157459259,0.4326920211315155,0.23653961718082428,0.13640372455120087,0.48192891478538513,0.7064214944839478,0.18245264887809753,0.21986651420593262,0.8095223307609558,-0.02269420027732849,0.45166900753974915,0.6982348561286926,0.003881766926497221,0.31553882360458374,0.453078031539917,0.009084979072213173,0.14838694036006927,0.3397633135318756,0.2955016493797302,0.5121888518333435,0.7146081328392029,0.4799690246582031,0.5108479261398315,0.6069092154502869,0.5265319347381592,0.3885471820831299,0.46994346380233765,-0.00732074398547411,0.5533331632614136,0.19312044978141785,-0.039348240941762924,0.6007198095321655,0.6950918436050415,-0.025138210505247116,0.3625301718711853,0.7997466325759888,-0.18956108391284943,0.606768786907196,0.6918050646781921,-0.19668738543987274,0.44338104128837585,0.4878866970539093,-0.11056305468082428,0.3061010539531708,0.37784430384635925,0.11086459457874298,0.594670832157135,0.6983786225318909,0.28103360533714294,0.6001331806182861,0.636076807975769,0.45817628502845764,0.5972904562950134,0.5047889351844788,-0.00732074398547411,0.5533331632614136,0.19312044978141785,-0.041333988308906555,0.6036578416824341,0.7262147068977356,-0.007757818792015314,0.412577360868454,0.8013898134231567,-0.187857523560524,0.6095582246780396,0.7230086922645569,-0.1931549310684204,0.4881020784378052,0.5714235901832581,-0.04685729369521141,0.2549073398113251,0.384496808052063,0.10518953949213028,0.5977574586868286,0.7294207811355591,0.2849310636520386,0.5964508652687073,0.6244809627532959,0.35796332359313965,0.4046264886856079,0.40965506434440613,0.0,0.0,0.0,0.0,0.0,0.3370000123977661,0.10107491165399551,0.18464583158493042,0.3371734917163849,0.2297593504190445,0.4197293519973755,0.3373917043209076,0.3135482966899872,0.5727968215942383,0.33754459023475647,0.3807714879512787,0.6956016421318054,0.33766722679138184,1.069952384185791,1.5699721279144288,9.959034604253247e-06,9.894783580675722e-05,-6.184239737922326e-05,2.4736958951689305e-05
1636998015.9184287,8.0,0.0,0.14590787887573242,0.41679835319519043,0.24399952590465546,0.14576901495456696,0.4704315662384033,0.7127310037612915,0.195337176322937,0.2071635127067566,0.8163093328475952,-0.013090571388602257,0.43843013048171997,0.704171359539032,0.01171515416353941,0.3038640022277832,0.4573223888874054,0.01613522134721279,0.13793757557868958,0.3431956470012665,0.3046286106109619,0.5024329423904419,0.7212905883789062,0.4889710545539856,0.5017247200012207,0.6130420565605164,0.5335806012153625,0.3782432973384857,0.4756262004375458,-0.004317847080528736,0.5332719087600708,0.19560526311397552,-0.03235072270035744,0.5816237330436707,0.6970722079277039,-0.0180363766849041,0.3448817729949951,0.8028866052627563,-0.18176250159740448,0.5882433652877808,0.6953823566436768,-0.19045449793338776,0.4212222099304199,0.4932279884815216,-0.10496823489665985,0.2800582945346832,0.38498055934906006,0.11706104874610901,0.5750041604042053,0.698762059211731,0.28808075189590454,0.5794068574905396,0.635944664478302,0.4634256660938263,0.5777652859687805,0.5048680901527405,-0.004317847080528736,0.5332719087600708,0.19560526311397552,-0.034126993268728256,0.5846875309944153,0.728847086429596,0.0017803454538807273,0.39397522807121277,0.8038796186447144,-0.1806512176990509,0.5911791920661926,0.7271898984909058,-0.18708859384059906,0.46748191118240356,0.5774726867675781,-0.042960215359926224,0.2294820100069046,0.3949693739414215,0.11239723116159439,0.5781958103179932,0.7305042743682861,0.29187682271003723,0.5775062441825867,0.6251112818717957,0.36161673069000244,0.3844626843929291,0.4102834165096283,0.0,0.0,0.0,0.0,0.0,0.3370000123977661,0.10107491165399551,0.18464583158493042,0.3371734917163849,0.2297593504190445,0.4197293519973755,0.3373917043209076,0.3135482966899872,0.5727968215942383,0.33754459023475647,0.3807714879512787,0.6956016421318054,0.33766722679138184,1.069952384185791,1.5699721279144288,9.959034604253247e-06,9.894783580675722e-05,-6.184239737922326e-05,2.4736958951689305e-05
1636998015.9286969,8.0,0.0,0.14590787887573242,0.41679835319519043,0.24399952590465546,0.14576901495456696,0.4704315662384033,0.7127310037612915,0.195337176322937,0.2071635127067566,0.8163093328475952,-0.013090571388602257,0.43843013048171997,0.704171359539032,0.01171515416353941,0.3038640022277832,0.4573223888874054,0.01613522134721279,0.13793757557868958,0.3431956470012665,0.3046286106109619,0.5024329423904419,0.7212905883789062,0.4889710545539856,0.5017247200012207,0.6130420565605164,0.5335806012153625,0.3782432973384857,0.4756262004375458,-0.004317847080528736,0.5332719087600708,0.19560526311397552,-0.03235072270035744,0.5816237330436707,0.6970722079277039,-0.0180363766849041,0.3448817729949951,0.8028866052627563,-0.18176250159740448,0.5882433652877808,0.6953823566436768,-0.19045449793338776,0.4212222099304199,0.4932279884815216,-0.10496823489665985,0.2800582945346832,0.38498055934906006,0.11706104874610901,0.5750041604042053,0.698762059211731,0.28808075189590454,0.5794068574905396,0.635944664478302,0.4634256660938263,0.5777652859687805,0.5048680901527405,-0.004317847080528736,0.5332719087600708,0.19560526311397552,-0.034126993268728256,0.5846875309944153,0.728847086429596,0.0017803454538807273,0.39397522807121277,0.8038796186447144,-0.1806512176990509,0.5911791920661926,0.7271898984909058,-0.18708859384059906,0.46748191118240356,0.5774726867675781,-0.042960215359926224,0.2294820100069046,0.3949693739414215,0.11239723116159439,0.5781958103179932,0.7305042743682861,0.29187682271003723,0.5775062441825867,0.6251112818717957,0.36161673069000244,0.3844626843929291,0.4102834165096283,0.0,0.0,0.0,0.0,0.0,0.3370000123977661,0.10107491165399551,0.18464583158493042,0.3371734917163849,0.2297593504190445,0.4197293519973755,0.3373917043209076,0.3135482966899872,0.5727968215942383,0.33754459023475647,0.3807714879512787,0.6956016421318054,0.33766722679138184,1.069952384185791,1.5699721279144288,9.959034604253247e-06,9.894783580675722e-05,-6.184239737922326e-05,2.4736958951689305e-05
1636998015.9514332,8.0,0.0,0.1559990793466568,0.40496471524238586,0.25425463914871216,0.15668021142482758,0.45274150371551514,0.7210792899131775,0.2073754072189331,0.19005127251148224,0.8232235312461853,-0.0011566656176000834,0.4173773527145386,0.7123589515686035,0.03173959627747536,0.27606087923049927,0.46741148829460144,0.0445290170609951,0.10555589944124222,0.35777151584625244,0.314517080783844,0.4881056249141693,0.7297996282577515,0.49699512124061584,0.4840974807739258,0.619502604007721,0.5444608926773071,0.3594026565551758,0.4843510389328003,-0.006109227426350117,0.5448751449584961,0.19323009252548218,-0.03529710695147514,0.5980251431465149,0.6911155581474304,-0.02578304335474968,0.3584241569042206,0.7980818152427673,-0.18529881536960602,0.60645592212677,0.6879526972770691,-0.19176875054836273,0.44173017144203186,0.48809614777565,-0.10739387571811676,0.3008783757686615,0.3793128728866577,0.11470459401607513,0.5895943641662598,0.6942784786224365,0.28509142994880676,0.592134416103363,0.6323924660682678,0.4597013294696808,0.5908476710319519,0.5012171268463135,-0.006109227426350117,0.5448751449584961,0.19323009252548218,-0.037332672625780106,0.6017318367958069,0.7258381843566895,-0.0005002531688660383,0.41087520122528076,0.8000507354736328,-0.18374642729759216,0.6099609732627869,0.7227509617805481,-0.188599094748497,0.4864113926887512,0.5728521347045898,-0.04605051130056381,0.24844689667224884,0.3890663981437683,0.10908108204603195,0.5935027599334717,0.7289254069328308,0.28717589378356934,0.589590847492218,0.6212777495384216,0.3614356517791748,0.3945070207118988,0.40983444452285767,0.0,0.0,0.0,0.0,0.0,0.3370000123977661,0.10107491165399551,0.18464583158493042,0.3371734917163849,0.2297593504190445,0.4197293519973755,0.3373917043209076,0.3135482966899872,0.5727968215942383,0.33754459023475647,0.3807714879512787,0.6956016421318054,0.33766722679138184,1.069952384185791,1.5699721279144288,9.959034604253247e-06,9.894783580675722e-05,-6.184239737922326e-05,2.4736958951689305e-05
1636998015.961699,8.0,0.0,0.1559990793466568,0.40496471524238586,0.25425463914871216,0.15668021142482758,0.45274150371551514,0.7210792899131775,0.2073754072189331,0.19005127251148224,0.8232235312461853,-0.0011566656176000834,0.4173773527145386,0.7123589515686035,0.03173959627747536,0.27606087923049927,0.46741148829460144,0.0445290170609951,0.10555589944124222,0.35777151584625244,0.314517080783844,0.4881056249141693,0.7297996282577515,0.49699512124061584,0.4840974807739258,0.619502604007721,0.5444608926773071,0.3594026565551758,0.4843510389328003,-0.006109227426350117,0.5448751449584961,0.19323009252548218,-0.03529710695147514,0.5980251431465149,0.6911155581474304,-0.02578304335474968,0.3584241569042206,0.7980818152427673,-0.18529881536960602,0.60645592212677,0.6879526972770691,-0.19176875054836273,0.44173017144203186,0.48809614777565,-0.10739387571811676,0.3008783757686615,0.3793128728866577,0.11470459401607513,0.5895943641662598,0.6942784786224365,0.28509142994880676,0.592134416103363,0.6323924660682678,0.4597013294696808,0.5908476710319519,0.5012171268463135,-0.006109227426350117,0.5448751449584961,0.19323009252548218,-0.037332672625780106,0.6017318367958069,0.7258381843566895,-0.0005002531688660383,0.41087520122528076,0.8000507354736328,-0.18374642729759216,0.6099609732627869,0.7227509617805481,-0.188599094748497,0.4864113926887512,0.5728521347045898,-0.04605051130056381,0.24844689667224884,0.3890663981437683,0.10908108204603195,0.5935027599334717,0.7289254069328308,0.28717589378356934,0.589590847492218,0.6212777495384216,0.3614356517791748,0.3945070207118988,0.40983444452285767,0.0,0.0,0.0,0.0,0.0,0.3370000123977661,0.10107491165399551,0.18464583158493042,0.3371734917163849,0.2297593504190445,0.4197293519973755,0.3373917043209076,0.3135482966899872,0.5727968215942383,0.33754459023475647,0.3807714879512787,0.6956016421318054,0.33766722679138184,1.069952384185791,1.5699721279144288,9.959034604253247e-06,9.894783580675722e-05,-6.184239737922326e-05,2.4736958951689305e-05
1636998015.984436,8.0,0.0,0.15411695837974548,0.4070831537246704,0.253322035074234,0.16487844288349152,0.4419768452644348,0.7242931127548218,0.20899133384227753,0.18253259360790253,0.829390823841095,0.007394160609692335,0.40994343161582947,0.7146130204200745,0.040354277938604355,0.2669258415699005,0.47301194071769714,0.05081343650817871,0.09630980342626572,0.3675532341003418,0.3223627209663391,0.47401025891304016,0.7339732646942139,0.5090523958206177,0.4691341817378998,0.6306620836257935,0.558509349822998,0.3433026075363159,0.5006224513053894,-0.005296048708260059,0.540239155292511,0.1966332495212555,-0.03130278363823891,0.5836833715438843,0.6985628604888916,-0.02021045610308647,0.34439343214035034,0.8011159300804138,-0.18109320104122162,0.5908383727073669,0.6967326402664185,-0.18959395587444305,0.425214022397995,0.4977537989616394,-0.10276632010936737,0.28118598461151123,0.38924381136894226,0.11848762631416321,0.5765283703804016,0.7003930807113647,0.2885090410709381,0.5805734992027283,0.6399758458137512,0.4652067720890045,0.5764251351356506,0.511017382144928,-0.005296048708260059,0.540239155292511,0.1966332495212555,-0.032955873757600784,0.5864448547363281,0.7304674386978149,-0.0005669869133271277,0.39595383405685425,0.8076329827308655,-0.1794552356004715,0.5934426784515381,0.7286774516105652,-0.1858321577310562,0.46919798851013184,0.5794115662574768,-0.04147525504231453,0.22974146902561188,0.39900627732276917,0.11354349553585052,0.5794470310211182,0.7322574257850647,0.29560819268226624,0.5746917724609375,0.6315057277679443,0.37394222617149353,0.37538912892341614,0.42553794384002686,0.0,0.0,0.0,0.0,0.0,0.3370000123977661,0.10107491165399551,0.18464583158493042,0.3371734917163849,0.2297593504190445,0.4197293519973755,0.3373917043209076,0.3135482966899872,0.5727968215942383,0.33754459023475647,0.3807714879512787,0.6956016421318054,0.33766722679138184,1.069952384185791,1.5699721279144288,9.959034604253247e-06,9.894783580675722e-05,-6.184239737922326e-05,2.4736958951689305e-05
1636998015.9946942,8.0,0.0,0.15411695837974548,0.4070831537246704,0.253322035074234,0.16487844288349152,0.4419768452644348,0.7242931127548218,0.20899133384227753,0.18253259360790253,0.829390823841095,0.007394160609692335,0.40994343161582947,0.7146130204200745,0.040354277938604355,0.2669258415699005,0.47301194071769714,0.05081343650817871,0.09630980342626572,0.3675532341003418,0.3223627209663391,0.47401025891304016,0.7339732646942139,0.5090523958206177,0.4691341817378998,0.6306620836257935,0.558509349822998,0.3433026075363159,0.5006224513053894,-0.005296048708260059,0.540239155292511,0.1966332495212555,-0.03130278363823891,0.5836833715438843,0.6985628604888916,-0.02021045610308647,0.34439343214035034,0.8011159300804138,-0.18109320104122162,0.5908383727073669,0.6967326402664185,-0.18959395587444305,0.425214022397995,0.4977537989616394,-0.10276632010936737,0.28118598461151123,0.38924381136894226,0.11848762631416321,0.5765283703804016,0.7003930807113647,0.2885090410709381,0.5805734992027283,0.6399758458137512,0.4652067720890045,0.5764251351356506,0.511017382144928,-0.005296048708260059,0.540239155292511,0.1966332495212555,-0.032955873757600784,0.5864448547363281,0.7304674386978149,-0.0005669869133271277,0.39595383405685425,0.8076329827308655,-0.1794552356004715,0.5934426784515381,0.7286774516105652,-0.1858321577310562,0.46919798851013184,0.5794115662574768,-0.04147525504231453,0.22974146902561188,0.39900627732276917,0.11354349553585052,0.5794470310211182,0.7322574257850647,0.29560819268226624,0.5746917724609375,0.6315057277679443,0.37394222617149353,0.37538912892341614,0.42553794384002686,0.0,0.0,0.0,0.0,0.0,0.3370000123977661,0.10107491165399551,0.18464583158493042,0.3371734917163849,0.2297593504190445,0.4197293519973755,0.3373917043209076,0.3135482966899872,0.5727968215942383,0.33754459023475647,0.3807714879512787,0.6956016421318054,0.33766722679138184,1.069952384185791,1.5699721279144288,9.959034604253247e-06,9.894783580675722e-05,-6.184239737922326e-05,2.4736958951689305e-05
1636998016.0174484,8.0,0.0,0.15894335508346558,0.4015386998653412,0.2559286952018738,0.1700887829065323,0.4387275278568268,0.7284461855888367,0.2175346463918686,0.1774854063987732,0.8308845162391663,0.012119353748857975,0.40642571449279785,0.7207497358322144,0.048028573393821716,0.26550114154815674,0.47614967823028564,0.05871710181236267,0.09502698481082916,0.36879220604896545,0.3280582129955292,0.4710293412208557,0.736142635345459,0.5134680271148682,0.46404343843460083,0.6295120716094971,0.5614157319068909,0.3385283946990967,0.5011915564537048,-0.006057453341782093,0.5443101525306702,0.19367322325706482,-0.033276189118623734,0.5825999975204468,0.6945392489433289,-0.022970985621213913,0.3425045609474182,0.7996876239776611,-0.18146027624607086,0.5875266194343567,0.691733717918396,-0.1901702731847763,0.4217807948589325,0.4914607107639313,-0.10666446387767792,0.2787030339241028,0.3817080557346344,0.1149078905582428,0.5776733160018921,0.6973448395729065,0.28494736552238464,0.5760331749916077,0.6378293633460999,0.45927122235298157,0.5657574534416199,0.5081688165664673,-0.006057453341782093,0.5443101525306702,0.19367322325706482,-0.03508760780096054,0.5851482152938843,0.7278721332550049,-0.0004001333436463028,0.3941551744937897,0.802764356136322,-0.18165770173072815,0.5900211930274963,0.725097119808197,-0.18816445767879486,0.466201514005661,0.5754840970039368,-0.048336442559957504,0.22662203013896942,0.39170652627944946,0.11148247867822647,0.5802751779556274,0.7306471467018127,0.29181337356567383,0.5734806656837463,0.6269375085830688,0.3684912323951721,0.37275728583335876,0.42172759771347046,0.0,0.0,0.0,0.0,0.0,0.3370000123977661,0.10107491165399551,0.18464583158493042,0.3371734917163849,0.2297593504190445,0.4197293519973755,0.3373917043209076,0.3135482966899872,0.5727968215942383,0.33754459023475647,0.3807714879512787,0.6956016421318054,0.33766722679138184,1.069952384185791,1.5699721279144288,9.959034604253247e-06,9.894783580675722e-05,-6.184239737922326e-05,2.4736958951689305e-05
1636998016.0277052,8.0,0.0,0.15894335508346558,0.4015386998653412,0.2559286952018738,0.1700887829065323,0.4387275278568268,0.7284461855888367,0.2175346463918686,0.1774854063987732,0.8308845162391663,0.012119353748857975,0.40642571449279785,0.7207497358322144,0.048028573393821716,0.26550114154815674,0.47614967823028564,0.05871710181236267,0.09502698481082916,0.36879220604896545,0.3280582129955292,0.4710293412208557,0.736142635345459,0.5134680271148682,0.46404343843460083,0.6295120716094971,0.5614157319068909,0.3385283946990967,0.5011915564537048,-0.006057453341782093,0.5443101525306702,0.19367322325706482,-0.033276189118623734,0.5825999975204468,0.6945392489433289,-0.022970985621213913,0.3425045609474182,0.7996876239776611,-0.18146027624607086,0.5875266194343567,0.691733717918396,-0.1901702731847763,0.4217807948589325,0.4914607107639313,-0.10666446387767792,0.2787030339241028,0.3817080557346344,0.1149078905582428,0.5776733160018921,0.6973448395729065,0.28494736552238464,0.5760331749916077,0.6378293633460999,0.45927122235298157,0.5657574534416199,0.5081688165664673,-0.006057453341782093,0.5443101525306702,0.19367322325706482,-0.03508760780096054,0.5851482152938843,0.7278721332550049,-0.0004001333436463028,0.3941551744937897,0.802764356136322,-0.18165770173072815,0.5900211930274963,0.725097119808197,-0.18816445767879486,0.466201514005661,0.5754840970039368,-0.048336442559957504,0.22662203013896942,0.39170652627944946,0.11148247867822647,0.5802751779556274,0.7306471467018127,0.29181337356567383,0.5734806656837463,0.6269375085830688,0.3684912323951721,0.37275728583335876,0.42172759771347046,0.0,0.0,0.0,0.0,0.0,0.3370000123977661,0.10107491165399551,0.18464583158493042,0.3371734917163849,0.2297593504190445,0.4197293519973755,0.3373917043209076,0.3135482966899872,0.5727968215942383,0.33754459023475647,0.3807714879512787,0.6956016421318054,0.33766722679138184,1.069952384185791,1.5699771869659425,9.959034604253247e-06,9.894783580675722e-05,-6.184239737922326e-05,2.4736958951689305e-05
1636998016.0504339,8.0,0.0,0.1600632667541504,0.4069729745388031,0.25478196144104004,0.1565951108932495,0.4576130211353302,0.7230914831161499,0.2003701776266098,0.19919659197330475,0.8257491588592529,-0.0011607425985857844,0.42354097962379456,0.7148835062980652,0.02918255515396595,0.2792116403579712,0.4740544557571411,0.04026290401816368,0.10589544475078583,0.3668290078639984,0.314350962638855,0.49168509244918823,0.7312994599342346,0.49619755148887634,0.48754116892814636,0.6220823526382446,0.5406491756439209,0.36363500356674194,0.4873819053173065,-0.006240268237888813,0.5470587611198425,0.19773165881633759,-0.03593921288847923,0.5892817378044128,0.6970087885856628,-0.022394191473722458,0.3527180552482605,0.802776038646698,-0.1853346973657608,0.593794047832489,0.6944824457168579,-0.18991665542125702,0.4300333559513092,0.494244784116745,-0.10394729673862457,0.29176077246665955,0.3813817501068115,0.11345626413822174,0.5847694277763367,0.6995351314544678,0.2842477262020111,0.588195264339447,0.6388828754425049,0.45924142003059387,0.5848780274391174,0.5090423822402954,-0.006240268237888813,0.5470587611198425,0.19773165881633759,-0.03798672929406166,0.5921927094459534,0.7314301133155823,-0.00562982028350234,0.40118080377578735,0.807310938835144,-0.18457625806331635,0.5966202616691589,0.7289512157440186,-0.18801762163639069,0.47362449765205383,0.5785587430000305,-0.04362133517861366,0.24137839674949646,0.3889911472797394,0.10860279947519302,0.5877651572227478,0.7339090704917908,0.28699764609336853,0.5836998820304871,0.6267650127410889,0.3571224510669708,0.3882313072681427,0.414267897605896,0.0,0.0,0.0,0.0,0.0,0.3370000123977661,0.10107491165399551,0.18464583158493042,0.3371734917163849,0.2297593504190445,0.4197293519973755,0.3373917043209076,0.3135482966899872,0.5727968215942383,0.33754459023475647,0.3807714879512787,0.6956016421318054,0.33766722679138184,1.069952384185791,1.5699771869659425,9.959034604253247e-06,9.894783580675722e-05,-6.184239737922326e-05,2.4736958951689305e-05
