UF-SAMM-Lab/NSF_project_archive_data/MSEC_2022/skeleton_fusion_data/data_files/reject/location_test_2021_11_03_14_19_24_OpenPose.csv
Time,Test Joint,Touch Active,H1-Pelvis-x,H1-Pelvis-y,H1-Pelvis-z,H1-Spine-x,H1-Spine-y,H1-Spine-z,H1-Head-x,H1-Head-y,H1-Head-z,H1-R-Shoulder-x,H1-R-Shoulder-y,H1-R-Shoulder-z,H1-R-Elbow-x,H1-R-Elbow-y,H1-R-Elbow-z,H1-R-Wrist-x,H1-R-Wrist-y,H1-R-Wrist-z,H1-L-Shoulder-x,H1-L-Shoulder-y,H1-L-Shoulder-z,H1-L-Elbow-x,H1-L-Elbow-y,H1-L-Elbow-z,H1-L-Wrist-x,H1-L-Wrist-y,H1-L-Wrist-z,H2-Pelvis-x,H2-Pelvis-y,H2-Pelvis-z,H2-Spine-x,H2-Spine-y,H2-Spine-z,H2-Head-x,H2-Head-y,H2-Head-z,H2-R-Shoulder-x,H2-R-Shoulder-y,H2-R-Shoulder-z,H2-R-Elbow-x,H2-R-Elbow-y,H2-R-Elbow-z,H2-R-Wrist-x,H2-R-Wrist-y,H2-R-Wrist-z,H2-L-Shoulder-x,H2-L-Shoulder-y,H2-L-Shoulder-z,H2-L-Elbow-x,H2-L-Elbow-y,H2-L-Elbow-z,H2-L-Wrist-x,H2-L-Wrist-y,H2-L-Wrist-z,HC-Pelvis-x,HC-Pelvis-y,HC-Pelvis-z,HC-Spine-x,HC-Spine-y,HC-Spine-z,HC-Head-x,HC-Head-y,HC-Head-z,HC-R-Shoulder-x,HC-R-Shoulder-y,HC-R-Shoulder-z,HC-R-Elbow-x,HC-R-Elbow-y,HC-R-Elbow-z,HC-R-Wrist-x,HC-R-Wrist-y,HC-R-Wrist-z,HC-L-Shoulder-x,HC-L-Shoulder-y,HC-L-Shoulder-z,HC-L-Elbow-x,HC-L-Elbow-y,HC-L-Elbow-z,HC-L-Wrist-x,HC-L-Wrist-y,HC-L-Wrist-z,Robot-Base(x),Robot-Base(y),Robot-Base(z),Robot-J2(x),Robot-J2(y),Robot-J2(z),Robot-J3(x),Robot-J3(y),Robot-J3(z),Robot-J5(x),Robot-J5(y),Robot-J5(z),Robot-J6(x),Robot-J6(y),Robot-J6(z),Robot-EE(x),Robot-EE(y),Robot-EE(z),Robot-J1-angle,Robot-J2-angle,Robot-J3-angle,Robot-J4-angle,Robot-J5-angle,Robot-J6-angle
1635963564.7133696,5.0,0.0,0.3066609501838684,1.1125613451004028,0.30572766065597534,0.08967536687850952,0.943653404712677,0.719264030456543,0.1501881182193756,0.7951833605766296,0.7129095196723938,-0.018462391570210457,0.8524584174156189,0.6214776635169983,0.008649232797324657,0.8898805975914001,0.36802175641059875,0.18660704791545868,0.9329899549484253,0.20980967581272125,0.19781313836574554,1.0348484516143799,0.8170503973960876,0.3132578432559967,1.2318768501281738,0.6880351901054382,0.4014771282672882,1.3056050539016724,0.45361432433128357,0.08406180143356323,0.7041842341423035,0.29172617197036743,0.04768338054418564,0.9344256520271301,0.8137083649635315,0.20937307178974152,0.8953595757484436,0.9242135882377625,-0.01588723435997963,0.9343669414520264,0.7859237194061279,-0.03536004573106766,0.6934350728988647,0.37462297081947327,0.034029584378004074,0.5366932153701782,0.29749366641044617,0.11125399172306061,0.9344843029975891,0.8414930701255798,-0.608756959438324,-1.100434422492981,-0.32853713631629944,-0.608756959438324,-1.100434422492981,-0.32853713631629944,0.3066609501838684,1.1125613451004028,0.30572766065597534,0.08543632179498672,0.9418954253196716,0.7300297617912292,0.2043294459581375,0.9131695032119751,0.8112860918045044,-0.01656523160636425,0.8547881245613098,0.6370716691017151,-0.027974020689725876,0.713630199432373,0.3960976004600525,0.23273657262325287,0.7804263234138489,0.1639348864555359,0.18743787705898285,1.0290027856826782,0.8229878544807434,0.31870028376579285,1.2460875511169434,0.6774678826332092,0.4341779351234436,1.344553828239441,0.3705321252346039,0.0,0.0,0.0,0.0,0.0,0.3370000123977661,0.00017663252947386354,0.2104998528957367,0.337175577878952,0.00040151382563635707,0.4784996509552002,0.3374217748641968,0.0005479387473315,0.6529995203018188,0.337576687335968,0.0006654143217019737,0.7929993867874146,0.3377009928226471,1.5699572170257567,1.5699622760772705,-8.465180124621838e-05,-6.184239737922326e-05,3.092119868961163e-05,-0.00010513207351323217
1635963564.7136185,5.0,0.0,0.3066609501838684,1.1125613451004028,0.30572766065597534,0.08967536687850952,0.943653404712677,0.719264030456543,0.1501881182193756,0.7951833605766296,0.7129095196723938,-0.018462391570210457,0.8524584174156189,0.6214776635169983,0.008649232797324657,0.8898805975914001,0.36802175641059875,0.18660704791545868,0.9329899549484253,0.20980967581272125,0.19781313836574554,1.0348484516143799,0.8170503973960876,0.3132578432559967,1.2318768501281738,0.6880351901054382,0.4014771282672882,1.3056050539016724,0.45361432433128357,0.08406180143356323,0.7041842341423035,0.29172617197036743,0.04768338054418564,0.9344256520271301,0.8137083649635315,0.20937307178974152,0.8953595757484436,0.9242135882377625,-0.01588723435997963,0.9343669414520264,0.7859237194061279,-0.03536004573106766,0.6934350728988647,0.37462297081947327,0.034029584378004074,0.5366932153701782,0.29749366641044617,0.11125399172306061,0.9344843029975891,0.8414930701255798,-0.608756959438324,-1.100434422492981,-0.32853713631629944,-0.608756959438324,-1.100434422492981,-0.32853713631629944,0.3066609501838684,1.1125613451004028,0.30572766065597534,0.08543632179498672,0.9418954253196716,0.7300297617912292,0.2043294459581375,0.9131695032119751,0.8112860918045044,-0.01656523160636425,0.8547881245613098,0.6370716691017151,-0.027974020689725876,0.713630199432373,0.3960976004600525,0.23273657262325287,0.7804263234138489,0.1639348864555359,0.18743787705898285,1.0290027856826782,0.8229878544807434,0.31870028376579285,1.2460875511169434,0.6774678826332092,0.4341779351234436,1.344553828239441,0.3705321252346039,0.0,0.0,0.0,0.0,0.0,0.3370000123977661,0.00017663252947386354,0.2104998528957367,0.337175577878952,0.00040151382563635707,0.4784996509552002,0.3374217748641968,0.0005479387473315,0.6529995203018188,0.337576687335968,0.0006654143217019737,0.7929993867874146,0.3377009928226471,1.5699572170257567,1.5699622760772705,-8.465180124621838e-05,-6.184239737922326e-05,3.092119868961163e-05,-0.00010513207351323217
1635963564.746394,5.0,0.0,0.3066609501838684,1.1125613451004028,0.30572766065597534,0.08967536687850952,0.943653404712677,0.719264030456543,0.1501881182193756,0.7951833605766296,0.7129095196723938,-0.018462391570210457,0.8524584174156189,0.6214776635169983,0.008649232797324657,0.8898805975914001,0.36802175641059875,0.18660704791545868,0.9329899549484253,0.20980967581272125,0.19781313836574554,1.0348484516143799,0.8170503973960876,0.3132578432559967,1.2318768501281738,0.6880351901054382,0.4014771282672882,1.3056050539016724,0.45361432433128357,0.07819326221942902,0.7242869734764099,0.3076811730861664,0.039962783455848694,0.9251750707626343,0.8290145397186279,0.21182368695735931,0.901337742805481,0.9279660582542419,-0.017259711399674416,0.9306941032409668,0.7922884225845337,-0.02878681942820549,0.7370782494544983,0.40493109822273254,0.043909940868616104,0.5458435416221619,0.30821770429611206,0.09718527644872665,0.9196560382843018,0.8657406568527222,-0.608756959438324,-1.100434422492981,-0.32853713631629944,-0.608756959438324,-1.100434422492981,-0.32853713631629944,0.3066609501838684,1.1125613451004028,0.30572766065597534,0.08468501269817352,0.9397687911987305,0.7287747859954834,0.2035781294107437,0.9110428690910339,0.8100311160087585,-0.01793810911476612,0.8532243967056274,0.635975182056427,-0.029346898198127747,0.7120664715766907,0.395001083612442,0.2320362776517868,0.7753852009773254,0.16262030601501465,0.1873081475496292,1.0263131856918335,0.8215743899345398,0.3160342574119568,1.2460088729858398,0.6777165532112122,0.4317253828048706,1.3426963090896606,0.37029606103897095,0.0,0.0,0.0,0.0,0.0,0.3370000123977661,0.00017663252947386354,0.2104998528957367,0.337175577878952,0.00040151382563635707,0.4784996509552002,0.3374217748641968,0.0005479387473315,0.6529995203018188,0.337576687335968,0.0006654143217019737,0.7929993867874146,0.3377009928226471,1.5699572170257567,1.5699622760772705,-8.465180124621838e-05,-6.184239737922326e-05,3.092119868961163e-05,-0.00010513207351323217
1635963564.7467008,5.0,0.0,0.3066609501838684,1.1125613451004028,0.30572766065597534,0.08967536687850952,0.943653404712677,0.719264030456543,0.1501881182193756,0.7951833605766296,0.7129095196723938,-0.018462391570210457,0.8524584174156189,0.6214776635169983,0.008649232797324657,0.8898805975914001,0.36802175641059875,0.18660704791545868,0.9329899549484253,0.20980967581272125,0.19781313836574554,1.0348484516143799,0.8170503973960876,0.3132578432559967,1.2318768501281738,0.6880351901054382,0.4014771282672882,1.3056050539016724,0.45361432433128357,0.07819326221942902,0.7242869734764099,0.3076811730861664,0.039962783455848694,0.9251750707626343,0.8290145397186279,0.21182368695735931,0.901337742805481,0.9279660582542419,-0.017259711399674416,0.9306941032409668,0.7922884225845337,-0.02878681942820549,0.7370782494544983,0.40493109822273254,0.043909940868616104,0.5458435416221619,0.30821770429611206,0.09718527644872665,0.9196560382843018,0.8657406568527222,-0.608756959438324,-1.100434422492981,-0.32853713631629944,-0.608756959438324,-1.100434422492981,-0.32853713631629944,0.3066609501838684,1.1125613451004028,0.30572766065597534,0.08468501269817352,0.9397687911987305,0.7287747859954834,0.2035781294107437,0.9110428690910339,0.8100311160087585,-0.01793810911476612,0.8532243967056274,0.635975182056427,-0.029346898198127747,0.7120664715766907,0.395001083612442,0.2320362776517868,0.7753852009773254,0.16262030601501465,0.1873081475496292,1.0263131856918335,0.8215743899345398,0.3160342574119568,1.2460088729858398,0.6777165532112122,0.4317253828048706,1.3426963090896606,0.37029606103897095,0.0,0.0,0.0,0.0,0.0,0.3370000123977661,0.00017663252947386354,0.2104998528957367,0.337175577878952,0.00040151382563635707,0.4784996509552002,0.3374217748641968,0.0005479387473315,0.6529995203018188,0.337576687335968,0.0006654143217019737,0.7929993867874146,0.3377009928226471,1.5699572170257567,1.5699622760772705,-8.465180124621838e-05,-6.184239737922326e-05,3.092119868961163e-05,-0.00010513207351323217
1635963564.7798579,5.0,0.0,0.33758029341697693,1.072558879852295,0.2697159945964813,0.0885915756225586,0.9466889500617981,0.7208566665649414,0.14667141437530518,0.7909860014915466,0.7204915881156921,-0.015848340466618538,0.8483467102050781,0.6197271943092346,0.012752154842019081,0.8831358551979065,0.3661302328109741,0.19892056286334991,0.9165108799934387,0.22060377895832062,0.19303150475025177,1.045031189918518,0.8219861388206482,0.31505921483039856,1.2439228296279907,0.6818263530731201,0.4045838713645935,1.3154584169387817,0.4455537497997284,0.07819326221942902,0.7242869734764099,0.3076811730861664,0.039962783455848694,0.9251750707626343,0.8290145397186279,0.21182368695735931,0.901337742805481,0.9279660582542419,-0.017259711399674416,0.9306941032409668,0.7922884225845337,-0.02878681942820549,0.7370782494544983,0.40493109822273254,0.043909940868616104,0.5458435416221619,0.30821770429611206,0.09718527644872665,0.9196560382843018,0.8657406568527222,-0.608756959438324,-1.100434422492981,-0.32853713631629944,-0.608756959438324,-1.100434422492981,-0.32853713631629944,0.33758029341697693,1.072558879852295,0.2697159945964813,0.11053247004747391,0.9152321815490723,0.6960926651954651,0.23688140511512756,0.897707462310791,0.7688400149345398,0.009541780687868595,0.827213704586029,0.6028894782066345,0.0021043866872787476,0.7022910118103027,0.35296303033828735,0.26845458149909973,0.7617987394332886,0.12526224553585052,0.2115231603384018,1.0032507181167603,0.7892959117889404,0.3410014510154724,1.2211682796478271,0.6434228420257568,0.45701971650123596,1.3168398141860962,0.33580780029296875,0.0,0.0,0.0,0.0,0.0,0.3370000123977661,0.00017663252947386354,0.2104998528957367,0.337175577878952,0.00040151382563635707,0.4784996509552002,0.3374217748641968,0.0005479387473315,0.6529995203018188,0.337576687335968,0.0006654143217019737,0.7929993867874146,0.3377009928226471,1.5699572170257567,1.5699622760772705,-8.465180124621838e-05,-6.184239737922326e-05,3.092119868961163e-05,-0.00010513207351323217
1635963564.7797337,5.0,0.0,0.33758029341697693,1.072558879852295,0.2697159945964813,0.0885915756225586,0.9466889500617981,0.7208566665649414,0.14667141437530518,0.7909860014915466,0.7204915881156921,-0.015848340466618538,0.8483467102050781,0.6197271943092346,0.012752154842019081,0.8831358551979065,0.3661302328109741,0.19892056286334991,0.9165108799934387,0.22060377895832062,0.19303150475025177,1.045031189918518,0.8219861388206482,0.31505921483039856,1.2439228296279907,0.6818263530731201,0.4045838713645935,1.3154584169387817,0.4455537497997284,0.07819326221942902,0.7242869734764099,0.3076811730861664,0.039962783455848694,0.9251750707626343,0.8290145397186279,0.21182368695735931,0.901337742805481,0.9279660582542419,-0.017259711399674416,0.9306941032409668,0.7922884225845337,-0.02878681942820549,0.7370782494544983,0.40493109822273254,0.043909940868616104,0.5458435416221619,0.30821770429611206,0.09718527644872665,0.9196560382843018,0.8657406568527222,-0.608756959438324,-1.100434422492981,-0.32853713631629944,-0.608756959438324,-1.100434422492981,-0.32853713631629944,0.33758029341697693,1.072558879852295,0.2697159945964813,0.11053247004747391,0.9152321815490723,0.6960926651954651,0.23688140511512756,0.897707462310791,0.7688400149345398,0.009541780687868595,0.827213704586029,0.6028894782066345,0.0021043866872787476,0.7022910118103027,0.35296303033828735,0.26845458149909973,0.7617987394332886,0.12526224553585052,0.2115231603384018,1.0032507181167603,0.7892959117889404,0.3410014510154724,1.2211682796478271,0.6434228420257568,0.45701971650123596,1.3168398141860962,0.33580780029296875,0.0,0.0,0.0,0.0,0.0,0.3370000123977661,0.00017663252947386354,0.2104998528957367,0.337175577878952,0.00040151382563635707,0.4784996509552002,0.3374217748641968,0.0005479387473315,0.6529995203018188,0.337576687335968,0.0006654143217019737,0.7929993867874146,0.3377009928226471,1.5699572170257567,1.5699622760772705,-8.465180124621838e-05,-6.184239737922326e-05,3.092119868961163e-05,-0.00010513207351323217
1635963564.812376,5.0,0.0,0.33758029341697693,1.072558879852295,0.2697159945964813,0.0885915756225586,0.9466889500617981,0.7208566665649414,0.14667141437530518,0.7909860014915466,0.7204915881156921,-0.015848340466618538,0.8483467102050781,0.6197271943092346,0.012752154842019081,0.8831358551979065,0.3661302328109741,0.19892056286334991,0.9165108799934387,0.22060377895832062,0.19303150475025177,1.045031189918518,0.8219861388206482,0.31505921483039856,1.2439228296279907,0.6818263530731201,0.4045838713645935,1.3154584169387817,0.4455537497997284,0.0743635892868042,0.7479779124259949,0.30336105823516846,0.04561455175280571,0.9293577075004578,0.8235679864883423,0.20160295069217682,0.8966524600982666,0.9322523474693298,-0.01675218716263771,0.9324368834495544,0.7932500839233398,-0.021179653704166412,0.7859786748886108,0.4453316032886505,0.03822103142738342,0.5642075538635254,0.32006990909576416,0.10798129439353943,0.9262784719467163,0.8538858890533447,-0.608756959438324,-1.100434422492981,-0.32853713631629944,-0.608756959438324,-1.100434422492981,-0.32853713631629944,0.33758029341697693,1.072558879852295,0.2697159945964813,0.09910851716995239,0.9520055055618286,0.7018011212348938,0.22545744478702545,0.9344807267189026,0.7745484709739685,0.0019993565510958433,0.8605660200119019,0.6077700257301331,-0.005438037682324648,0.7356433272361755,0.3578436076641083,0.27183812856674194,0.785351574420929,0.14109891653060913,0.19621767103672028,1.0434449911117554,0.7958322167396545,0.32732653617858887,1.2571378946304321,0.645241916179657,0.444059282541275,1.3504143953323364,0.33716192841529846,0.0,0.0,0.0,0.0,0.0,0.3370000123977661,0.00017663252947386354,0.2104998528957367,0.337175577878952,0.00040151382563635707,0.4784996509552002,0.3374217748641968,0.0005479387473315,0.6529995203018188,0.337576687335968,0.0006654143217019737,0.7929993867874146,0.3377009928226471,1.5699572170257567,1.5699622760772705,-8.465180124621838e-05,-6.184239737922326e-05,3.092119868961163e-05,-0.00010513207351323217
1635963564.8125885,5.0,0.0,0.33758029341697693,1.072558879852295,0.2697159945964813,0.0885915756225586,0.9466889500617981,0.7208566665649414,0.14667141437530518,0.7909860014915466,0.7204915881156921,-0.015848340466618538,0.8483467102050781,0.6197271943092346,0.012752154842019081,0.8831358551979065,0.3661302328109741,0.19892056286334991,0.9165108799934387,0.22060377895832062,0.19303150475025177,1.045031189918518,0.8219861388206482,0.31505921483039856,1.2439228296279907,0.6818263530731201,0.4045838713645935,1.3154584169387817,0.4455537497997284,0.0743635892868042,0.7479779124259949,0.30336105823516846,0.04561455175280571,0.9293577075004578,0.8235679864883423,0.20160295069217682,0.8966524600982666,0.9322523474693298,-0.01675218716263771,0.9324368834495544,0.7932500839233398,-0.021179653704166412,0.7859786748886108,0.4453316032886505,0.03822103142738342,0.5642075538635254,0.32006990909576416,0.10798129439353943,0.9262784719467163,0.8538858890533447,-0.608756959438324,-1.100434422492981,-0.32853713631629944,-0.608756959438324,-1.100434422492981,-0.32853713631629944,0.33758029341697693,1.072558879852295,0.2697159945964813,0.09910851716995239,0.9520055055618286,0.7018011212348938,0.22545744478702545,0.9344807267189026,0.7745484709739685,0.0019993565510958433,0.8605660200119019,0.6077700257301331,-0.005438037682324648,0.7356433272361755,0.3578436076641083,0.27183812856674194,0.785351574420929,0.14109891653060913,0.19621767103672028,1.0434449911117554,0.7958322167396545,0.32732653617858887,1.2571378946304321,0.645241916179657,0.444059282541275,1.3504143953323364,0.33716192841529846,0.0,0.0,0.0,0.0,0.0,0.3370000123977661,0.00017663252947386354,0.2104998528957367,0.337175577878952,0.00040151382563635707,0.4784996509552002,0.3374217748641968,0.0005479387473315,0.6529995203018188,0.337576687335968,0.0006654143217019737,0.7929993867874146,0.3377009928226471,1.5699572170257567,1.5699622760772705,-8.465180124621838e-05,-6.184239737922326e-05,3.092119868961163e-05,-0.00010513207351323217
1635963564.8453684,5.0,0.0,0.3326023519039154,1.0590684413909912,0.28397318720817566,0.08618176728487015,0.9495687484741211,0.7218772172927856,0.14136867225170135,0.8003886342048645,0.7251651883125305,-0.02393965795636177,0.8610734939575195,0.6251453757286072,0.008351914584636688,0.8903692960739136,0.36815884709358215,0.18980062007904053,0.9225170612335205,0.2314220368862152,0.19630318880081177,1.0380640029907227,0.8186090588569641,0.31099945306777954,1.2211871147155762,0.6946748495101929,0.4022103250026703,1.303341269493103,0.4530103802680969,0.0743635892868042,0.7479779124259949,0.30336105823516846,0.04561455175280571,0.9293577075004578,0.8235679864883423,0.20160295069217682,0.8966524600982666,0.9322523474693298,-0.01675218716263771,0.9324368834495544,0.7932500839233398,-0.021179653704166412,0.7859786748886108,0.4453316032886505,0.03822103142738342,0.5642075538635254,0.32006990909576416,0.10798129439353943,0.9262784719467163,0.8538858890533447,-0.608756959438324,-1.100434422492981,-0.32853713631629944,-0.608756959438324,-1.100434422492981,-0.32853713631629944,0.3326023519039154,1.0590684413909912,0.28397318720817566,0.09263741970062256,0.942213237285614,0.7162476181983948,0.21137696504592896,0.917317807674408,0.7989789843559265,-0.006855681072920561,0.8528738617897034,0.6226912140846252,-0.010133725591003895,0.7444378733634949,0.3650963306427002,0.26828187704086304,0.794175922870636,0.1498240977525711,0.19213052093982697,1.0315526723861694,0.8098040223121643,0.3243023455142975,1.2456532716751099,0.6607295274734497,0.4407152235507965,1.3420852422714233,0.35350126028060913,0.0,0.0,0.0,0.0,0.0,0.3370000123977661,0.00017663252947386354,0.2104998528957367,0.337175577878952,0.00040151382563635707,0.4784996509552002,0.3374217748641968,0.0005479387473315,0.6529995203018188,0.337576687335968,0.0006654143217019737,0.7929993867874146,0.3377009928226471,1.5699572170257567,1.5699622760772705,-8.465180124621838e-05,-6.184239737922326e-05,3.092119868961163e-05,-0.00010513207351323217
1635963564.8455892,5.0,0.0,0.3326023519039154,1.0590684413909912,0.28397318720817566,0.08618176728487015,0.9495687484741211,0.7218772172927856,0.14136867225170135,0.8003886342048645,0.7251651883125305,-0.02393965795636177,0.8610734939575195,0.6251453757286072,0.008351914584636688,0.8903692960739136,0.36815884709358215,0.18980062007904053,0.9225170612335205,0.2314220368862152,0.19630318880081177,1.0380640029907227,0.8186090588569641,0.31099945306777954,1.2211871147155762,0.6946748495101929,0.4022103250026703,1.303341269493103,0.4530103802680969,0.0743635892868042,0.7479779124259949,0.30336105823516846,0.04561455175280571,0.9293577075004578,0.8235679864883423,0.20160295069217682,0.8966524600982666,0.9322523474693298,-0.01675218716263771,0.9324368834495544,0.7932500839233398,-0.021179653704166412,0.7859786748886108,0.4453316032886505,0.03822103142738342,0.5642075538635254,0.32006990909576416,0.10798129439353943,0.9262784719467163,0.8538858890533447,-0.608756959438324,-1.100434422492981,-0.32853713631629944,-0.608756959438324,-1.100434422492981,-0.32853713631629944,0.3326023519039154,1.0590684413909912,0.28397318720817566,0.09263741970062256,0.942213237285614,0.7162476181983948,0.21137696504592896,0.917317807674408,0.7989789843559265,-0.006855681072920561,0.8528738617897034,0.6226912140846252,-0.010133725591003895,0.7444378733634949,0.3650963306427002,0.26828187704086304,0.794175922870636,0.1498240977525711,0.19213052093982697,1.0315526723861694,0.8098040223121643,0.3243023455142975,1.2456532716751099,0.6607295274734497,0.4407152235507965,1.3420852422714233,0.35350126028060913,0.0,0.0,0.0,0.0,0.0,0.3370000123977661,0.00017663252947386354,0.2104998528957367,0.337175577878952,0.00040151382563635707,0.4784996509552002,0.3374217748641968,0.0005479387473315,0.6529995203018188,0.337576687335968,0.0006654143217019737,0.7929993867874146,0.3377009928226471,1.5699572170257567,1.5699622760772705,-8.465180124621838e-05,-6.184239737922326e-05,3.092119868961163e-05,-0.00010513207351323217
1635963564.8783712,5.0,0.0,0.3326023519039154,1.0590684413909912,0.28397318720817566,0.08618176728487015,0.9495687484741211,0.7218772172927856,0.14136867225170135,0.8003886342048645,0.7251651883125305,-0.02393965795636177,0.8610734939575195,0.6251453757286072,0.008351914584636688,0.8903692960739136,0.36815884709358215,0.18980062007904053,0.9225170612335205,0.2314220368862152,0.19630318880081177,1.0380640029907227,0.8186090588569641,0.31099945306777954,1.2211871147155762,0.6946748495101929,0.4022103250026703,1.303341269493103,0.4530103802680969,0.07768421620130539,0.7440730333328247,0.3059796094894409,0.040934689342975616,0.9267693758010864,0.8172454237937927,0.21591344475746155,0.9114993810653687,0.9431112408638,-0.01766609027981758,0.9282616972923279,0.7825798392295837,-0.023987727239727974,0.7754502892494202,0.42650899291038513,0.03848567605018616,0.5482587814331055,0.30830544233322144,0.09953547269105911,0.925277054309845,0.8519110679626465,-0.608756959438324,-1.100434422492981,-0.32853713631629944,-0.608756959438324,-1.100434422492981,-0.32853713631629944,0.3326023519039154,1.0590684413909912,0.28397318720817566,0.0891692116856575,0.9508962631225586,0.7165683507919312,0.2080398052930832,0.9303112030029297,0.8002904057502747,-0.01579403690993786,0.8665461540222168,0.6243675351142883,-0.019451068714261055,0.757574200630188,0.36700403690338135,0.26160523295402527,0.8073697090148926,0.15520456433296204,0.194132462143898,1.0352463722229004,0.808769166469574,0.32879453897476196,1.2502466440200806,0.6632610559463501,0.4440147578716278,1.3540263175964355,0.35798346996307373,0.0,0.0,0.0,0.0,0.0,0.3370000123977661,0.00017663252947386354,0.2104998528957367,0.337175577878952,0.00040151382563635707,0.4784996509552002,0.3374217748641968,0.0005479387473315,0.6529995203018188,0.337576687335968,0.0006654143217019737,0.7929993867874146,0.3377009928226471,1.5699572170257567,1.5699622760772705,-8.465180124621838e-05,-6.184239737922326e-05,3.092119868961163e-05,-0.00010513207351323217
1635963564.8785877,5.0,0.0,0.3326023519039154,1.0590684413909912,0.28397318720817566,0.08618176728487015,0.9495687484741211,0.7218772172927856,0.14136867225170135,0.8003886342048645,0.7251651883125305,-0.02393965795636177,0.8610734939575195,0.6251453757286072,0.008351914584636688,0.8903692960739136,0.36815884709358215,0.18980062007904053,0.9225170612335205,0.2314220368862152,0.19630318880081177,1.0380640029907227,0.8186090588569641,0.31099945306777954,1.2211871147155762,0.6946748495101929,0.4022103250026703,1.303341269493103,0.4530103802680969,0.07768421620130539,0.7440730333328247,0.3059796094894409,0.040934689342975616,0.9267693758010864,0.8172454237937927,0.21591344475746155,0.9114993810653687,0.9431112408638,-0.01766609027981758,0.9282616972923279,0.7825798392295837,-0.023987727239727974,0.7754502892494202,0.42650899291038513,0.03848567605018616,0.5482587814331055,0.30830544233322144,0.09953547269105911,0.925277054309845,0.8519110679626465,-0.608756959438324,-1.100434422492981,-0.32853713631629944,-0.608756959438324,-1.100434422492981,-0.32853713631629944,0.3326023519039154,1.0590684413909912,0.28397318720817566,0.0891692116856575,0.9508962631225586,0.7165683507919312,0.2080398052930832,0.9303112030029297,0.8002904057502747,-0.01579403690993786,0.8665461540222168,0.6243675351142883,-0.019451068714261055,0.757574200630188,0.36700403690338135,0.26160523295402527,0.8073697090148926,0.15520456433296204,0.194132462143898,1.0352463722229004,0.808769166469574,0.32879453897476196,1.2502466440200806,0.6632610559463501,0.4440147578716278,1.3540263175964355,0.35798346996307373,0.0,0.0,0.0,0.0,0.0,0.3370000123977661,0.00017663252947386354,0.2104998528957367,0.337175577878952,0.00040151382563635707,0.4784996509552002,0.3374217748641968,0.0005479387473315,0.6529995203018188,0.337576687335968,0.0006654143217019737,0.7929993867874146,0.3377009928226471,1.5699572170257567,1.5699622760772705,-8.465180124621838e-05,-6.184239737922326e-05,3.092119868961163e-05,-0.00010513207351323217
1635963564.9113824,5.0,0.0,0.3180139660835266,1.0536582469940186,0.28747794032096863,0.08372949808835983,0.9595407843589783,0.7334079146385193,0.14442351460456848,0.7949719429016113,0.7224727869033813,-0.019784294068813324,0.8617241382598877,0.6388548612594604,-0.0036503965966403484,0.8992601633071899,0.3808387815952301,0.2010553926229477,0.9081526398658752,0.2423340529203415,0.1872432976961136,1.0573574304580688,0.8279609084129333,0.31459569931030273,1.2283083200454712,0.6866703033447266,0.40059739351272583,1.3083215951919556,0.45433902740478516,0.07768421620130539,0.7440730333328247,0.3059796094894409,0.040934689342975616,0.9267693758010864,0.8172454237937927,0.21591344475746155,0.9114993810653687,0.9431112408638,-0.01766609027981758,0.9282616972923279,0.7825798392295837,-0.023987727239727974,0.7754502892494202,0.42650899291038513,0.03848567605018616,0.5482587814331055,0.30830544233322144,0.09953547269105911,0.925277054309845,0.8519110679626465,-0.608756959438324,-1.100434422492981,-0.32853713631629944,-0.608756959438324,-1.100434422492981,-0.32853713631629944,0.3180139660835266,1.0536582469940186,0.28747794032096863,0.07788601517677307,0.9499069452285767,0.7229933738708496,0.19679583609104156,0.9395299553871155,0.8085277080535889,-0.02526675909757614,0.8628212809562683,0.6312938928604126,-0.02982628531754017,0.7526050209999084,0.37447524070739746,0.25600096583366394,0.7917869091033936,0.16687272489070892,0.1810387820005417,1.0369925498962402,0.8146929144859314,0.31938862800598145,1.2463282346725464,0.6644611954689026,0.43398264050483704,1.3505501747131348,0.3590986430644989,0.0,0.0,0.0,0.0,0.0,0.3370000123977661,0.00017663252947386354,0.2104998528957367,0.337175577878952,0.00040151382563635707,0.4784996509552002,0.3374217748641968,0.0005479387473315,0.6529995203018188,0.337576687335968,0.0006654143217019737,0.7929993867874146,0.3377009928226471,1.5699572170257567,1.5699622760772705,-8.465180124621838e-05,-6.184239737922326e-05,3.092119868961163e-05,-0.00010513207351323217
1635963564.9116836,5.0,0.0,0.3180139660835266,1.0536582469940186,0.28747794032096863,0.08372949808835983,0.9595407843589783,0.7334079146385193,0.14442351460456848,0.7949719429016113,0.7224727869033813,-0.019784294068813324,0.8617241382598877,0.6388548612594604,-0.0036503965966403484,0.8992601633071899,0.3808387815952301,0.2010553926229477,0.9081526398658752,0.2423340529203415,0.1872432976961136,1.0573574304580688,0.8279609084129333,0.31459569931030273,1.2283083200454712,0.6866703033447266,0.40059739351272583,1.3083215951919556,0.45433902740478516,0.07768421620130539,0.7440730333328247,0.3059796094894409,0.040934689342975616,0.9267693758010864,0.8172454237937927,0.21591344475746155,0.9114993810653687,0.9431112408638,-0.01766609027981758,0.9282616972923279,0.7825798392295837,-0.023987727239727974,0.7754502892494202,0.42650899291038513,0.03848567605018616,0.5482587814331055,0.30830544233322144,0.09953547269105911,0.925277054309845,0.8519110679626465,-0.608756959438324,-1.100434422492981,-0.32853713631629944,-0.608756959438324,-1.100434422492981,-0.32853713631629944,0.3180139660835266,1.0536582469940186,0.28747794032096863,0.07788601517677307,0.9499069452285767,0.7229933738708496,0.19679583609104156,0.9395299553871155,0.8085277080535889,-0.02526675909757614,0.8628212809562683,0.6312938928604126,-0.02982628531754017,0.7526050209999084,0.37447524070739746,0.25600096583366394,0.7917869091033936,0.16687272489070892,0.1810387820005417,1.0369925498962402,0.8146929144859314,0.31938862800598145,1.2463282346725464,0.6644611954689026,0.43398264050483704,1.3505501747131348,0.3590986430644989,0.0,0.0,0.0,0.0,0.0,0.3370000123977661,0.00017663252947386354,0.2104998528957367,0.337175577878952,0.00040151382563635707,0.4784996509552002,0.3374217748641968,0.0005479387473315,0.6529995203018188,0.337576687335968,0.0006654143217019737,0.7929993867874146,0.3377009928226471,1.5699572170257567,1.5699622760772705,-8.465180124621838e-05,-6.184239737922326e-05,3.092119868961163e-05,-0.00010513207351323217
1635963564.9444368,5.0,0.0,0.3180139660835266,1.0536582469940186,0.28747794032096863,0.08372949808835983,0.9595407843589783,0.7334079146385193,0.14442351460456848,0.7949719429016113,0.7224727869033813,-0.019784294068813324,0.8617241382598877,0.6388548612594604,-0.0036503965966403484,0.8992601633071899,0.3808387815952301,0.2010553926229477,0.9081526398658752,0.2423340529203415,0.1872432976961136,1.0573574304580688,0.8279609084129333,0.31459569931030273,1.2283083200454712,0.6866703033447266,0.40059739351272583,1.3083215951919556,0.45433902740478516,0.08419241011142731,0.7434629797935486,0.30645737051963806,0.04441741481423378,0.9254995584487915,0.8257400393486023,0.21902251243591309,0.9188989400863647,0.9389891028404236,-0.019176941365003586,0.9241105914115906,0.7886554598808289,-0.029893629252910614,0.8041624426841736,0.45078662037849426,0.028052890673279762,0.5712503790855408,0.3210926949977875,0.10801177471876144,0.9268884658813477,0.8628246188163757,-0.608756959438324,-1.100434422492981,-0.32853713631629944,-0.608756959438324,-1.100434422492981,-0.32853713631629944,0.3180139660835266,1.0536582469940186,0.28747794032096863,0.0857461616396904,0.9603509306907654,0.7295694351196289,0.20596252381801605,0.9516981244087219,0.8134532570838928,-0.013073675334453583,0.8669699430465698,0.6393040418624878,-0.01894327998161316,0.7616820335388184,0.3804522752761841,0.2752458453178406,0.7744616866111755,0.1814028024673462,0.18456600606441498,1.053731918334961,0.81983482837677,0.33019980788230896,1.249222755432129,0.6582620143890381,0.44331127405166626,1.354458212852478,0.3526943624019623,0.0,0.0,0.0,0.0,0.0,0.3370000123977661,0.00017663252947386354,0.2104998528957367,0.33717453479766846,0.00040151382563635707,0.4784996509552002,0.33741942048072815,0.0005479387473315,0.6529995203018188,0.33757346868515015,0.0006654143217019737,0.7929993867874146,0.3376970887184143,1.5699572170257567,1.5699672019958497,-8.465180124621838e-05,-6.184239737922326e-05,3.092119868961163e-05,-0.00010513207351323217
1635963564.9446518,5.0,0.0,0.3180139660835266,1.0536582469940186,0.28747794032096863,0.08372949808835983,0.9595407843589783,0.7334079146385193,0.14442351460456848,0.7949719429016113,0.7224727869033813,-0.019784294068813324,0.8617241382598877,0.6388548612594604,-0.0036503965966403484,0.8992601633071899,0.3808387815952301,0.2010553926229477,0.9081526398658752,0.2423340529203415,0.1872432976961136,1.0573574304580688,0.8279609084129333,0.31459569931030273,1.2283083200454712,0.6866703033447266,0.40059739351272583,1.3083215951919556,0.45433902740478516,0.08419241011142731,0.7434629797935486,0.30645737051963806,0.04441741481423378,0.9254995584487915,0.8257400393486023,0.21902251243591309,0.9188989400863647,0.9389891028404236,-0.019176941365003586,0.9241105914115906,0.7886554598808289,-0.029893629252910614,0.8041624426841736,0.45078662037849426,0.028052890673279762,0.5712503790855408,0.3210926949977875,0.10801177471876144,0.9268884658813477,0.8628246188163757,-0.608756959438324,-1.100434422492981,-0.32853713631629944,-0.608756959438324,-1.100434422492981,-0.32853713631629944,0.3180139660835266,1.0536582469940186,0.28747794032096863,0.0857461616396904,0.9603509306907654,0.7295694351196289,0.20596252381801605,0.9516981244087219,0.8134532570838928,-0.013073675334453583,0.8669699430465698,0.6393040418624878,-0.01894327998161316,0.7616820335388184,0.3804522752761841,0.2752458453178406,0.7744616866111755,0.1814028024673462,0.18456600606441498,1.053731918334961,0.81983482837677,0.33019980788230896,1.249222755432129,0.6582620143890381,0.44331127405166626,1.354458212852478,0.3526943624019623,0.0,0.0,0.0,0.0,0.0,0.3370000123977661,0.00017663252947386354,0.2104998528957367,0.33717453479766846,0.00040151382563635707,0.4784996509552002,0.33741942048072815,0.0005479387473315,0.6529995203018188,0.33757346868515015,0.0006654143217019737,0.7929993867874146,0.3376970887184143,1.5699572170257567,1.5699672019958497,-8.465180124621838e-05,-6.184239737922326e-05,3.092119868961163e-05,-0.00010513207351323217
1635963564.9776635,5.0,0.0,0.314026802778244,1.0557764768600464,0.3020130693912506,0.09180256724357605,0.958511471748352,0.7288755178451538,0.1528371423482895,0.7975908517837524,0.726288378238678,-0.019430354237556458,0.8714930415153503,0.6327153444290161,-0.004845198709517717,0.9012129902839661,0.3813970983028412,0.18623851239681244,0.9255311489105225,0.2556629478931427,0.20303548872470856,1.045529842376709,0.8250356316566467,0.3179008960723877,1.2468924522399902,0.6973788738250732,0.4087674915790558,1.302428960800171,0.4421386420726776,0.08419241011142731,0.7434629797935486,0.30645737051963806,0.04441741481423378,0.9254995584487915,0.8257400393486023,0.21902251243591309,0.9188989400863647,0.9389891028404236,-0.019176941365003586,0.9241105914115906,0.7886554598808289,-0.029893629252910614,0.8041624426841736,0.45078662037849426,0.028052890673279762,0.5712503790855408,0.3210926949977875,0.10801177471876144,0.9268884658813477,0.8628246188163757,-0.608756959438324,-1.100434422492981,-0.32853713631629944,-0.608756959438324,-1.100434422492981,-0.32853713631629944,0.314026802778244,1.0557764768600464,0.3020130693912506,0.0838410034775734,0.9558840394020081,0.7437544465065002,0.2069787085056305,0.9512290358543396,0.8236217498779297,-0.021660273894667625,0.871694803237915,0.6520218849182129,-0.030011214315891266,0.7782256603240967,0.3887387812137604,0.2652861475944519,0.8132396340370178,0.19404737651348114,0.18934229016304016,1.040073275566101,0.8354870676994324,0.3185441493988037,1.2600055932998657,0.6924195289611816,0.43179768323898315,1.3324320316314697,0.3775094449520111,0.0,0.0,0.0,0.0,0.0,0.3370000123977661,0.00017663252947386354,0.2104998528957367,0.33717453479766846,0.00040151382563635707,0.4784996509552002,0.33741942048072815,0.0005479387473315,0.6529995203018188,0.33757346868515015,0.0006654143217019737,0.7929993867874146,0.3376970887184143,1.5699572170257567,1.5699672019958497,-8.465180124621838e-05,-6.184239737922326e-05,3.092119868961163e-05,-0.00010513207351323217
1635963564.977418,5.0,0.0,0.314026802778244,1.0557764768600464,0.3020130693912506,0.09180256724357605,0.958511471748352,0.7288755178451538,0.1528371423482895,0.7975908517837524,0.726288378238678,-0.019430354237556458,0.8714930415153503,0.6327153444290161,-0.004845198709517717,0.9012129902839661,0.3813970983028412,0.18623851239681244,0.9255311489105225,0.2556629478931427,0.20303548872470856,1.045529842376709,0.8250356316566467,0.3179008960723877,1.2468924522399902,0.6973788738250732,0.4087674915790558,1.302428960800171,0.4421386420726776,0.08419241011142731,0.7434629797935486,0.30645737051963806,0.04441741481423378,0.9254995584487915,0.8257400393486023,0.21902251243591309,0.9188989400863647,0.9389891028404236,-0.019176941365003586,0.9241105914115906,0.7886554598808289,-0.029893629252910614,0.8041624426841736,0.45078662037849426,0.028052890673279762,0.5712503790855408,0.3210926949977875,0.10801177471876144,0.9268884658813477,0.8628246188163757,-0.608756959438324,-1.100434422492981,-0.32853713631629944,-0.608756959438324,-1.100434422492981,-0.32853713631629944,0.314026802778244,1.0557764768600464,0.3020130693912506,0.08245053887367249,0.9602727890014648,0.7439982891082764,0.205588236451149,0.9556177854537964,0.8238655924797058,-0.018627574667334557,0.8699178695678711,0.653155505657196,-0.026978515088558197,0.7764487266540527,0.38987237215042114,0.26787570118904114,0.7965912818908691,0.19242234528064728,0.18352864682674408,1.0506277084350586,0.8348410725593567,0.3243884742259979,1.2545770406723022,0.6796160340309143,0.4389035701751709,1.3489124774932861,0.3710266649723053,0.0,0.0,0.0,0.0,0.0,0.3370000123977661,0.00017663252947386354,0.2104998528957367,0.33717453479766846,0.00040151382563635707,0.4784996509552002,0.33741942048072815,0.0005479387473315,0.6529995203018188,0.33757346868515015,0.0006654143217019737,0.7929993867874146,0.3376970887184143,1.5699572170257567,1.5699672019958497,-8.465180124621838e-05,-6.184239737922326e-05,3.092119868961163e-05,-0.00010513207351323217
1635963565.0103974,5.0,0.0,0.314026802778244,1.0557764768600464,0.3020130693912506,0.09180256724357605,0.958511471748352,0.7288755178451538,0.1528371423482895,0.7975908517837524,0.726288378238678,-0.019430354237556458,0.8714930415153503,0.6327153444290161,-0.004845198709517717,0.9012129902839661,0.3813970983028412,0.18623851239681244,0.9255311489105225,0.2556629478931427,0.20303548872470856,1.045529842376709,0.8250356316566467,0.3179008960723877,1.2468924522399902,0.6973788738250732,0.4087674915790558,1.302428960800171,0.4421386420726776,0.08724372833967209,0.7202916145324707,0.30742329359054565,0.046435147523880005,0.9330476522445679,0.834148645401001,0.21882042288780212,0.9185914397239685,0.9475938677787781,-0.013960927724838257,0.9420217275619507,0.7985392212867737,-0.03418230637907982,0.8137717247009277,0.45371344685554504,0.03337407857179642,0.5683222413063049,0.3208133578300476,0.10683122277259827,0.9240735769271851,0.8697580695152283,-0.608756959438324,-1.100434422492981,-0.32853713631629944,-0.608756959438324,-1.100434422492981,-0.32853713631629944,0.314026802778244,1.0557764768600464,0.3020130693912506,0.08408055454492569,0.9551315903663635,0.7437084317207336,0.2072182595729828,0.9504766464233398,0.8235756754875183,-0.022166069597005844,0.872014045715332,0.651858925819397,-0.030517010018229485,0.7785448431968689,0.38857582211494446,0.26473721861839294,0.8161201477050781,0.1942969113588333,0.19032716751098633,1.0382492542266846,0.8355579376220703,0.31726422905921936,1.2607736587524414,0.6944853067398071,0.429762065410614,1.329530954360962,0.37848377227783203,0.0,0.0,0.0,0.0,0.0,0.3370000123977661,0.00017663252947386354,0.2104998528957367,0.33717453479766846,0.00040151382563635707,0.4784996509552002,0.33741942048072815,0.0005479387473315,0.6529995203018188,0.33757346868515015,0.0006654143217019737,0.7929993867874146,0.3376970887184143,1.5699572170257567,1.5699672019958497,-8.465180124621838e-05,-6.184239737922326e-05,3.092119868961163e-05,-0.00010513207351323217
1635963565.0107038,5.0,0.0,0.314026802778244,1.0557764768600464,0.3020130693912506,0.09180256724357605,0.958511471748352,0.7288755178451538,0.1528371423482895,0.7975908517837524,0.726288378238678,-0.019430354237556458,0.8714930415153503,0.6327153444290161,-0.004845198709517717,0.9012129902839661,0.3813970983028412,0.18623851239681244,0.9255311489105225,0.2556629478931427,0.20303548872470856,1.045529842376709,0.8250356316566467,0.3179008960723877,1.2468924522399902,0.6973788738250732,0.4087674915790558,1.302428960800171,0.4421386420726776,0.08724372833967209,0.7202916145324707,0.30742329359054565,0.046435147523880005,0.9330476522445679,0.834148645401001,0.21882042288780212,0.9185914397239685,0.9475938677787781,-0.013960927724838257,0.9420217275619507,0.7985392212867737,-0.03418230637907982,0.8137717247009277,0.45371344685554504,0.03337407857179642,0.5683222413063049,0.3208133578300476,0.10683122277259827,0.9240735769271851,0.8697580695152283,-0.608756959438324,-1.100434422492981,-0.32853713631629944,-0.608756959438324,-1.100434422492981,-0.32853713631629944,0.314026802778244,1.0557764768600464,0.3020130693912506,0.08408055454492569,0.9551315903663635,0.7437084317207336,0.2072182595729828,0.9504766464233398,0.8235756754875183,-0.022166069597005844,0.872014045715332,0.651858925819397,-0.030517010018229485,0.7785448431968689,0.38857582211494446,0.26473721861839294,0.8161201477050781,0.1942969113588333,0.19032716751098633,1.0382492542266846,0.8355579376220703,0.31726422905921936,1.2607736587524414,0.6944853067398071,0.429762065410614,1.329530954360962,0.37848377227783203,0.0,0.0,0.0,0.0,0.0,0.3370000123977661,0.00017663252947386354,0.2104998528957367,0.33717453479766846,0.00040151382563635707,0.4784996509552002,0.33741942048072815,0.0005479387473315,0.6529995203018188,0.33757346868515015,0.0006654143217019737,0.7929993867874146,0.3376970887184143,1.5699572170257567,1.5699672019958497,-8.465180124621838e-05,-6.184239737922326e-05,3.092119868961163e-05,-0.00010513207351323217
1635963565.0433948,5.0,0.0,0.3088412880897522,1.0603169202804565,0.3075600564479828,0.08875396847724915,0.9576173424720764,0.7335651516914368,0.1447669118642807,0.8120447397232056,0.7334932684898376,-0.027424808591604233,0.8737894296646118,0.6440802216529846,-0.015836570411920547,0.9083201885223389,0.39369240403175354,0.1542014479637146,0.9560164213180542,0.2677752375602722,0.20493273437023163,1.041445255279541,0.8230500817298889,0.32055068016052246,1.2397356033325195,0.6946298480033875,0.4038981795310974,1.3099828958511353,0.46979671716690063,0.08724372833967209,0.7202916145324707,0.30742329359054565,0.046435147523880005,0.9330476522445679,0.834148645401001,0.21882042288780212,0.9185914397239685,0.9475938677787781,-0.013960927724838257,0.9420217275619507,0.7985392212867737,-0.03418230637907982,0.8137717247009277,0.45371344685554504,0.03337407857179642,0.5683222413063049,0.3208133578300476,0.10683122277259827,0.9240735769271851,0.8697580695152283,-0.608756959438324,-1.100434422492981,-0.32853713631629944,-0.608756959438324,-1.100434422492981,-0.32853713631629944,0.314026802778244,1.0557764768600464,0.3020130693912506,0.08408055454492569,0.9551315903663635,0.7437084317207336,0.20644612610340118,0.9448700547218323,0.8242361545562744,-0.022166069597005844,0.872014045715332,0.651858925819397,-0.03750569745898247,0.7747255563735962,0.3902793526649475,0.257748544216156,0.8123008608818054,0.19600047171115875,0.19032716751098633,1.0382492542266846,0.8355579376220703,0.31726422905921936,1.2607736587524414,0.6944853067398071,0.429762065410614,1.329530954360962,0.37848377227783203,0.0,0.0,0.0,0.0,0.0,0.3370000123977661,0.00017663252947386354,0.2104998528957367,0.33717453479766846,0.00040151382563635707,0.4784996509552002,0.33741942048072815,0.0005479387473315,0.6529995203018188,0.33757346868515015,0.0006654143217019737,0.7929993867874146,0.3376970887184143,1.5699572170257567,1.5699672019958497,-8.465180124621838e-05,-6.184239737922326e-05,3.092119868961163e-05,-0.00010513207351323217
1635963565.0436127,5.0,0.0,0.3088412880897522,1.0603169202804565,0.3075600564479828,0.08875396847724915,0.9576173424720764,0.7335651516914368,0.1447669118642807,0.8120447397232056,0.7334932684898376,-0.027424808591604233,0.8737894296646118,0.6440802216529846,-0.015836570411920547,0.9083201885223389,0.39369240403175354,0.1542014479637146,0.9560164213180542,0.2677752375602722,0.20493273437023163,1.041445255279541,0.8230500817298889,0.32055068016052246,1.2397356033325195,0.6946298480033875,0.4038981795310974,1.3099828958511353,0.46979671716690063,0.08724372833967209,0.7202916145324707,0.30742329359054565,0.046435147523880005,0.9330476522445679,0.834148645401001,0.21882042288780212,0.9185914397239685,0.9475938677787781,-0.013960927724838257,0.9420217275619507,0.7985392212867737,-0.03418230637907982,0.8137717247009277,0.45371344685554504,0.03337407857179642,0.5683222413063049,0.3208133578300476,0.10683122277259827,0.9240735769271851,0.8697580695152283,-0.608756959438324,-1.100434422492981,-0.32853713631629944,-0.608756959438324,-1.100434422492981,-0.32853713631629944,0.314026802778244,1.0557764768600464,0.3020130693912506,0.08408055454492569,0.9551315903663635,0.7437084317207336,0.20644612610340118,0.9448700547218323,0.8242361545562744,-0.022166069597005844,0.872014045715332,0.651858925819397,-0.03750569745898247,0.7747255563735962,0.3902793526649475,0.257748544216156,0.8123008608818054,0.19600047171115875,0.19032716751098633,1.0382492542266846,0.8355579376220703,0.31726422905921936,1.2607736587524414,0.6944853067398071,0.429762065410614,1.329530954360962,0.37848377227783203,0.0,0.0,0.0,0.0,0.0,0.3370000123977661,0.00017663252947386354,0.2104998528957367,0.33717453479766846,0.00040151382563635707,0.4784996509552002,0.33741942048072815,0.0005479387473315,0.6529995203018188,0.33757346868515015,0.0006654143217019737,0.7929993867874146,0.3376970887184143,1.5699572170257567,1.5699672019958497,-8.465180124621838e-05,-6.184239737922326e-05,3.092119868961163e-05,-0.00010513207351323217
1635963565.0763907,5.0,0.0,0.3088412880897522,1.0603169202804565,0.3075600564479828,0.08875396847724915,0.9576173424720764,0.7335651516914368,0.1447669118642807,0.8120447397232056,0.7334932684898376,-0.027424808591604233,0.8737894296646118,0.6440802216529846,-0.015836570411920547,0.9083201885223389,0.39369240403175354,0.1542014479637146,0.9560164213180542,0.2677752375602722,0.20493273437023163,1.041445255279541,0.8230500817298889,0.32055068016052246,1.2397356033325195,0.6946298480033875,0.4038981795310974,1.3099828958511353,0.46979671716690063,0.08724372833967209,0.7202916145324707,0.30742329359054565,0.046435147523880005,0.9330476522445679,0.834148645401001,0.21882042288780212,0.9185914397239685,0.9475938677787781,-0.013960927724838257,0.9420217275619507,0.7985392212867737,-0.03418230637907982,0.8137717247009277,0.45371344685554504,0.03337407857179642,0.5683222413063049,0.3208133578300476,0.10683122277259827,0.9240735769271851,0.8697580695152283,-0.608756959438324,-1.100434422492981,-0.32853713631629944,-0.608756959438324,-1.100434422492981,-0.32853713631629944,0.3088412880897522,1.0603169202804565,0.3075600564479828,0.08082715421915054,0.95391845703125,0.7489084601402283,0.20319272577762604,0.943656861782074,0.8294361233711243,-0.03141891211271286,0.8729281425476074,0.6624526381492615,-0.046758536249399185,0.7756396532058716,0.400873064994812,0.23188818991184235,0.8538010120391846,0.19452854990959167,0.19307321310043335,1.0349087715148926,0.8353642225265503,0.3216325342655182,1.2553942203521729,0.6925696730613708,0.4358491897583008,1.351658821105957,0.3844658136367798,0.0,0.0,0.0,0.0,0.0,0.3370000123977661,0.00017663252947386354,0.2104998528957367,0.33717453479766846,0.00040151382563635707,0.4784996509552002,0.33741942048072815,0.0005479387473315,0.6529995203018188,0.33757346868515015,0.0006654143217019737,0.7929993867874146,0.3376970887184143,1.5699572170257567,1.5699672019958497,-8.465180124621838e-05,-6.184239737922326e-05,3.092119868961163e-05,-0.00010513207351323217
1635963565.0766594,5.0,0.0,0.3088412880897522,1.0603169202804565,0.3075600564479828,0.08875396847724915,0.9576173424720764,0.7335651516914368,0.1447669118642807,0.8120447397232056,0.7334932684898376,-0.027424808591604233,0.8737894296646118,0.6440802216529846,-0.015836570411920547,0.9083201885223389,0.39369240403175354,0.1542014479637146,0.9560164213180542,0.2677752375602722,0.20493273437023163,1.041445255279541,0.8230500817298889,0.32055068016052246,1.2397356033325195,0.6946298480033875,0.4038981795310974,1.3099828958511353,0.46979671716690063,0.08724372833967209,0.7202916145324707,0.30742329359054565,0.046435147523880005,0.9330476522445679,0.834148645401001,0.21882042288780212,0.9185914397239685,0.9475938677787781,-0.013960927724838257,0.9420217275619507,0.7985392212867737,-0.03418230637907982,0.8137717247009277,0.45371344685554504,0.03337407857179642,0.5683222413063049,0.3208133578300476,0.10683122277259827,0.9240735769271851,0.8697580695152283,-0.608756959438324,-1.100434422492981,-0.32853713631629944,-0.608756959438324,-1.100434422492981,-0.32853713631629944,0.3088412880897522,1.0603169202804565,0.3075600564479828,0.08082715421915054,0.95391845703125,0.7489084601402283,0.20319272577762604,0.943656861782074,0.8294361233711243,-0.03141891211271286,0.8729281425476074,0.6624526381492615,-0.046758536249399185,0.7756396532058716,0.400873064994812,0.23188818991184235,0.8538010120391846,0.19452854990959167,0.19307321310043335,1.0349087715148926,0.8353642225265503,0.3216325342655182,1.2553942203521729,0.6925696730613708,0.4358491897583008,1.351658821105957,0.3844658136367798,0.0,0.0,0.0,0.0,0.0,0.3370000123977661,0.00017663252947386354,0.2104998528957367,0.33717453479766846,0.00040151382563635707,0.4784996509552002,0.33741942048072815,0.0005479387473315,0.6529995203018188,0.33757346868515015,0.0006654143217019737,0.7929993867874146,0.3376970887184143,1.5699572170257567,1.5699672019958497,-8.465180124621838e-05,-6.184239737922326e-05,3.092119868961163e-05,-0.00010513207351323217
1635963565.109382,5.0,0.0,0.3056873083114624,1.0734003782272339,0.3174992799758911,0.09573225677013397,0.9639590382575989,0.7393606305122375,0.15179646015167236,0.8172621130943298,0.7386208772659302,-0.02188302017748356,0.8826736211776733,0.6510336995124817,-0.02790690027177334,0.9170615673065186,0.406578004360199,0.14048272371292114,0.9581763744354248,0.2880913317203522,0.21334753930568695,1.0452444553375244,0.8276875615119934,0.3207162618637085,1.239288330078125,0.6944580674171448,0.4056515693664551,1.3045405149459839,0.46830877661705017,0.09400858730077744,0.7601304054260254,0.30818432569503784,0.05644696578383446,0.9513964653015137,0.8409571647644043,0.21005363762378693,0.9174786806106567,0.9454002380371094,-0.01517326571047306,0.9653781056404114,0.8100834488868713,-0.03956494480371475,0.8988003730773926,0.5074297189712524,0.027599209919571877,0.5700594782829285,0.32062989473342896,0.12806719541549683,0.937414824962616,0.8718308210372925,-0.608756959438324,-1.100434422492981,-0.32853713631629944,-0.608756959438324,-1.100434422492981,-0.32853713631629944,0.3056873083114624,1.0734003782272339,0.3174992799758911,0.07991600781679153,0.9644476175308228,0.7593771815299988,0.1993740350008011,0.9380701780319214,0.8406013250350952,-0.032922226935625076,0.884070634841919,0.6731200814247131,-0.05485460162162781,0.8242056965827942,0.4009815454483032,0.2257637232542038,0.8998618125915527,0.1963825225830078,0.19275425374507904,1.0448246002197266,0.8456343412399292,0.31915923953056335,1.2650275230407715,0.7004995346069336,0.43404102325439453,1.3592225313186646,0.39200359582901,0.0,0.0,0.0,0.0,0.0,0.3370000123977661,0.00017663252947386354,0.2104998528957367,0.33717453479766846,0.00040151382563635707,0.4784996509552002,0.33741942048072815,0.0005479387473315,0.6529995203018188,0.33757346868515015,0.0006654143217019737,0.7929993867874146,0.3376970887184143,1.5699572170257567,1.5699672019958497,-8.465180124621838e-05,-6.184239737922326e-05,3.092119868961163e-05,-0.00010513207351323217
1635963565.1095905,5.0,0.0,0.3056873083114624,1.0734003782272339,0.3174992799758911,0.09573225677013397,0.9639590382575989,0.7393606305122375,0.15179646015167236,0.8172621130943298,0.7386208772659302,-0.02188302017748356,0.8826736211776733,0.6510336995124817,-0.02790690027177334,0.9170615673065186,0.406578004360199,0.14048272371292114,0.9581763744354248,0.2880913317203522,0.21334753930568695,1.0452444553375244,0.8276875615119934,0.3207162618637085,1.239288330078125,0.6944580674171448,0.4056515693664551,1.3045405149459839,0.46830877661705017,0.09400858730077744,0.7601304054260254,0.30818432569503784,0.05644696578383446,0.9513964653015137,0.8409571647644043,0.21005363762378693,0.9174786806106567,0.9454002380371094,-0.01517326571047306,0.9653781056404114,0.8100834488868713,-0.03956494480371475,0.8988003730773926,0.5074297189712524,0.027599209919571877,0.5700594782829285,0.32062989473342896,0.12806719541549683,0.937414824962616,0.8718308210372925,-0.608756959438324,-1.100434422492981,-0.32853713631629944,-0.608756959438324,-1.100434422492981,-0.32853713631629944,0.3056873083114624,1.0734003782272339,0.3174992799758911,0.07991600781679153,0.9644476175308228,0.7593771815299988,0.1993740350008011,0.9380701780319214,0.8406013250350952,-0.032922226935625076,0.884070634841919,0.6731200814247131,-0.05485460162162781,0.8242056965827942,0.4009815454483032,0.2257637232542038,0.8998618125915527,0.1963825225830078,0.19275425374507904,1.0448246002197266,0.8456343412399292,0.31915923953056335,1.2650275230407715,0.7004995346069336,0.43404102325439453,1.3592225313186646,0.39200359582901,0.0,0.0,0.0,0.0,0.0,0.3370000123977661,0.00017663252947386354,0.2104998528957367,0.33717453479766846,0.00040151382563635707,0.4784996509552002,0.33741942048072815,0.0005479387473315,0.6529995203018188,0.33757346868515015,0.0006654143217019737,0.7929993867874146,0.3376970887184143,1.5699572170257567,1.5699672019958497,-8.465180124621838e-05,-6.184239737922326e-05,3.092119868961163e-05,-0.00010513207351323217
1635963565.1423967,5.0,0.0,0.3056873083114624,1.0734003782272339,0.3174992799758911,0.09573225677013397,0.9639590382575989,0.7393606305122375,0.15179646015167236,0.8172621130943298,0.7386208772659302,-0.02188302017748356,0.8826736211776733,0.6510336995124817,-0.02790690027177334,0.9170615673065186,0.406578004360199,0.14048272371292114,0.9581763744354248,0.2880913317203522,0.21334753930568695,1.0452444553375244,0.8276875615119934,0.3207162618637085,1.239288330078125,0.6944580674171448,0.4056515693664551,1.3045405149459839,0.46830877661705017,0.09400858730077744,0.7601304054260254,0.30818432569503784,0.05644696578383446,0.9513964653015137,0.8409571647644043,0.21005363762378693,0.9174786806106567,0.9454002380371094,-0.01517326571047306,0.9653781056404114,0.8100834488868713,-0.03956494480371475,0.8988003730773926,0.5074297189712524,0.027599209919571877,0.5700594782829285,0.32062989473342896,0.12806719541549683,0.937414824962616,0.8718308210372925,-0.608756959438324,-1.100434422492981,-0.32853713631629944,-0.608756959438324,-1.100434422492981,-0.32853713631629944,0.3056873083114624,1.0734003782272339,0.3174992799758911,0.08519762009382248,0.9584677219390869,0.7605277895927429,0.20465564727783203,0.9320902824401855,0.8417518734931946,-0.029017949476838112,0.8795319199562073,0.6747539639472961,-0.050950322300195694,0.8196669220924377,0.4026154577732086,0.23410385847091675,0.8892670273780823,0.20203828811645508,0.19941319525241852,1.0374035835266113,0.8463016152381897,0.32078757882118225,1.2567594051361084,0.6956930756568909,0.4370090067386627,1.3460474014282227,0.3862411081790924,0.0,0.0,0.0,0.0,0.0,0.3370000123977661,0.00017663252947386354,0.2104998528957367,0.33717453479766846,0.00040151382563635707,0.4784996509552002,0.33741942048072815,0.0005479387473315,0.6529995203018188,0.33757346868515015,0.0006654143217019737,0.7929993867874146,0.3376970887184143,1.5699572170257567,1.5699672019958497,-8.465180124621838e-05,-6.184239737922326e-05,3.092119868961163e-05,-0.00010513207351323217
1635963565.1426954,5.0,0.0,0.3056873083114624,1.0734003782272339,0.3174992799758911,0.09573225677013397,0.9639590382575989,0.7393606305122375,0.15179646015167236,0.8172621130943298,0.7386208772659302,-0.02188302017748356,0.8826736211776733,0.6510336995124817,-0.02790690027177334,0.9170615673065186,0.406578004360199,0.14048272371292114,0.9581763744354248,0.2880913317203522,0.21334753930568695,1.0452444553375244,0.8276875615119934,0.3207162618637085,1.239288330078125,0.6944580674171448,0.4056515693664551,1.3045405149459839,0.46830877661705017,0.09400858730077744,0.7601304054260254,0.30818432569503784,0.05644696578383446,0.9513964653015137,0.8409571647644043,0.21005363762378693,0.9174786806106567,0.9454002380371094,-0.01517326571047306,0.9653781056404114,0.8100834488868713,-0.03956494480371475,0.8988003730773926,0.5074297189712524,0.027599209919571877,0.5700594782829285,0.32062989473342896,0.12806719541549683,0.937414824962616,0.8718308210372925,-0.608756959438324,-1.100434422492981,-0.32853713631629944,-0.608756959438324,-1.100434422492981,-0.32853713631629944,0.3056873083114624,1.0734003782272339,0.3174992799758911,0.08519762009382248,0.9584677219390869,0.7605277895927429,0.20465564727783203,0.9320902824401855,0.8417518734931946,-0.029017949476838112,0.8795319199562073,0.6747539639472961,-0.050950322300195694,0.8196669220924377,0.4026154577732086,0.23410385847091675,0.8892670273780823,0.20203828811645508,0.19941319525241852,1.0374035835266113,0.8463016152381897,0.32078757882118225,1.2567594051361084,0.6956930756568909,0.4370090067386627,1.3460474014282227,0.3862411081790924,0.0,0.0,0.0,0.0,0.0,0.3370000123977661,0.00017663252947386354,0.2104998528957367,0.33717453479766846,0.00040151382563635707,0.4784996509552002,0.33741942048072815,0.0005479387473315,0.6529995203018188,0.33757346868515015,0.0006654143217019737,0.7929993867874146,0.3376970887184143,1.5699572170257567,1.5699672019958497,-8.465180124621838e-05,-6.184239737922326e-05,3.092119868961163e-05,-0.00010513207351323217
1635963565.1753929,5.0,0.0,0.3056873083114624,1.0734003782272339,0.3174992799758911,0.09573225677013397,0.9639590382575989,0.7393606305122375,0.15179646015167236,0.8172621130943298,0.7386208772659302,-0.02188302017748356,0.8826736211776733,0.6510336995124817,-0.02790690027177334,0.9170615673065186,0.406578004360199,0.14048272371292114,0.9581763744354248,0.2880913317203522,0.21334753930568695,1.0452444553375244,0.8276875615119934,0.3207162618637085,1.239288330078125,0.6944580674171448,0.4056515693664551,1.3045405149459839,0.46830877661705017,0.07877513021230698,0.730582594871521,0.32841047644615173,0.04968176409602165,0.9440521597862244,0.8489600419998169,0.22444316744804382,0.9323091506958008,0.9562641978263855,-0.017802905291318893,0.957319974899292,0.8141365647315979,-0.05462418124079704,1.0135574340820312,0.5568499565124512,0.032076649367809296,0.5649505853652954,0.3195013403892517,0.1171664372086525,0.9307843446731567,0.8837835192680359,-0.608756959438324,-1.100434422492981,-0.32853713631629944,-0.608756959438324,-1.100434422492981,-0.32853713631629944,0.3056873083114624,1.0734003782272339,0.3174992799758911,0.08519762009382248,0.9584677219390869,0.7605277895927429,0.2101314812898636,0.9500728845596313,0.8372376561164856,-0.029017949476838112,0.8795319199562073,0.6747539639472961,-0.03583638370037079,0.9184556603431702,0.3980543613433838,0.24921779334545135,0.9880557656288147,0.19747720658779144,0.19941319525241852,1.0374035835266113,0.8463016152381897,0.32078757882118225,1.2567594051361084,0.6956930756568909,0.4370090067386627,1.3460474014282227,0.3862411081790924,0.0,0.0,0.0,0.0,0.0,0.3370000123977661,0.00017663252947386354,0.2104998528957367,0.33717453479766846,0.00040151382563635707,0.4784996509552002,0.33741942048072815,0.0005479387473315,0.6529995203018188,0.33757346868515015,0.0006654143217019737,0.7929993867874146,0.3376970887184143,1.5699572170257567,1.5699672019958497,-8.465180124621838e-05,-6.184239737922326e-05,3.092119868961163e-05,-0.00010513207351323217
1635963565.175671,5.0,0.0,0.3056873083114624,1.0734003782272339,0.3174992799758911,0.09573225677013397,0.9639590382575989,0.7393606305122375,0.15179646015167236,0.8172621130943298,0.7386208772659302,-0.02188302017748356,0.8826736211776733,0.6510336995124817,-0.02790690027177334,0.9170615673065186,0.406578004360199,0.14048272371292114,0.9581763744354248,0.2880913317203522,0.21334753930568695,1.0452444553375244,0.8276875615119934,0.3207162618637085,1.239288330078125,0.6944580674171448,0.4056515693664551,1.3045405149459839,0.46830877661705017,0.07877513021230698,0.730582594871521,0.32841047644615173,0.04968176409602165,0.9440521597862244,0.8489600419998169,0.22444316744804382,0.9323091506958008,0.9562641978263855,-0.017802905291318893,0.957319974899292,0.8141365647315979,-0.05462418124079704,1.0135574340820312,0.5568499565124512,0.032076649367809296,0.5649505853652954,0.3195013403892517,0.1171664372086525,0.9307843446731567,0.8837835192680359,-0.608756959438324,-1.100434422492981,-0.32853713631629944,-0.608756959438324,-1.100434422492981,-0.32853713631629944,0.3056873083114624,1.0734003782272339,0.3174992799758911,0.08519762009382248,0.9584677219390869,0.7605277895927429,0.2101314812898636,0.9500728845596313,0.8372376561164856,-0.029017949476838112,0.8795319199562073,0.6747539639472961,-0.03583638370037079,0.9184556603431702,0.3980543613433838,0.24921779334545135,0.9880557656288147,0.19747720658779144,0.19941319525241852,1.0374035835266113,0.8463016152381897,0.32078757882118225,1.2567594051361084,0.6956930756568909,0.4370090067386627,1.3460474014282227,0.3862411081790924,0.0,0.0,0.0,0.0,0.0,0.3370000123977661,0.00017663252947386354,0.2104998528957367,0.33717453479766846,0.00040151382563635707,0.4784996509552002,0.33741942048072815,0.0005479387473315,0.6529995203018188,0.33757346868515015,0.0006654143217019737,0.7929993867874146,0.3376970887184143,1.5699572170257567,1.5699672019958497,-8.465180124621838e-05,-6.184239737922326e-05,3.092119868961163e-05,-0.00010513207351323217
1635963565.2084,5.0,0.0,0.30665892362594604,1.0875145196914673,0.31765684485435486,0.09626489132642746,0.962627649307251,0.7387502789497375,0.15435397624969482,0.8126353621482849,0.7363079786300659,-0.02747654728591442,0.8811368942260742,0.6607875823974609,-0.05215469002723694,0.9452369213104248,0.42546406388282776,0.12198585271835327,0.9611062407493591,0.29445990920066833,0.2200063318014145,1.0441185235977173,0.8167129755020142,0.34228280186653137,1.2251379489898682,0.68189537525177,0.41002437472343445,1.3104298114776611,0.45925334095954895,0.07877513021230698,0.730582594871521,0.32841047644615173,0.04968176409602165,0.9440521597862244,0.8489600419998169,0.22444316744804382,0.9323091506958008,0.9562641978263855,-0.017802905291318893,0.957319974899292,0.8141365647315979,-0.05462418124079704,1.0135574340820312,0.5568499565124512,0.032076649367809296,0.5649505853652954,0.3195013403892517,0.1171664372086525,0.9307843446731567,0.8837835192680359,-0.608756959438324,-1.100434422492981,-0.32853713631629944,-0.608756959438324,-1.100434422492981,-0.32853713631629944,0.30665892362594604,1.0875145196914673,0.31765684485435486,0.08718341588973999,0.9572370648384094,0.756926417350769,0.2121172696352005,0.9488421678543091,0.8336362838745117,-0.03343360498547554,0.8778038620948792,0.6809322237968445,-0.0615711510181427,0.9508894681930542,0.41262087225914,0.22171105444431305,0.9767048358917236,0.19951054453849792,0.20780043303966522,1.036670207977295,0.8329205513000488,0.3471093475818634,1.242904782295227,0.6793236136436462,0.44069141149520874,1.3607317209243774,0.3717533349990845,0.0,0.0,0.0,0.0,0.0,0.3370000123977661,0.00017663252947386354,0.2104998528957367,0.33717453479766846,0.00040151382563635707,0.4784996509552002,0.33741942048072815,0.0005479387473315,0.6529995203018188,0.33757346868515015,0.0006654143217019737,0.7929993867874146,0.3376970887184143,1.5699572170257567,1.5699672019958497,-8.465180124621838e-05,-6.184239737922326e-05,3.092119868961163e-05,-0.00010513207351323217
1635963565.2086945,5.0,0.0,0.30665892362594604,1.0875145196914673,0.31765684485435486,0.09626489132642746,0.962627649307251,0.7387502789497375,0.15435397624969482,0.8126353621482849,0.7363079786300659,-0.02747654728591442,0.8811368942260742,0.6607875823974609,-0.05215469002723694,0.9452369213104248,0.42546406388282776,0.12198585271835327,0.9611062407493591,0.29445990920066833,0.2200063318014145,1.0441185235977173,0.8167129755020142,0.34228280186653137,1.2251379489898682,0.68189537525177,0.41002437472343445,1.3104298114776611,0.45925334095954895,0.07877513021230698,0.730582594871521,0.32841047644615173,0.04968176409602165,0.9440521597862244,0.8489600419998169,0.22444316744804382,0.9323091506958008,0.9562641978263855,-0.017802905291318893,0.957319974899292,0.8141365647315979,-0.05462418124079704,1.0135574340820312,0.5568499565124512,0.032076649367809296,0.5649505853652954,0.3195013403892517,0.1171664372086525,0.9307843446731567,0.8837835192680359,-0.608756959438324,-1.100434422492981,-0.32853713631629944,-0.608756959438324,-1.100434422492981,-0.32853713631629944,0.30665892362594604,1.0875145196914673,0.31765684485435486,0.08718341588973999,0.9572370648384094,0.756926417350769,0.2121172696352005,0.9488421678543091,0.8336362838745117,-0.03343360498547554,0.8778038620948792,0.6809322237968445,-0.0615711510181427,0.9508894681930542,0.41262087225914,0.22171105444431305,0.9767048358917236,0.19951054453849792,0.20780043303966522,1.036670207977295,0.8329205513000488,0.3471093475818634,1.242904782295227,0.6793236136436462,0.44069141149520874,1.3607317209243774,0.3717533349990845,0.0,0.0,0.0,0.0,0.0,0.3370000123977661,0.00017663252947386354,0.2104998528957367,0.33717453479766846,0.00040151382563635707,0.4784996509552002,0.33741942048072815,0.0005479387473315,0.6529995203018188,0.33757346868515015,0.0006654143217019737,0.7929993867874146,0.3376970887184143,1.5699572170257567,1.5699672019958497,-8.465180124621838e-05,-6.184239737922326e-05,3.092119868961163e-05,-0.00010513207351323217
1635963565.24141,5.0,0.0,0.30665892362594604,1.0875145196914673,0.31765684485435486,0.09626489132642746,0.962627649307251,0.7387502789497375,0.15435397624969482,0.8126353621482849,0.7363079786300659,-0.02747654728591442,0.8811368942260742,0.6607875823974609,-0.05215469002723694,0.9452369213104248,0.42546406388282776,0.12198585271835327,0.9611062407493591,0.29445990920066833,0.2200063318014145,1.0441185235977173,0.8167129755020142,0.34228280186653137,1.2251379489898682,0.68189537525177,0.41002437472343445,1.3104298114776611,0.45925334095954895,0.10054915398359299,0.8262678384780884,0.33932557702064514,0.049088675528764725,0.9426462054252625,0.852423369884491,0.21607911586761475,0.9323280453681946,0.9547749161720276,-0.01139782927930355,0.9529283046722412,0.8215422034263611,-0.07580826431512833,1.0891693830490112,0.591153085231781,-0.04734829440712929,0.6741845011711121,0.33900535106658936,0.10957517474889755,0.9323640465736389,0.8833045959472656,-0.608756959438324,-1.100434422492981,-0.32853713631629944,-0.608756959438324,-1.100434422492981,-0.32853713631629944,0.30665892362594604,1.0875145196914673,0.31765684485435486,0.08718341588973999,0.9572370648384094,0.756926417350769,0.21220912039279938,0.9495118856430054,0.8335569500923157,-0.03343360498547554,0.8778038620948792,0.6809322237968445,-0.0615711510181427,0.9508894681930542,0.41262087225914,0.22171105444431305,0.9767048358917236,0.19951054453849792,0.20780043303966522,1.036670207977295,0.8329205513000488,0.3471093475818634,1.242904782295227,0.6793236136436462,0.44069141149520874,1.3607317209243774,0.3717533349990845,0.0,0.0,0.0,0.0,0.0,0.3370000123977661,0.00017663252947386354,0.2104998528957367,0.33717453479766846,0.00040151382563635707,0.4784996509552002,0.33741942048072815,0.0005479387473315,0.6529995203018188,0.33757346868515015,0.0006654143217019737,0.7929993867874146,0.3376970887184143,1.5699572170257567,1.5699672019958497,-8.465180124621838e-05,-6.184239737922326e-05,3.092119868961163e-05,-0.00010513207351323217
1635963565.2416456,5.0,0.0,0.30665892362594604,1.0875145196914673,0.31765684485435486,0.09626489132642746,0.962627649307251,0.7387502789497375,0.15435397624969482,0.8126353621482849,0.7363079786300659,-0.02747654728591442,0.8811368942260742,0.6607875823974609,-0.05215469002723694,0.9452369213104248,0.42546406388282776,0.12198585271835327,0.9611062407493591,0.29445990920066833,0.2200063318014145,1.0441185235977173,0.8167129755020142,0.34228280186653137,1.2251379489898682,0.68189537525177,0.41002437472343445,1.3104298114776611,0.45925334095954895,0.10054915398359299,0.8262678384780884,0.33932557702064514,0.049088675528764725,0.9426462054252625,0.852423369884491,0.21607911586761475,0.9323280453681946,0.9547749161720276,-0.01139782927930355,0.9529283046722412,0.8215422034263611,-0.07580826431512833,1.0891693830490112,0.591153085231781,-0.04734829440712929,0.6741845011711121,0.33900535106658936,0.10957517474889755,0.9323640465736389,0.8833045959472656,-0.608756959438324,-1.100434422492981,-0.32853713631629944,-0.608756959438324,-1.100434422492981,-0.32853713631629944,0.30665892362594604,1.0875145196914673,0.31765684485435486,0.08718341588973999,0.9572370648384094,0.756926417350769,0.21220912039279938,0.9495118856430054,0.8335569500923157,-0.03343360498547554,0.8778038620948792,0.6809322237968445,-0.0615711510181427,0.9508894681930542,0.41262087225914,0.22171105444431305,0.9767048358917236,0.19951054453849792,0.20780043303966522,1.036670207977295,0.8329205513000488,0.3471093475818634,1.242904782295227,0.6793236136436462,0.44069141149520874,1.3607317209243774,0.3717533349990845,0.0,0.0,0.0,0.0,0.0,0.3370000123977661,0.00017663252947386354,0.2104998528957367,0.33717453479766846,0.00040151382563635707,0.4784996509552002,0.33741942048072815,0.0005479387473315,0.6529995203018188,0.33757346868515015,0.0006654143217019737,0.7929993867874146,0.3376970887184143,1.5699572170257567,1.5699672019958497,-8.465180124621838e-05,-6.184239737922326e-05,3.092119868961163e-05,-0.00010513207351323217
1635963565.274376,5.0,0.0,0.29246535897254944,1.1337076425552368,0.317341685295105,0.09346582740545273,0.9882152676582336,0.7536094188690186,0.15978556871414185,0.8207265734672546,0.7428695559501648,-0.0297362320125103,0.9025611877441406,0.6733149290084839,-0.0945655107498169,0.9720712900161743,0.4509850740432739,0.1028481274843216,0.9851561784744263,0.3101860284805298,0.21666789054870605,1.0738693475723267,0.833903968334198,0.3395632207393646,1.2433420419692993,0.7031443119049072,0.4155659079551697,1.31269109249115,0.44920822978019714,0.10054915398359299,0.8262678384780884,0.33932557702064514,0.049088675528764725,0.9426462054252625,0.852423369884491,0.21607911586761475,0.9323280453681946,0.9547749161720276,-0.01139782927930355,0.9529283046722412,0.8215422034263611,-0.07580826431512833,1.0891693830490112,0.591153085231781,-0.04734829440712929,0.6741845011711121,0.33900535106658936,0.10957517474889755,0.9323640465736389,0.8833045959472656,-0.608756959438324,-1.100434422492981,-0.32853713631629944,-0.608756959438324,-1.100434422492981,-0.32853713631629944,0.29246535897254944,1.1337076425552368,0.317341685295105,0.09071066230535507,0.9862009286880493,0.7596495747566223,0.21573635935783386,0.9784757494926453,0.836280107498169,-0.02743319794535637,0.9040634632110596,0.6826516389846802,-0.10237357765436172,0.9844146966934204,0.4256461262702942,0.1865781992673874,1.003566861152649,0.2195604145526886,0.2088545262813568,1.068338394165039,0.8366475105285645,0.35447102785110474,1.2691434621810913,0.681712806224823,0.44945192337036133,1.3558094501495361,0.36436763405799866,0.0,0.0,0.0,0.0,0.0,0.3370000123977661,0.00017663252947386354,0.2104998528957367,0.33717453479766846,0.00040151382563635707,0.4784996509552002,0.33741942048072815,0.0005479387473315,0.6529995203018188,0.33757346868515015,0.0006654143217019737,0.7929993867874146,0.3376970887184143,1.5699572170257567,1.5699672019958497,-8.465180124621838e-05,-6.184239737922326e-05,3.092119868961163e-05,-0.00010513207351323217
1635963565.2748055,5.0,0.0,0.29246535897254944,1.1337076425552368,0.317341685295105,0.09346582740545273,0.9882152676582336,0.7536094188690186,0.15978556871414185,0.8207265734672546,0.7428695559501648,-0.0297362320125103,0.9025611877441406,0.6733149290084839,-0.0945655107498169,0.9720712900161743,0.4509850740432739,0.1028481274843216,0.9851561784744263,0.3101860284805298,0.21666789054870605,1.0738693475723267,0.833903968334198,0.3395632207393646,1.2433420419692993,0.7031443119049072,0.4155659079551697,1.31269109249115,0.44920822978019714,0.10054915398359299,0.8262678384780884,0.33932557702064514,0.049088675528764725,0.9426462054252625,0.852423369884491,0.21607911586761475,0.9323280453681946,0.9547749161720276,-0.01139782927930355,0.9529283046722412,0.8215422034263611,-0.07580826431512833,1.0891693830490112,0.591153085231781,-0.04734829440712929,0.6741845011711121,0.33900535106658936,0.10957517474889755,0.9323640465736389,0.8833045959472656,-0.608756959438324,-1.100434422492981,-0.32853713631629944,-0.608756959438324,-1.100434422492981,-0.32853713631629944,0.29246535897254944,1.1337076425552368,0.317341685295105,0.09071066230535507,0.9862009286880493,0.7596495747566223,0.21573635935783386,0.9784757494926453,0.836280107498169,-0.02743319794535637,0.9040634632110596,0.6826516389846802,-0.10237357765436172,0.9844146966934204,0.4256461262702942,0.1865781992673874,1.003566861152649,0.2195604145526886,0.2088545262813568,1.068338394165039,0.8366475105285645,0.35447102785110474,1.2691434621810913,0.681712806224823,0.44945192337036133,1.3558094501495361,0.36436763405799866,0.0,0.0,0.0,0.0,0.0,0.3370000123977661,0.00017663252947386354,0.2104998528957367,0.33717453479766846,0.00040151382563635707,0.4784996509552002,0.33741942048072815,0.0005479387473315,0.6529995203018188,0.33757346868515015,0.0006654143217019737,0.7929993867874146,0.3376970887184143,1.5699572170257567,1.5699672019958497,-8.465180124621838e-05,-6.184239737922326e-05,3.092119868961163e-05,-0.00010513207351323217
1635963565.3073983,5.0,0.0,0.29246535897254944,1.1337076425552368,0.317341685295105,0.09346582740545273,0.9882152676582336,0.7536094188690186,0.15978556871414185,0.8207265734672546,0.7428695559501648,-0.0297362320125103,0.9025611877441406,0.6733149290084839,-0.0945655107498169,0.9720712900161743,0.4509850740432739,0.1028481274843216,0.9851561784744263,0.3101860284805298,0.21666789054870605,1.0738693475723267,0.833903968334198,0.3395632207393646,1.2433420419692993,0.7031443119049072,0.4155659079551697,1.31269109249115,0.44920822978019714,0.09938351809978485,0.8314177989959717,0.3321514129638672,0.06588177382946014,0.9578014016151428,0.8806849122047424,0.22991295158863068,0.9456536769866943,0.9646986126899719,-0.01519937627017498,0.9697006940841675,0.8467460870742798,-0.09554960578680038,1.1141517162322998,0.6237075924873352,-0.03753014653921127,0.7261728644371033,0.3507000803947449,0.14696292579174042,0.9459021687507629,0.9146237373352051,-0.608756959438324,-1.100434422492981,-0.32853713631629944,-0.608756959438324,-1.100434422492981,-0.32853713631629944,0.29246535897254944,1.1337076425552368,0.317341685295105,0.09071066230535507,0.9862009286880493,0.7596495747566223,0.22184503078460693,0.976272463798523,0.8249837160110474,-0.02743319794535637,0.9040634632110596,0.6826516389846802,-0.10237357765436172,0.9844146966934204,0.4256461262702942,0.1865781992673874,1.003566861152649,0.2195604145526886,0.2088545262813568,1.068338394165039,0.8366475105285645,0.35447102785110474,1.2691434621810913,0.681712806224823,0.44945192337036133,1.3558094501495361,0.36436763405799866,0.0,0.0,0.0,0.0,0.0,0.3370000123977661,0.00017663252947386354,0.2104998528957367,0.33717453479766846,0.00040151382563635707,0.4784996509552002,0.33741942048072815,0.0005479387473315,0.6529995203018188,0.33757346868515015,0.0006654143217019737,0.7929993867874146,0.3376970887184143,1.5699572170257567,1.5699672019958497,-8.465180124621838e-05,-6.184239737922326e-05,3.092119868961163e-05,-0.00010513207351323217
1635963565.3076758,5.0,0.0,0.29246535897254944,1.1337076425552368,0.317341685295105,0.09346582740545273,0.9882152676582336,0.7536094188690186,0.15978556871414185,0.8207265734672546,0.7428695559501648,-0.0297362320125103,0.9025611877441406,0.6733149290084839,-0.0945655107498169,0.9720712900161743,0.4509850740432739,0.1028481274843216,0.9851561784744263,0.3101860284805298,0.21666789054870605,1.0738693475723267,0.833903968334198,0.3395632207393646,1.2433420419692993,0.7031443119049072,0.4155659079551697,1.31269109249115,0.44920822978019714,0.09938351809978485,0.8314177989959717,0.3321514129638672,0.06588177382946014,0.9578014016151428,0.8806849122047424,0.22991295158863068,0.9456536769866943,0.9646986126899719,-0.01519937627017498,0.9697006940841675,0.8467460870742798,-0.09554960578680038,1.1141517162322998,0.6237075924873352,-0.03753014653921127,0.7261728644371033,0.3507000803947449,0.14696292579174042,0.9459021687507629,0.9146237373352051,-0.608756959438324,-1.100434422492981,-0.32853713631629944,-0.608756959438324,-1.100434422492981,-0.32853713631629944,0.29246535897254944,1.1337076425552368,0.317341685295105,0.09071066230535507,0.9862009286880493,0.7596495747566223,0.22184503078460693,0.976272463798523,0.8249837160110474,-0.02743319794535637,0.9040634632110596,0.6826516389846802,-0.10237357765436172,0.9844146966934204,0.4256461262702942,0.1865781992673874,1.003566861152649,0.2195604145526886,0.2088545262813568,1.068338394165039,0.8366475105285645,0.35447102785110474,1.2691434621810913,0.681712806224823,0.44945192337036133,1.3558094501495361,0.36436763405799866,0.0,0.0,0.0,0.0,0.0,0.3370000123977661,0.00017663252947386354,0.2104998528957367,0.33717453479766846,0.00040151382563635707,0.4784996509552002,0.33741942048072815,0.0005479387473315,0.6529995203018188,0.33757346868515015,0.0006654143217019737,0.7929993867874146,0.3376970887184143,1.5699572170257567,1.5699672019958497,-8.465180124621838e-05,-6.184239737922326e-05,3.092119868961163e-05,-0.00010513207351323217
1635963565.3404253,5.0,0.0,0.2595852315425873,1.1849725246429443,0.3435533046722412,0.11166703701019287,0.974450409412384,0.7564539909362793,0.15696458518505096,0.836728572845459,0.7410770058631897,-0.0274049062281847,0.9062142968177795,0.6885405778884888,-0.12100309878587723,0.9804216623306274,0.48615965247154236,0.08514434844255447,0.9900313019752502,0.3565184772014618,0.2507389783859253,1.0426865816116333,0.8243674039840698,0.3570909798145294,1.239875316619873,0.6946382522583008,0.41813358664512634,1.3166142702102661,0.4652559161186218,0.09938351809978485,0.8314177989959717,0.3321514129638672,0.06588177382946014,0.9578014016151428,0.8806849122047424,0.22991295158863068,0.9456536769866943,0.9646986126899719,-0.01519937627017498,0.9697006940841675,0.8467460870742798,-0.09554960578680038,1.1141517162322998,0.6237075924873352,-0.03753014653921127,0.7261728644371033,0.3507000803947449,0.14696292579174042,0.9459021687507629,0.9146237373352051,-0.608756959438324,-1.100434422492981,-0.32853713631629944,-0.608756959438324,-1.100434422492981,-0.32853713631629944,0.2595852315425873,1.1849725246429443,0.3435533046722412,0.10717245191335678,0.9621552228927612,0.7739279270172119,0.23758827149868011,0.9524969458580017,0.8407244086265564,-0.027623960748314857,0.8970182538032532,0.7089639902114868,-0.14050507545471191,0.9853343367576599,0.46900078654289246,0.16061262786388397,0.9991155862808228,0.28066742420196533,0.24196885526180267,1.027292251586914,0.838891863822937,0.360917329788208,1.2508679628372192,0.692615270614624,0.444103866815567,1.3569060564041138,0.37785154581069946,0.0,0.0,0.0,0.0,0.0,0.3370000123977661,0.00017663252947386354,0.2104998528957367,0.33717453479766846,0.00040151382563635707,0.4784996509552002,0.33741942048072815,0.0005479387473315,0.6529995203018188,0.33757346868515015,0.0006654143217019737,0.7929993867874146,0.3376970887184143,1.5699572170257567,1.5699672019958497,-8.465180124621838e-05,-6.184239737922326e-05,3.092119868961163e-05,-0.00010513207351323217
1635963565.3408244,5.0,0.0,0.2595852315425873,1.1849725246429443,0.3435533046722412,0.11166703701019287,0.974450409412384,0.7564539909362793,0.15696458518505096,0.836728572845459,0.7410770058631897,-0.0274049062281847,0.9062142968177795,0.6885405778884888,-0.12100309878587723,0.9804216623306274,0.48615965247154236,0.08514434844255447,0.9900313019752502,0.3565184772014618,0.2507389783859253,1.0426865816116333,0.8243674039840698,0.3570909798145294,1.239875316619873,0.6946382522583008,0.41813358664512634,1.3166142702102661,0.4652559161186218,0.09938351809978485,0.8314177989959717,0.3321514129638672,0.06588177382946014,0.9578014016151428,0.8806849122047424,0.22991295158863068,0.9456536769866943,0.9646986126899719,-0.01519937627017498,0.9697006940841675,0.8467460870742798,-0.09554960578680038,1.1141517162322998,0.6237075924873352,-0.03753014653921127,0.7261728644371033,0.3507000803947449,0.14696292579174042,0.9459021687507629,0.9146237373352051,-0.608756959438324,-1.100434422492981,-0.32853713631629944,-0.608756959438324,-1.100434422492981,-0.32853713631629944,0.2595852315425873,1.1849725246429443,0.3435533046722412,0.10512076318264008,0.965133547782898,0.7747273445129395,0.235536590218544,0.9554752707481384,0.8415238857269287,-0.02906203083693981,0.8992962837219238,0.709201455116272,-0.14038658142089844,0.987557590007782,0.4684920608997345,0.16025908291339874,1.0015723705291748,0.27942323684692383,0.2393035590648651,1.030970811843872,0.8402532339096069,0.3594454824924469,1.2537275552749634,0.6937029957771301,0.4432305693626404,1.3590571880340576,0.37886011600494385,0.0,0.0,0.0,0.0,0.0,0.3370000123977661,0.00017663252947386354,0.2104998528957367,0.33717453479766846,0.00040151382563635707,0.4784996509552002,0.33741942048072815,0.0005479387473315,0.6529995203018188,0.33757346868515015,0.0006654143217019737,0.7929993867874146,0.3376970887184143,1.5699572170257567,1.5699672019958497,-8.465180124621838e-05,-6.184239737922326e-05,3.092119868961163e-05,-0.00010513207351323217
1635963565.373402,5.0,0.0,0.2595852315425873,1.1849725246429443,0.3435533046722412,0.11166703701019287,0.974450409412384,0.7564539909362793,0.15696458518505096,0.836728572845459,0.7410770058631897,-0.0274049062281847,0.9062142968177795,0.6885405778884888,-0.12100309878587723,0.9804216623306274,0.48615965247154236,0.08514434844255447,0.9900313019752502,0.3565184772014618,0.2507389783859253,1.0426865816116333,0.8243674039840698,0.3570909798145294,1.239875316619873,0.6946382522583008,0.41813358664512634,1.3166142702102661,0.4652559161186218,0.06999670714139938,0.7766014337539673,0.3341149389743805,0.08604571223258972,0.9698449969291687,0.8904743194580078,0.21607911586761475,0.9323280453681946,0.9547749161720276,-0.00986512377858162,0.9894264340400696,0.8666380047798157,-0.11386025696992874,1.1093275547027588,0.636322021484375,-0.021487032994627953,0.9004923701286316,0.44101276993751526,0.18195654451847076,0.9502635598182678,0.9143106341362,-0.608756959438324,-1.100434422492981,-0.32853713631629944,-0.608756959438324,-1.100434422492981,-0.32853713631629944,0.2595852315425873,1.1849725246429443,0.3435533046722412,0.10512076318264008,0.965133547782898,0.7747273445129395,0.235536590218544,0.9554752707481384,0.8415238857269287,-0.02906203083693981,0.8992962837219238,0.709201455116272,-0.14038658142089844,0.987557590007782,0.4684920608997345,0.16025908291339874,1.0015723705291748,0.27942323684692383,0.2393035590648651,1.030970811843872,0.8402532339096069,0.3594454824924469,1.2537275552749634,0.6937029957771301,0.4432305693626404,1.3590571880340576,0.37886011600494385,0.0,0.0,0.0,0.0,0.0,0.3370000123977661,0.00017663252947386354,0.2104998528957367,0.337175577878952,0.00040151382563635707,0.4784996509552002,0.3374217748641968,0.0005479387473315,0.6529995203018188,0.337576687335968,0.0006654143217019737,0.7929993867874146,0.3377009928226471,1.5699572170257567,1.5699622760772705,-8.465180124621838e-05,-6.184239737922326e-05,3.092119868961163e-05,-0.00010513207351323217
1635963565.3737037,5.0,0.0,0.2595852315425873,1.1849725246429443,0.3435533046722412,0.11166703701019287,0.974450409412384,0.7564539909362793,0.15696458518505096,0.836728572845459,0.7410770058631897,-0.0274049062281847,0.9062142968177795,0.6885405778884888,-0.12100309878587723,0.9804216623306274,0.48615965247154236,0.08514434844255447,0.9900313019752502,0.3565184772014618,0.2507389783859253,1.0426865816116333,0.8243674039840698,0.3570909798145294,1.239875316619873,0.6946382522583008,0.41813358664512634,1.3166142702102661,0.4652559161186218,0.06999670714139938,0.7766014337539673,0.3341149389743805,0.08604571223258972,0.9698449969291687,0.8904743194580078,0.21607911586761475,0.9323280453681946,0.9547749161720276,-0.00986512377858162,0.9894264340400696,0.8666380047798157,-0.11386025696992874,1.1093275547027588,0.636322021484375,-0.021487032994627953,0.9004923701286316,0.44101276993751526,0.18195654451847076,0.9502635598182678,0.9143106341362,-0.608756959438324,-1.100434422492981,-0.32853713631629944,-0.608756959438324,-1.100434422492981,-0.32853713631629944,0.2595852315425873,1.1849725246429443,0.3435533046722412,0.10512076318264008,0.965133547782898,0.7747273445129395,0.235536590218544,0.9554752707481384,0.8415238857269287,-0.02906203083693981,0.8992962837219238,0.709201455116272,-0.14038658142089844,0.987557590007782,0.4684920608997345,0.16025908291339874,1.0015723705291748,0.27942323684692383,0.2393035590648651,1.030970811843872,0.8402532339096069,0.3594454824924469,1.2537275552749634,0.6937029957771301,0.4432305693626404,1.3590571880340576,0.37886011600494385,0.0,0.0,0.0,0.0,0.0,0.3370000123977661,0.00017663252947386354,0.2104998528957367,0.337175577878952,0.00040151382563635707,0.4784996509552002,0.3374217748641968,0.0005479387473315,0.6529995203018188,0.337576687335968,0.0006654143217019737,0.7929993867874146,0.3377009928226471,1.5699572170257567,1.5699622760772705,-8.465180124621838e-05,-6.184239737922326e-05,3.092119868961163e-05,-0.00010513207351323217
1635963565.4064229,5.0,0.0,0.25570806860923767,1.2057384252548218,0.35039442777633667,0.11452463269233704,0.9862550497055054,0.7645836472511292,0.15926681458950043,0.832495927810669,0.7389782667160034,-0.03360619395971298,0.9344082474708557,0.7042876482009888,-0.11980176717042923,1.0050829648971558,0.5132201910018921,0.07982056587934494,1.0042256116867065,0.3996255099773407,0.26265546679496765,1.0381019115447998,0.8248796463012695,0.37225526571273804,1.2250744104385376,0.6924646496772766,0.42002031207084656,1.3148996829986572,0.5053141117095947,0.06999670714139938,0.7766014337539673,0.3341149389743805,0.08604571223258972,0.9698449969291687,0.8904743194580078,0.21607911586761475,0.9323280453681946,0.9547749161720276,-0.00986512377858162,0.9894264340400696,0.8666380047798157,-0.11386025696992874,1.1093275547027588,0.636322021484375,-0.021487032994627953,0.9004923701286316,0.44101276993751526,0.18195654451847076,0.9502635598182678,0.9143106341362,-0.608756959438324,-1.100434422492981,-0.32853713631629944,-0.608756959438324,-1.100434422492981,-0.32853713631629944,0.25570806860923767,1.2057384252548218,0.35039442777633667,0.10361847281455994,0.9835193753242493,0.781192421913147,0.23105600476264954,0.9467514157295227,0.8442093729972839,-0.033618148416280746,0.9223056435585022,0.7175355553627014,-0.14422495663166046,1.010886788368225,0.4766128659248352,0.15907643735408783,1.020443081855774,0.2915502190589905,0.24085508286952972,1.0447330474853516,0.8448493480682373,0.36287617683410645,1.2652976512908936,0.6965463757514954,0.44617682695388794,1.3825606107711792,0.38582029938697815,0.0,0.0,0.0,0.0,0.0,0.3370000123977661,0.00017663252947386354,0.2104998528957367,0.33717453479766846,0.00040151382563635707,0.4784996509552002,0.33741942048072815,0.0005479387473315,0.6529995203018188,0.33757346868515015,0.0006654143217019737,0.7929993867874146,0.3376970887184143,1.5699572170257567,1.5699672019958497,-8.465180124621838e-05,-6.184239737922326e-05,3.092119868961163e-05,-0.00010513207351323217
1635963565.40676,5.0,0.0,0.25570806860923767,1.2057384252548218,0.35039442777633667,0.11452463269233704,0.9862550497055054,0.7645836472511292,0.15926681458950043,0.832495927810669,0.7389782667160034,-0.03360619395971298,0.9344082474708557,0.7042876482009888,-0.11980176717042923,1.0050829648971558,0.5132201910018921,0.07982056587934494,1.0042256116867065,0.3996255099773407,0.26265546679496765,1.0381019115447998,0.8248796463012695,0.37225526571273804,1.2250744104385376,0.6924646496772766,0.42002031207084656,1.3148996829986572,0.5053141117095947,0.06999670714139938,0.7766014337539673,0.3341149389743805,0.08604571223258972,0.9698449969291687,0.8904743194580078,0.21607911586761475,0.9323280453681946,0.9547749161720276,-0.00986512377858162,0.9894264340400696,0.8666380047798157,-0.11386025696992874,1.1093275547027588,0.636322021484375,-0.021487032994627953,0.9004923701286316,0.44101276993751526,0.18195654451847076,0.9502635598182678,0.9143106341362,-0.608756959438324,-1.100434422492981,-0.32853713631629944,-0.608756959438324,-1.100434422492981,-0.32853713631629944,0.25570806860923767,1.2057384252548218,0.35039442777633667,0.10361847281455994,0.9835193753242493,0.781192421913147,0.23105600476264954,0.9467514157295227,0.8442093729972839,-0.033618148416280746,0.9223056435585022,0.7175355553627014,-0.14422495663166046,1.010886788368225,0.4766128659248352,0.15907643735408783,1.020443081855774,0.2915502190589905,0.24085508286952972,1.0447330474853516,0.8448493480682373,0.36287617683410645,1.2652976512908936,0.6965463757514954,0.44617682695388794,1.3825606107711792,0.38582029938697815,0.0,0.0,0.0,0.0,0.0,0.3370000123977661,0.00017663252947386354,0.2104998528957367,0.33717453479766846,0.00040151382563635707,0.4784996509552002,0.33741942048072815,0.0005479387473315,0.6529995203018188,0.33757346868515015,0.0006654143217019737,0.7929993867874146,0.3376970887184143,1.5699572170257567,1.5699672019958497,-8.465180124621838e-05,-6.184239737922326e-05,3.092119868961163e-05,-0.00010513207351323217
1635963565.4394352,5.0,0.0,0.25570806860923767,1.2057384252548218,0.35039442777633667,0.11452463269233704,0.9862550497055054,0.7645836472511292,0.15926681458950043,0.832495927810669,0.7389782667160034,-0.03360619395971298,0.9344082474708557,0.7042876482009888,-0.11980176717042923,1.0050829648971558,0.5132201910018921,0.07982056587934494,1.0042256116867065,0.3996255099773407,0.26265546679496765,1.0381019115447998,0.8248796463012695,0.37225526571273804,1.2250744104385376,0.6924646496772766,0.42002031207084656,1.3148996829986572,0.5053141117095947,0.06999670714139938,0.7766014337539673,0.3341149389743805,0.08604571223258972,0.9698449969291687,0.8904743194580078,0.21607911586761475,0.9323280453681946,0.9547749161720276,-0.00986512377858162,0.9894264340400696,0.8666380047798157,-0.11386025696992874,1.1093275547027588,0.636322021484375,-0.021487032994627953,0.9004923701286316,0.44101276993751526,0.18195654451847076,0.9502635598182678,0.9143106341362,-0.608756959438324,-1.100434422492981,-0.32853713631629944,-0.608756959438324,-1.100434422492981,-0.32853713631629944,0.25570806860923767,1.2057384252548218,0.35039442777633667,0.10919345170259476,0.9779672026634216,0.7802237272262573,0.23663099110126495,0.9411992430686951,0.8432406783103943,-0.03459421545267105,0.9276404976844788,0.721695601940155,-0.14350832998752594,1.0169429779052734,0.48026856780052185,0.16540642082691193,1.0156162977218628,0.30448126792907715,0.25298112630844116,1.0282938480377197,0.8387518525123596,0.3791864812374115,1.2435948848724365,0.686274528503418,0.4559647738933563,1.3879814147949219,0.38544580340385437,0.0,0.0,0.0,0.0,0.0,0.3370000123977661,0.00017663252947386354,0.2104998528957367,0.33717453479766846,0.00040151382563635707,0.4784996509552002,0.33741942048072815,0.0005479387473315,0.6529995203018188,0.33757346868515015,0.0006654143217019737,0.7929993867874146,0.3376970887184143,1.5699572170257567,1.5699672019958497,-8.465180124621838e-05,-6.184239737922326e-05,3.092119868961163e-05,-0.00010513207351323217
1635963565.439769,5.0,0.0,0.25570806860923767,1.2057384252548218,0.35039442777633667,0.11452463269233704,0.9862550497055054,0.7645836472511292,0.15926681458950043,0.832495927810669,0.7389782667160034,-0.03360619395971298,0.9344082474708557,0.7042876482009888,-0.11980176717042923,1.0050829648971558,0.5132201910018921,0.07982056587934494,1.0042256116867065,0.3996255099773407,0.26265546679496765,1.0381019115447998,0.8248796463012695,0.37225526571273804,1.2250744104385376,0.6924646496772766,0.42002031207084656,1.3148996829986572,0.5053141117095947,0.06999670714139938,0.7766014337539673,0.3341149389743805,0.08604571223258972,0.9698449969291687,0.8904743194580078,0.21607911586761475,0.9323280453681946,0.9547749161720276,-0.00986512377858162,0.9894264340400696,0.8666380047798157,-0.11386025696992874,1.1093275547027588,0.636322021484375,-0.021487032994627953,0.9004923701286316,0.44101276993751526,0.18195654451847076,0.9502635598182678,0.9143106341362,-0.608756959438324,-1.100434422492981,-0.32853713631629944,-0.608756959438324,-1.100434422492981,-0.32853713631629944,0.25570806860923767,1.2057384252548218,0.35039442777633667,0.10919345170259476,0.9779672026634216,0.7802237272262573,0.23663099110126495,0.9411992430686951,0.8432406783103943,-0.03459421545267105,0.9276404976844788,0.721695601940155,-0.14350832998752594,1.0169429779052734,0.48026856780052185,0.16540642082691193,1.0156162977218628,0.30448126792907715,0.25298112630844116,1.0282938480377197,0.8387518525123596,0.3791864812374115,1.2435948848724365,0.686274528503418,0.4559647738933563,1.3879814147949219,0.38544580340385437,0.0,0.0,0.0,0.0,0.0,0.3370000123977661,0.00017663252947386354,0.2104998528957367,0.33717453479766846,0.00040151382563635707,0.4784996509552002,0.33741942048072815,0.0005479387473315,0.6529995203018188,0.33757346868515015,0.0006654143217019737,0.7929993867874146,0.3376970887184143,1.5699572170257567,1.5699672019958497,-8.465180124621838e-05,-6.184239737922326e-05,3.092119868961163e-05,-0.00010513207351323217
1635963565.4723806,5.0,0.0,0.25570806860923767,1.2057384252548218,0.35039442777633667,0.11452463269233704,0.9862550497055054,0.7645836472511292,0.15926681458950043,0.832495927810669,0.7389782667160034,-0.03360619395971298,0.9344082474708557,0.7042876482009888,-0.11980176717042923,1.0050829648971558,0.5132201910018921,0.07982056587934494,1.0042256116867065,0.3996255099773407,0.26265546679496765,1.0381019115447998,0.8248796463012695,0.37225526571273804,1.2250744104385376,0.6924646496772766,0.42002031207084656,1.3148996829986572,0.5053141117095947,0.06469374150037766,0.8063402771949768,0.32666847109794617,0.09433872252702713,0.9937071204185486,0.9046109318733215,0.23456867039203644,0.9568231701850891,0.9627940058708191,-0.01970655657351017,1.0124214887619019,0.8769650459289551,-0.09415227919816971,1.1600862741470337,0.6597118973731995,-0.0330270379781723,0.9143743515014648,0.4596973657608032,0.20838400721549988,0.9749928116798401,0.932256817817688,-0.608756959438324,-1.100434422492981,-0.32853713631629944,-0.608756959438324,-1.100434422492981,-0.32853713631629944,0.25570806860923767,1.2057384252548218,0.35039442777633667,0.10919345170259476,0.9779672026634216,0.7802237272262573,0.240992933511734,0.9433006644248962,0.8349089026451111,-0.03459421545267105,0.9276404976844788,0.721695601940155,-0.14350832998752594,1.0169429779052734,0.48026856780052185,0.16540642082691193,1.0156162977218628,0.30448126792907715,0.25298112630844116,1.0282938480377197,0.8387518525123596,0.3791864812374115,1.2435948848724365,0.686274528503418,0.4559647738933563,1.3879814147949219,0.38544580340385437,0.0,0.0,0.0,0.0,0.0,0.3370000123977661,0.00017663252947386354,0.2104998528957367,0.33717453479766846,0.00040151382563635707,0.4784996509552002,0.33741942048072815,0.0005479387473315,0.6529995203018188,0.33757346868515015,0.0006654143217019737,0.7929993867874146,0.3376970887184143,1.5699572170257567,1.5699672019958497,-8.465180124621838e-05,-6.184239737922326e-05,3.092119868961163e-05,-0.00010513207351323217
1635963565.4726315,5.0,0.0,0.25570806860923767,1.2057384252548218,0.35039442777633667,0.11452463269233704,0.9862550497055054,0.7645836472511292,0.15926681458950043,0.832495927810669,0.7389782667160034,-0.03360619395971298,0.9344082474708557,0.7042876482009888,-0.11980176717042923,1.0050829648971558,0.5132201910018921,0.07982056587934494,1.0042256116867065,0.3996255099773407,0.26265546679496765,1.0381019115447998,0.8248796463012695,0.37225526571273804,1.2250744104385376,0.6924646496772766,0.42002031207084656,1.3148996829986572,0.5053141117095947,0.06469374150037766,0.8063402771949768,0.32666847109794617,0.09433872252702713,0.9937071204185486,0.9046109318733215,0.23456867039203644,0.9568231701850891,0.9627940058708191,-0.01970655657351017,1.0124214887619019,0.8769650459289551,-0.09415227919816971,1.1600862741470337,0.6597118973731995,-0.0330270379781723,0.9143743515014648,0.4596973657608032,0.20838400721549988,0.9749928116798401,0.932256817817688,-0.608756959438324,-1.100434422492981,-0.32853713631629944,-0.608756959438324,-1.100434422492981,-0.32853713631629944,0.25570806860923767,1.2057384252548218,0.35039442777633667,0.10919345170259476,0.9779672026634216,0.7802237272262573,0.240992933511734,0.9433006644248962,0.8349089026451111,-0.03459421545267105,0.9276404976844788,0.721695601940155,-0.14350832998752594,1.0169429779052734,0.48026856780052185,0.16540642082691193,1.0156162977218628,0.30448126792907715,0.25298112630844116,1.0282938480377197,0.8387518525123596,0.3791864812374115,1.2435948848724365,0.686274528503418,0.4559647738933563,1.3879814147949219,0.38544580340385437,0.0,0.0,0.0,0.0,0.0,0.3370000123977661,0.00017663252947386354,0.2104998528957367,0.33717453479766846,0.00040151382563635707,0.4784996509552002,0.33741942048072815,0.0005479387473315,0.6529995203018188,0.33757346868515015,0.0006654143217019737,0.7929993867874146,0.3376970887184143,1.5699572170257567,1.5699672019958497,-8.465180124621838e-05,-6.184239737922326e-05,3.092119868961163e-05,-0.00010513207351323217
1635963565.5053725,5.0,0.0,0.24845421314239502,1.2141786813735962,0.35740700364112854,0.11816637963056564,0.9886466860771179,0.7673783898353577,0.15657147765159607,0.8374512791633606,0.7414354085922241,-0.03331650048494339,0.9414828419685364,0.7212460041046143,-0.10195706784725189,1.0342586040496826,0.5349480509757996,0.048299640417099,1.0588862895965576,0.4404720962047577,0.2696492671966553,1.0358104705810547,0.8135107755661011,0.38375261425971985,1.1921414136886597,0.6797623634338379,0.4264162480831146,1.3022984266281128,0.47625288367271423,0.06469374150037766,0.8063402771949768,0.32666847109794617,0.09433872252702713,0.9937071204185486,0.9046109318733215,0.23456867039203644,0.9568231701850891,0.9627940058708191,-0.01970655657351017,1.0124214887619019,0.8769650459289551,-0.09415227919816971,1.1600862741470337,0.6597118973731995,-0.0330270379781723,0.9143743515014648,0.4596973657608032,0.20838400721549988,0.9749928116798401,0.932256817817688,-0.608756959438324,-1.100434422492981,-0.32853713631629944,-0.608756959438324,-1.100434422492981,-0.32853713631629944,0.24845421314239502,1.2141786813735962,0.35740700364112854,0.11217845231294632,0.9782814383506775,0.786220371723175,0.24397794902324677,0.9436149001121521,0.8409055471420288,-0.037443894892930984,0.931696891784668,0.7406545877456665,-0.12498991191387177,1.0500255823135376,0.5030451416969299,0.17304961383342743,1.0988752841949463,0.31564879417419434,0.2618007957935333,1.024865984916687,0.8317861557006836,0.4036453366279602,1.2192045450210571,0.6655203700065613,0.4657258987426758,1.3794958591461182,0.3693903684616089,0.0,0.0,0.0,0.0,0.0,0.3370000123977661,0.00017663252947386354,0.2104998528957367,0.33717453479766846,0.00040151382563635707,0.4784996509552002,0.33741942048072815,0.0005479387473315,0.6529995203018188,0.33757346868515015,0.0006654143217019737,0.7929993867874146,0.3376970887184143,1.5699572170257567,1.5699672019958497,-8.465180124621838e-05,-6.184239737922326e-05,3.092119868961163e-05,-0.00010513207351323217
